(Exported by FreeCAD)
(Post Processor: cnc1310_post)
(Output Time:2019-09-01 19:31:05.021220)
(begin preamble)
G17 G90
G21
(begin operation: T3: SingleFlute2mm)
(Path: T3: SingleFlute2mm)
(T3: SingleFlute2mm)
(begin toolchange)
; ; M6 T3
M3 S1000.0000
(finish operation: T3: SingleFlute2mm)
 (begin operation: Contour)
(Path: Contour)
(Contour)
(Compensated Tool Path. Diameter: 2.0)
G0 Z17.0000
G0 X32.3714 Y20.9285
G0 Z15.0000
G1 X32.3714 Y20.9285 Z12.0000 F300.00
G2 X33.0000 Y20.0000 Z12.0000 I-0.3714 J-0.9285 F1500.00
G1 X33.0000 Y0.0000 Z12.0000 F1500.00
G2 X32.0000 Y-1.0000 Z12.0000 I-1.0000 J0.0000 F1500.00
G1 X-0.0000 Y-1.0000 Z12.0000 F1500.00
G2 X-1.0000 Y0.0000 Z12.0000 I0.0000 J1.0000 F1500.00
G1 X-1.0000 Y21.5000 Z12.0000 F1500.00
G2 X-0.0000 Y22.5000 Z12.0000 I1.0000 J-0.0000 F1500.00
G1 X17.0000 Y22.5000 Z12.0000 F1500.00
G2 X17.9629 Y21.7698 Z12.0000 I-0.0000 J-1.0000 F1500.00
G2 X18.0000 Y21.0000 Z12.0000 I-2.7818 J-0.5198 F1500.00
G1 X32.0000 Y21.0000 Z12.0000 F1500.00
G2 X32.3714 Y20.9285 Z12.0000 I-0.0000 J-1.0000 F1500.00
G1 X32.3714 Y20.9285 Z11.0000 F300.00
G2 X33.0000 Y20.0000 Z11.0000 I-0.3714 J-0.9285 F1500.00
G1 X33.0000 Y0.0000 Z11.0000 F1500.00
G2 X32.0000 Y-1.0000 Z11.0000 I-1.0000 J0.0000 F1500.00
G1 X-0.0000 Y-1.0000 Z11.0000 F1500.00
G2 X-1.0000 Y0.0000 Z11.0000 I0.0000 J1.0000 F1500.00
G1 X-1.0000 Y21.5000 Z11.0000 F1500.00
G2 X-0.0000 Y22.5000 Z11.0000 I1.0000 J-0.0000 F1500.00
G1 X17.0000 Y22.5000 Z11.0000 F1500.00
G2 X17.9629 Y21.7698 Z11.0000 I-0.0000 J-1.0000 F1500.00
G2 X18.0000 Y21.0000 Z11.0000 I-2.7818 J-0.5198 F1500.00
G1 X32.0000 Y21.0000 Z11.0000 F1500.00
G2 X32.3714 Y20.9285 Z11.0000 I-0.0000 J-1.0000 F1500.00
G1 X32.3714 Y20.9285 Z10.0000 F300.00
G2 X33.0000 Y20.0000 Z10.0000 I-0.3714 J-0.9285 F1500.00
G1 X33.0000 Y0.0000 Z10.0000 F1500.00
G2 X32.0000 Y-1.0000 Z10.0000 I-1.0000 J0.0000 F1500.00
G1 X-0.0000 Y-1.0000 Z10.0000 F1500.00
G2 X-1.0000 Y0.0000 Z10.0000 I0.0000 J1.0000 F1500.00
G1 X-1.0000 Y21.5000 Z10.0000 F1500.00
G2 X-0.0000 Y22.5000 Z10.0000 I1.0000 J-0.0000 F1500.00
G1 X17.0000 Y22.5000 Z10.0000 F1500.00
G2 X17.9629 Y21.7698 Z10.0000 I-0.0000 J-1.0000 F1500.00
G2 X18.0000 Y21.0000 Z10.0000 I-2.7818 J-0.5198 F1500.00
G1 X32.0000 Y21.0000 Z10.0000 F1500.00
G2 X32.3714 Y20.9285 Z10.0000 I-0.0000 J-1.0000 F1500.00
G0 Z17.0000
(finish operation: Contour)
(begin postamble)
M5
G17 G90
; M2
