(Exported by FreeCAD)
(Post Processor: cnc1310_post)
(Output Time:2019-09-02 14:00:57.754476)
(begin preamble)
G17 G90
G21
(begin operation: T3: SingleFlute2mm001)
(Path: T3: SingleFlute2mm001)
(T3: SingleFlute2mm)
(begin toolchange)
; ; M6 T3
M3 S8000.0000
(finish operation: T3: SingleFlute2mm001)
(begin operation: WashBed)
(Path: WashBed)
(MillFace)
G0 Z15.0000
G0 X11.1758 Y13.6758
G0 Z13.0000
G1 X11.1758 Y13.6758 Z9.6000 F300.00
G3 X2.4319 Y8.8432 Z9.6000 I-3.6758 J-3.6758 F1500.00
G3 X12.5681 Y11.1568 Z9.6000 I5.0681 J1.1568 F1500.00
G3 X11.1758 Y13.6758 Z9.6000 I-5.0681 J-1.1568 F1500.00
G0 X11.1758 Y13.6758 Z15.0000
G0 X10.4676 Y12.9676 Z15.0000
G1 X10.4676 Y12.9676 Z9.6000 F300.00
G3 X3.4084 Y9.0661 Z9.6000 I-2.9676 J-2.9676 F1500.00
G3 X11.5916 Y10.9339 Z9.6000 I4.0916 J0.9339 F1500.00
G3 X10.4676 Y12.9676 Z9.6000 I-4.0916 J-0.9339 F1500.00
G0 X10.4676 Y12.9676 Z15.0000
G0 X9.7594 Y12.2594 Z15.0000
G1 X9.7594 Y12.2594 Z9.6000 F300.00
G3 X4.3848 Y9.2890 Z9.6000 I-2.2594 J-2.2594 F1500.00
G3 X10.6152 Y10.7110 Z9.6000 I3.1152 J0.7110 F1500.00
G3 X9.7594 Y12.2594 Z9.6000 I-3.1152 J-0.7110 F1500.00
G0 X9.7594 Y12.2594 Z15.0000
G0 X9.0512 Y11.5512 Z15.0000
G1 X9.0512 Y11.5512 Z9.6000 F300.00
G3 X5.3613 Y9.5119 Z9.6000 I-1.5512 J-1.5512 F1500.00
G3 X7.9881 Y7.8613 Z9.6000 I2.1387 J0.4881 F1500.00
G3 X9.6387 Y10.4881 Z9.6000 I-0.4881 J2.1387 F1500.00
G3 X9.0512 Y11.5512 Z9.6000 I-2.1387 J-0.4881 F1500.00
G0 X9.0512 Y11.5512 Z15.0000
G0 X8.3430 Y10.8430 Z15.0000
G1 X8.3430 Y10.8430 Z9.6000 F300.00
G3 X6.3378 Y9.7347 Z9.6000 I-0.8430 J-0.8430 F1500.00
G3 X8.6622 Y10.2653 Z9.6000 I1.1622 J0.2653 F1500.00
G3 X8.3430 Y10.8430 Z9.6000 I-1.1622 J-0.2653 F1500.00
G0 X8.3430 Y10.8430 Z15.0000
G0 X7.6347 Y10.1347 Z15.0000
G1 X7.6347 Y10.1347 Z9.6000 F300.00
G3 X7.3142 Y9.9576 Z9.6000 I-0.1347 J-0.1347 F1500.00
G3 X7.5424 Y9.8142 Z9.6000 I0.1858 J0.0424 F1500.00
G3 X7.6858 Y10.0424 Z9.6000 I-0.0424 J0.1858 F1500.00
G3 X7.6347 Y10.1347 Z9.6000 I-0.1858 J-0.0424 F1500.00
G1 X7.6347 Y10.1347 Z9.2000 F300.00
G3 X7.3142 Y9.9576 Z9.2000 I-0.1347 J-0.1347 F1500.00
G3 X7.5424 Y9.8142 Z9.2000 I0.1858 J0.0424 F1500.00
G3 X7.6858 Y10.0424 Z9.2000 I-0.0424 J0.1858 F1500.00
G3 X7.6347 Y10.1347 Z9.2000 I-0.1858 J-0.0424 F1500.00
G0 X7.6347 Y10.1347 Z15.0000
G0 X8.3430 Y10.8430 Z15.0000
G1 X8.3430 Y10.8430 Z9.2000 F300.00
G3 X6.3378 Y9.7347 Z9.2000 I-0.8430 J-0.8430 F1500.00
G3 X8.6622 Y10.2653 Z9.2000 I1.1622 J0.2653 F1500.00
G3 X8.3430 Y10.8430 Z9.2000 I-1.1622 J-0.2653 F1500.00
G0 X8.3430 Y10.8430 Z15.0000
G0 X9.0512 Y11.5512 Z15.0000
G1 X9.0512 Y11.5512 Z9.2000 F300.00
G3 X5.3613 Y9.5119 Z9.2000 I-1.5512 J-1.5512 F1500.00
G3 X7.9881 Y7.8613 Z9.2000 I2.1387 J0.4881 F1500.00
G3 X9.6387 Y10.4881 Z9.2000 I-0.4881 J2.1387 F1500.00
G3 X9.0512 Y11.5512 Z9.2000 I-2.1387 J-0.4881 F1500.00
G0 X9.0512 Y11.5512 Z15.0000
G0 X9.7594 Y12.2594 Z15.0000
G1 X9.7594 Y12.2594 Z9.2000 F300.00
G3 X4.3848 Y9.2890 Z9.2000 I-2.2594 J-2.2594 F1500.00
G3 X10.6152 Y10.7110 Z9.2000 I3.1152 J0.7110 F1500.00
G3 X9.7594 Y12.2594 Z9.2000 I-3.1152 J-0.7110 F1500.00
G0 X9.7594 Y12.2594 Z15.0000
G0 X10.4676 Y12.9676 Z15.0000
G1 X10.4676 Y12.9676 Z9.2000 F300.00
G3 X3.4084 Y9.0661 Z9.2000 I-2.9676 J-2.9676 F1500.00
G3 X11.5916 Y10.9339 Z9.2000 I4.0916 J0.9339 F1500.00
G3 X10.4676 Y12.9676 Z9.2000 I-4.0916 J-0.9339 F1500.00
G0 X10.4676 Y12.9676 Z15.0000
G0 X11.1758 Y13.6758 Z15.0000
G1 X11.1758 Y13.6758 Z9.2000 F300.00
G3 X2.4319 Y8.8432 Z9.2000 I-3.6758 J-3.6758 F1500.00
G3 X12.5681 Y11.1568 Z9.2000 I5.0681 J1.1568 F1500.00
G3 X11.1758 Y13.6758 Z9.2000 I-5.0681 J-1.1568 F1500.00
G1 X11.1758 Y13.6758 Z8.8000 F300.00
G3 X2.4319 Y8.8432 Z8.8000 I-3.6758 J-3.6758 F1500.00
G3 X12.5681 Y11.1568 Z8.8000 I5.0681 J1.1568 F1500.00
G3 X11.1758 Y13.6758 Z8.8000 I-5.0681 J-1.1568 F1500.00
G0 X11.1758 Y13.6758 Z15.0000
G0 X10.4676 Y12.9676 Z15.0000
G1 X10.4676 Y12.9676 Z8.8000 F300.00
G3 X3.4084 Y9.0661 Z8.8000 I-2.9676 J-2.9676 F1500.00
G3 X11.5916 Y10.9339 Z8.8000 I4.0916 J0.9339 F1500.00
G3 X10.4676 Y12.9676 Z8.8000 I-4.0916 J-0.9339 F1500.00
G0 X10.4676 Y12.9676 Z15.0000
G0 X9.7594 Y12.2594 Z15.0000
G1 X9.7594 Y12.2594 Z8.8000 F300.00
G3 X4.3848 Y9.2890 Z8.8000 I-2.2594 J-2.2594 F1500.00
G3 X10.6152 Y10.7110 Z8.8000 I3.1152 J0.7110 F1500.00
G3 X9.7594 Y12.2594 Z8.8000 I-3.1152 J-0.7110 F1500.00
G0 X9.7594 Y12.2594 Z15.0000
G0 X9.0512 Y11.5512 Z15.0000
G1 X9.0512 Y11.5512 Z8.8000 F300.00
G3 X5.3613 Y9.5119 Z8.8000 I-1.5512 J-1.5512 F1500.00
G3 X7.9881 Y7.8613 Z8.8000 I2.1387 J0.4881 F1500.00
G3 X9.6387 Y10.4881 Z8.8000 I-0.4881 J2.1387 F1500.00
G3 X9.0512 Y11.5512 Z8.8000 I-2.1387 J-0.4881 F1500.00
G0 X9.0512 Y11.5512 Z15.0000
G0 X8.3430 Y10.8430 Z15.0000
G1 X8.3430 Y10.8430 Z8.8000 F300.00
G3 X6.3378 Y9.7347 Z8.8000 I-0.8430 J-0.8430 F1500.00
G3 X8.6622 Y10.2653 Z8.8000 I1.1622 J0.2653 F1500.00
G3 X8.3430 Y10.8430 Z8.8000 I-1.1622 J-0.2653 F1500.00
G0 X8.3430 Y10.8430 Z15.0000
G0 X7.6347 Y10.1347 Z15.0000
G1 X7.6347 Y10.1347 Z8.8000 F300.00
G3 X7.3142 Y9.9576 Z8.8000 I-0.1347 J-0.1347 F1500.00
G3 X7.5424 Y9.8142 Z8.8000 I0.1858 J0.0424 F1500.00
G3 X7.6858 Y10.0424 Z8.8000 I-0.0424 J0.1858 F1500.00
G3 X7.6347 Y10.1347 Z8.8000 I-0.1858 J-0.0424 F1500.00
G1 X7.6347 Y10.1347 Z8.4000 F300.00
G3 X7.3142 Y9.9576 Z8.4000 I-0.1347 J-0.1347 F1500.00
G3 X7.5424 Y9.8142 Z8.4000 I0.1858 J0.0424 F1500.00
G3 X7.6858 Y10.0424 Z8.4000 I-0.0424 J0.1858 F1500.00
G3 X7.6347 Y10.1347 Z8.4000 I-0.1858 J-0.0424 F1500.00
G0 X7.6347 Y10.1347 Z15.0000
G0 X8.3430 Y10.8430 Z15.0000
G1 X8.3430 Y10.8430 Z8.4000 F300.00
G3 X6.3378 Y9.7347 Z8.4000 I-0.8430 J-0.8430 F1500.00
G3 X8.6622 Y10.2653 Z8.4000 I1.1622 J0.2653 F1500.00
G3 X8.3430 Y10.8430 Z8.4000 I-1.1622 J-0.2653 F1500.00
G0 X8.3430 Y10.8430 Z15.0000
G0 X9.0512 Y11.5512 Z15.0000
G1 X9.0512 Y11.5512 Z8.4000 F300.00
G3 X5.3613 Y9.5119 Z8.4000 I-1.5512 J-1.5512 F1500.00
G3 X7.9881 Y7.8613 Z8.4000 I2.1387 J0.4881 F1500.00
G3 X9.6387 Y10.4881 Z8.4000 I-0.4881 J2.1387 F1500.00
G3 X9.0512 Y11.5512 Z8.4000 I-2.1387 J-0.4881 F1500.00
G0 X9.0512 Y11.5512 Z15.0000
G0 X9.7594 Y12.2594 Z15.0000
G1 X9.7594 Y12.2594 Z8.4000 F300.00
G3 X4.3848 Y9.2890 Z8.4000 I-2.2594 J-2.2594 F1500.00
G3 X10.6152 Y10.7110 Z8.4000 I3.1152 J0.7110 F1500.00
G3 X9.7594 Y12.2594 Z8.4000 I-3.1152 J-0.7110 F1500.00
G0 X9.7594 Y12.2594 Z15.0000
G0 X10.4676 Y12.9676 Z15.0000
G1 X10.4676 Y12.9676 Z8.4000 F300.00
G3 X3.4084 Y9.0661 Z8.4000 I-2.9676 J-2.9676 F1500.00
G3 X11.5916 Y10.9339 Z8.4000 I4.0916 J0.9339 F1500.00
G3 X10.4676 Y12.9676 Z8.4000 I-4.0916 J-0.9339 F1500.00
G0 X10.4676 Y12.9676 Z15.0000
G0 X11.1758 Y13.6758 Z15.0000
G1 X11.1758 Y13.6758 Z8.4000 F300.00
G3 X2.4319 Y8.8432 Z8.4000 I-3.6758 J-3.6758 F1500.00
G3 X12.5681 Y11.1568 Z8.4000 I5.0681 J1.1568 F1500.00
G3 X11.1758 Y13.6758 Z8.4000 I-5.0681 J-1.1568 F1500.00
G1 X11.1758 Y13.6758 Z8.0000 F300.00
G3 X2.4319 Y8.8432 Z8.0000 I-3.6758 J-3.6758 F1500.00
G3 X12.5681 Y11.1568 Z8.0000 I5.0681 J1.1568 F1500.00
G3 X11.1758 Y13.6758 Z8.0000 I-5.0681 J-1.1568 F1500.00
G0 X11.1758 Y13.6758 Z15.0000
G0 X10.4676 Y12.9676 Z15.0000
G1 X10.4676 Y12.9676 Z8.0000 F300.00
G3 X3.4084 Y9.0661 Z8.0000 I-2.9676 J-2.9676 F1500.00
G3 X11.5916 Y10.9339 Z8.0000 I4.0916 J0.9339 F1500.00
G3 X10.4676 Y12.9676 Z8.0000 I-4.0916 J-0.9339 F1500.00
G0 X10.4676 Y12.9676 Z15.0000
G0 X9.7594 Y12.2594 Z15.0000
G1 X9.7594 Y12.2594 Z8.0000 F300.00
G3 X4.3848 Y9.2890 Z8.0000 I-2.2594 J-2.2594 F1500.00
G3 X10.6152 Y10.7110 Z8.0000 I3.1152 J0.7110 F1500.00
G3 X9.7594 Y12.2594 Z8.0000 I-3.1152 J-0.7110 F1500.00
G0 X9.7594 Y12.2594 Z15.0000
G0 X9.0512 Y11.5512 Z15.0000
G1 X9.0512 Y11.5512 Z8.0000 F300.00
G3 X5.3613 Y9.5119 Z8.0000 I-1.5512 J-1.5512 F1500.00
G3 X7.9881 Y7.8613 Z8.0000 I2.1387 J0.4881 F1500.00
G3 X9.6387 Y10.4881 Z8.0000 I-0.4881 J2.1387 F1500.00
G3 X9.0512 Y11.5512 Z8.0000 I-2.1387 J-0.4881 F1500.00
G0 X9.0512 Y11.5512 Z15.0000
G0 X8.3430 Y10.8430 Z15.0000
G1 X8.3430 Y10.8430 Z8.0000 F300.00
G3 X6.3378 Y9.7347 Z8.0000 I-0.8430 J-0.8430 F1500.00
G3 X8.6622 Y10.2653 Z8.0000 I1.1622 J0.2653 F1500.00
G3 X8.3430 Y10.8430 Z8.0000 I-1.1622 J-0.2653 F1500.00
G0 X8.3430 Y10.8430 Z15.0000
G0 X7.6347 Y10.1347 Z15.0000
G1 X7.6347 Y10.1347 Z8.0000 F300.00
G3 X7.3142 Y9.9576 Z8.0000 I-0.1347 J-0.1347 F1500.00
G3 X7.5424 Y9.8142 Z8.0000 I0.1858 J0.0424 F1500.00
G3 X7.6858 Y10.0424 Z8.0000 I-0.0424 J0.1858 F1500.00
G3 X7.6347 Y10.1347 Z8.0000 I-0.1858 J-0.0424 F1500.00
G1 X7.6347 Y10.1347 Z7.6000 F300.00
G3 X7.3142 Y9.9576 Z7.6000 I-0.1347 J-0.1347 F1500.00
G3 X7.5424 Y9.8142 Z7.6000 I0.1858 J0.0424 F1500.00
G3 X7.6858 Y10.0424 Z7.6000 I-0.0424 J0.1858 F1500.00
G3 X7.6347 Y10.1347 Z7.6000 I-0.1858 J-0.0424 F1500.00
G0 X7.6347 Y10.1347 Z15.0000
G0 X8.3430 Y10.8430 Z15.0000
G1 X8.3430 Y10.8430 Z7.6000 F300.00
G3 X6.3378 Y9.7347 Z7.6000 I-0.8430 J-0.8430 F1500.00
G3 X8.6622 Y10.2653 Z7.6000 I1.1622 J0.2653 F1500.00
G3 X8.3430 Y10.8430 Z7.6000 I-1.1622 J-0.2653 F1500.00
G0 X8.3430 Y10.8430 Z15.0000
G0 X9.0512 Y11.5512 Z15.0000
G1 X9.0512 Y11.5512 Z7.6000 F300.00
G3 X5.3613 Y9.5119 Z7.6000 I-1.5512 J-1.5512 F1500.00
G3 X7.9881 Y7.8613 Z7.6000 I2.1387 J0.4881 F1500.00
G3 X9.6387 Y10.4881 Z7.6000 I-0.4881 J2.1387 F1500.00
G3 X9.0512 Y11.5512 Z7.6000 I-2.1387 J-0.4881 F1500.00
G0 X9.0512 Y11.5512 Z15.0000
G0 X9.7594 Y12.2594 Z15.0000
G1 X9.7594 Y12.2594 Z7.6000 F300.00
G3 X4.3848 Y9.2890 Z7.6000 I-2.2594 J-2.2594 F1500.00
G3 X10.6152 Y10.7110 Z7.6000 I3.1152 J0.7110 F1500.00
G3 X9.7594 Y12.2594 Z7.6000 I-3.1152 J-0.7110 F1500.00
G0 X9.7594 Y12.2594 Z15.0000
G0 X10.4676 Y12.9676 Z15.0000
G1 X10.4676 Y12.9676 Z7.6000 F300.00
G3 X3.4084 Y9.0661 Z7.6000 I-2.9676 J-2.9676 F1500.00
G3 X11.5916 Y10.9339 Z7.6000 I4.0916 J0.9339 F1500.00
G3 X10.4676 Y12.9676 Z7.6000 I-4.0916 J-0.9339 F1500.00
G0 X10.4676 Y12.9676 Z15.0000
G0 X11.1758 Y13.6758 Z15.0000
G1 X11.1758 Y13.6758 Z7.6000 F300.00
G3 X2.4319 Y8.8432 Z7.6000 I-3.6758 J-3.6758 F1500.00
G3 X12.5681 Y11.1568 Z7.6000 I5.0681 J1.1568 F1500.00
G3 X11.1758 Y13.6758 Z7.6000 I-5.0681 J-1.1568 F1500.00
G1 X11.1758 Y13.6758 Z7.2000 F300.00
G3 X2.4319 Y8.8432 Z7.2000 I-3.6758 J-3.6758 F1500.00
G3 X12.5681 Y11.1568 Z7.2000 I5.0681 J1.1568 F1500.00
G3 X11.1758 Y13.6758 Z7.2000 I-5.0681 J-1.1568 F1500.00
G0 X11.1758 Y13.6758 Z15.0000
G0 X10.4676 Y12.9676 Z15.0000
G1 X10.4676 Y12.9676 Z7.2000 F300.00
G3 X3.4084 Y9.0661 Z7.2000 I-2.9676 J-2.9676 F1500.00
G3 X11.5916 Y10.9339 Z7.2000 I4.0916 J0.9339 F1500.00
G3 X10.4676 Y12.9676 Z7.2000 I-4.0916 J-0.9339 F1500.00
G0 X10.4676 Y12.9676 Z15.0000
G0 X9.7594 Y12.2594 Z15.0000
G1 X9.7594 Y12.2594 Z7.2000 F300.00
G3 X4.3848 Y9.2890 Z7.2000 I-2.2594 J-2.2594 F1500.00
G3 X10.6152 Y10.7110 Z7.2000 I3.1152 J0.7110 F1500.00
G3 X9.7594 Y12.2594 Z7.2000 I-3.1152 J-0.7110 F1500.00
G0 X9.7594 Y12.2594 Z15.0000
G0 X9.0512 Y11.5512 Z15.0000
G1 X9.0512 Y11.5512 Z7.2000 F300.00
G3 X5.3613 Y9.5119 Z7.2000 I-1.5512 J-1.5512 F1500.00
G3 X7.9881 Y7.8613 Z7.2000 I2.1387 J0.4881 F1500.00
G3 X9.6387 Y10.4881 Z7.2000 I-0.4881 J2.1387 F1500.00
G3 X9.0512 Y11.5512 Z7.2000 I-2.1387 J-0.4881 F1500.00
G0 X9.0512 Y11.5512 Z15.0000
G0 X8.3430 Y10.8430 Z15.0000
G1 X8.3430 Y10.8430 Z7.2000 F300.00
G3 X6.3378 Y9.7347 Z7.2000 I-0.8430 J-0.8430 F1500.00
G3 X8.6622 Y10.2653 Z7.2000 I1.1622 J0.2653 F1500.00
G3 X8.3430 Y10.8430 Z7.2000 I-1.1622 J-0.2653 F1500.00
G0 X8.3430 Y10.8430 Z15.0000
G0 X7.6347 Y10.1347 Z15.0000
G1 X7.6347 Y10.1347 Z7.2000 F300.00
G3 X7.3142 Y9.9576 Z7.2000 I-0.1347 J-0.1347 F1500.00
G3 X7.5424 Y9.8142 Z7.2000 I0.1858 J0.0424 F1500.00
G3 X7.6858 Y10.0424 Z7.2000 I-0.0424 J0.1858 F1500.00
G3 X7.6347 Y10.1347 Z7.2000 I-0.1858 J-0.0424 F1500.00
G1 X7.6347 Y10.1347 Z7.0000 F300.00
G3 X7.3142 Y9.9576 Z7.0000 I-0.1347 J-0.1347 F1500.00
G3 X7.5424 Y9.8142 Z7.0000 I0.1858 J0.0424 F1500.00
G3 X7.6858 Y10.0424 Z7.0000 I-0.0424 J0.1858 F1500.00
G3 X7.6347 Y10.1347 Z7.0000 I-0.1858 J-0.0424 F1500.00
G0 X7.6347 Y10.1347 Z15.0000
G0 X8.3430 Y10.8430 Z15.0000
G1 X8.3430 Y10.8430 Z7.0000 F300.00
G3 X6.3378 Y9.7347 Z7.0000 I-0.8430 J-0.8430 F1500.00
G3 X8.6622 Y10.2653 Z7.0000 I1.1622 J0.2653 F1500.00
G3 X8.3430 Y10.8430 Z7.0000 I-1.1622 J-0.2653 F1500.00
G0 X8.3430 Y10.8430 Z15.0000
G0 X9.0512 Y11.5512 Z15.0000
G1 X9.0512 Y11.5512 Z7.0000 F300.00
G3 X5.3613 Y9.5119 Z7.0000 I-1.5512 J-1.5512 F1500.00
G3 X7.9881 Y7.8613 Z7.0000 I2.1387 J0.4881 F1500.00
G3 X9.6387 Y10.4881 Z7.0000 I-0.4881 J2.1387 F1500.00
G3 X9.0512 Y11.5512 Z7.0000 I-2.1387 J-0.4881 F1500.00
G0 X9.0512 Y11.5512 Z15.0000
G0 X9.7594 Y12.2594 Z15.0000
G1 X9.7594 Y12.2594 Z7.0000 F300.00
G3 X4.3848 Y9.2890 Z7.0000 I-2.2594 J-2.2594 F1500.00
G3 X10.6152 Y10.7110 Z7.0000 I3.1152 J0.7110 F1500.00
G3 X9.7594 Y12.2594 Z7.0000 I-3.1152 J-0.7110 F1500.00
G0 X9.7594 Y12.2594 Z15.0000
G0 X10.4676 Y12.9676 Z15.0000
G1 X10.4676 Y12.9676 Z7.0000 F300.00
G3 X3.4084 Y9.0661 Z7.0000 I-2.9676 J-2.9676 F1500.00
G3 X11.5916 Y10.9339 Z7.0000 I4.0916 J0.9339 F1500.00
G3 X10.4676 Y12.9676 Z7.0000 I-4.0916 J-0.9339 F1500.00
G0 X10.4676 Y12.9676 Z15.0000
G0 X11.1758 Y13.6758 Z15.0000
G1 X11.1758 Y13.6758 Z7.0000 F300.00
G3 X2.4319 Y8.8432 Z7.0000 I-3.6758 J-3.6758 F1500.00
G3 X12.5681 Y11.1568 Z7.0000 I5.0681 J1.1568 F1500.00
G3 X11.1758 Y13.6758 Z7.0000 I-5.0681 J-1.1568 F1500.00
G0 Z15.0000
(finish operation: WashBed)
(begin operation: BoltHole)
(Path: BoltHole)
(MillFace001)
G0 Z15.0000
G0 X6.8165 Y11.3808
G0 Z13.0000
G1 X6.8165 Y11.3808 Z6.6000 F300.00
G1 X6.1192 Y10.6835 Z6.6000 F1500.00
G2 X6.8165 Y11.3808 Z6.6000 I1.3068 J-0.6096 F1500.00
G2 X8.2157 Y11.3658 Z6.6000 I0.6854 J-1.3373 F1500.00
G1 X6.1342 Y9.2843 Z6.6000 F1500.00
G3 X6.8620 Y8.5980 Z6.6000 I1.2996 J0.6491 F1500.00
G1 X8.9020 Y10.6380 Z6.6000 F1500.00
G2 X8.4939 Y8.8156 Z6.6000 I-1.3881 J-0.6460 F1500.00
G1 X8.4939 Y8.8156 Z6.2000 F300.00
G3 X8.9020 Y10.6380 Z6.2000 I-0.9799 J1.1764 F1500.00
G1 X6.8620 Y8.5980 Z6.2000 F1500.00
G2 X6.1342 Y9.2843 Z6.2000 I0.5718 J1.3354 F1500.00
G1 X8.2157 Y11.3658 Z6.2000 F1500.00
G3 X6.8165 Y11.3808 Z6.2000 I-0.7139 J-1.3224 F1500.00
G3 X6.1192 Y10.6835 Z6.2000 I0.6096 J-1.3068 F1500.00
G1 X6.8165 Y11.3808 Z6.2000 F1500.00
G1 X6.8165 Y11.3808 Z5.8000 F300.00
G1 X6.1192 Y10.6835 Z5.8000 F1500.00
G2 X6.8165 Y11.3808 Z5.8000 I1.3068 J-0.6096 F1500.00
G2 X8.2157 Y11.3658 Z5.8000 I0.6854 J-1.3373 F1500.00
G1 X6.1342 Y9.2843 Z5.8000 F1500.00
G3 X6.8620 Y8.5980 Z5.8000 I1.2996 J0.6491 F1500.00
G1 X8.9020 Y10.6380 Z5.8000 F1500.00
G2 X8.4939 Y8.8156 Z5.8000 I-1.3881 J-0.6460 F1500.00
G1 X8.4939 Y8.8156 Z5.4000 F300.00
G3 X8.9020 Y10.6380 Z5.4000 I-0.9799 J1.1764 F1500.00
G1 X6.8620 Y8.5980 Z5.4000 F1500.00
G2 X6.1342 Y9.2843 Z5.4000 I0.5718 J1.3354 F1500.00
G1 X8.2157 Y11.3658 Z5.4000 F1500.00
G3 X6.8165 Y11.3808 Z5.4000 I-0.7139 J-1.3224 F1500.00
G3 X6.1192 Y10.6835 Z5.4000 I0.6096 J-1.3068 F1500.00
G1 X6.8165 Y11.3808 Z5.4000 F1500.00
G1 X6.8165 Y11.3808 Z5.0000 F300.00
G1 X6.1192 Y10.6835 Z5.0000 F1500.00
G2 X6.8165 Y11.3808 Z5.0000 I1.3068 J-0.6096 F1500.00
G2 X8.2157 Y11.3658 Z5.0000 I0.6854 J-1.3373 F1500.00
G1 X6.1342 Y9.2843 Z5.0000 F1500.00
G3 X6.8620 Y8.5980 Z5.0000 I1.2996 J0.6491 F1500.00
G1 X8.9020 Y10.6380 Z5.0000 F1500.00
G2 X8.4939 Y8.8156 Z5.0000 I-1.3881 J-0.6460 F1500.00
G1 X8.4939 Y8.8156 Z4.6000 F300.00
G3 X8.9020 Y10.6380 Z4.6000 I-0.9799 J1.1764 F1500.00
G1 X6.8620 Y8.5980 Z4.6000 F1500.00
G2 X6.1342 Y9.2843 Z4.6000 I0.5718 J1.3354 F1500.00
G1 X8.2157 Y11.3658 Z4.6000 F1500.00
G3 X6.8165 Y11.3808 Z4.6000 I-0.7139 J-1.3224 F1500.00
G3 X6.1192 Y10.6835 Z4.6000 I0.6096 J-1.3068 F1500.00
G1 X6.8165 Y11.3808 Z4.6000 F1500.00
G1 X6.8165 Y11.3808 Z4.2000 F300.00
G1 X6.1192 Y10.6835 Z4.2000 F1500.00
G2 X6.8165 Y11.3808 Z4.2000 I1.3068 J-0.6096 F1500.00
G2 X8.2157 Y11.3658 Z4.2000 I0.6854 J-1.3373 F1500.00
G1 X6.1342 Y9.2843 Z4.2000 F1500.00
G3 X6.8620 Y8.5980 Z4.2000 I1.2996 J0.6491 F1500.00
G1 X8.9020 Y10.6380 Z4.2000 F1500.00
G2 X8.4939 Y8.8156 Z4.2000 I-1.3881 J-0.6460 F1500.00
G1 X8.4939 Y8.8156 Z3.8000 F300.00
G3 X8.9020 Y10.6380 Z3.8000 I-0.9799 J1.1764 F1500.00
G1 X6.8620 Y8.5980 Z3.8000 F1500.00
G2 X6.1342 Y9.2843 Z3.8000 I0.5718 J1.3354 F1500.00
G1 X8.2157 Y11.3658 Z3.8000 F1500.00
G3 X6.8165 Y11.3808 Z3.8000 I-0.7139 J-1.3224 F1500.00
G3 X6.1192 Y10.6835 Z3.8000 I0.6096 J-1.3068 F1500.00
G1 X6.8165 Y11.3808 Z3.8000 F1500.00
G1 X6.8165 Y11.3808 Z3.4000 F300.00
G1 X6.1192 Y10.6835 Z3.4000 F1500.00
G2 X6.8165 Y11.3808 Z3.4000 I1.3068 J-0.6096 F1500.00
G2 X8.2157 Y11.3658 Z3.4000 I0.6854 J-1.3373 F1500.00
G1 X6.1342 Y9.2843 Z3.4000 F1500.00
G3 X6.8620 Y8.5980 Z3.4000 I1.2996 J0.6491 F1500.00
G1 X8.9020 Y10.6380 Z3.4000 F1500.00
G2 X8.4939 Y8.8156 Z3.4000 I-1.3881 J-0.6460 F1500.00
G1 X8.4939 Y8.8156 Z3.0000 F300.00
G3 X8.9020 Y10.6380 Z3.0000 I-0.9799 J1.1764 F1500.00
G1 X6.8620 Y8.5980 Z3.0000 F1500.00
G2 X6.1342 Y9.2843 Z3.0000 I0.5718 J1.3354 F1500.00
G1 X8.2157 Y11.3658 Z3.0000 F1500.00
G3 X6.8165 Y11.3808 Z3.0000 I-0.7139 J-1.3224 F1500.00
G3 X6.1192 Y10.6835 Z3.0000 I0.6096 J-1.3068 F1500.00
G1 X6.8165 Y11.3808 Z3.0000 F1500.00
G1 X6.8165 Y11.3808 Z2.6000 F300.00
G1 X6.1192 Y10.6835 Z2.6000 F1500.00
G2 X6.8165 Y11.3808 Z2.6000 I1.3068 J-0.6096 F1500.00
G2 X8.2157 Y11.3658 Z2.6000 I0.6854 J-1.3373 F1500.00
G1 X6.1342 Y9.2843 Z2.6000 F1500.00
G3 X6.8620 Y8.5980 Z2.6000 I1.2996 J0.6491 F1500.00
G1 X8.9020 Y10.6380 Z2.6000 F1500.00
G2 X8.4939 Y8.8156 Z2.6000 I-1.3881 J-0.6460 F1500.00
G1 X8.4939 Y8.8156 Z2.2000 F300.00
G3 X8.9020 Y10.6380 Z2.2000 I-0.9799 J1.1764 F1500.00
G1 X6.8620 Y8.5980 Z2.2000 F1500.00
G2 X6.1342 Y9.2843 Z2.2000 I0.5718 J1.3354 F1500.00
G1 X8.2157 Y11.3658 Z2.2000 F1500.00
G3 X6.8165 Y11.3808 Z2.2000 I-0.7139 J-1.3224 F1500.00
G3 X6.1192 Y10.6835 Z2.2000 I0.6096 J-1.3068 F1500.00
G1 X6.8165 Y11.3808 Z2.2000 F1500.00
G1 X6.8165 Y11.3808 Z1.8000 F300.00
G1 X6.1192 Y10.6835 Z1.8000 F1500.00
G2 X6.8165 Y11.3808 Z1.8000 I1.3068 J-0.6096 F1500.00
G2 X8.2157 Y11.3658 Z1.8000 I0.6854 J-1.3373 F1500.00
G1 X6.1342 Y9.2843 Z1.8000 F1500.00
G3 X6.8620 Y8.5980 Z1.8000 I1.2996 J0.6491 F1500.00
G1 X8.9020 Y10.6380 Z1.8000 F1500.00
G2 X8.4939 Y8.8156 Z1.8000 I-1.3881 J-0.6460 F1500.00
G1 X8.4939 Y8.8156 Z1.4000 F300.00
G3 X8.9020 Y10.6380 Z1.4000 I-0.9799 J1.1764 F1500.00
G1 X6.8620 Y8.5980 Z1.4000 F1500.00
G2 X6.1342 Y9.2843 Z1.4000 I0.5718 J1.3354 F1500.00
G1 X8.2157 Y11.3658 Z1.4000 F1500.00
G3 X6.8165 Y11.3808 Z1.4000 I-0.7139 J-1.3224 F1500.00
G3 X6.1192 Y10.6835 Z1.4000 I0.6096 J-1.3068 F1500.00
G1 X6.8165 Y11.3808 Z1.4000 F1500.00
G1 X6.8165 Y11.3808 Z1.0000 F300.00
G1 X6.1192 Y10.6835 Z1.0000 F1500.00
G2 X6.8165 Y11.3808 Z1.0000 I1.3068 J-0.6096 F1500.00
G2 X8.2157 Y11.3658 Z1.0000 I0.6854 J-1.3373 F1500.00
G1 X6.1342 Y9.2843 Z1.0000 F1500.00
G3 X6.8620 Y8.5980 Z1.0000 I1.2996 J0.6491 F1500.00
G1 X8.9020 Y10.6380 Z1.0000 F1500.00
G2 X8.4939 Y8.8156 Z1.0000 I-1.3881 J-0.6460 F1500.00
G1 X8.4939 Y8.8156 Z0.6000 F300.00
G3 X8.9020 Y10.6380 Z0.6000 I-0.9799 J1.1764 F1500.00
G1 X6.8620 Y8.5980 Z0.6000 F1500.00
G2 X6.1342 Y9.2843 Z0.6000 I0.5718 J1.3354 F1500.00
G1 X8.2157 Y11.3658 Z0.6000 F1500.00
G3 X6.8165 Y11.3808 Z0.6000 I-0.7139 J-1.3224 F1500.00
G3 X6.1192 Y10.6835 Z0.6000 I0.6096 J-1.3068 F1500.00
G1 X6.8165 Y11.3808 Z0.6000 F1500.00
G1 X6.8165 Y11.3808 Z0.2000 F300.00
G1 X6.1192 Y10.6835 Z0.2000 F1500.00
G2 X6.8165 Y11.3808 Z0.2000 I1.3068 J-0.6096 F1500.00
G2 X8.2157 Y11.3658 Z0.2000 I0.6854 J-1.3373 F1500.00
G1 X6.1342 Y9.2843 Z0.2000 F1500.00
G3 X6.8620 Y8.5980 Z0.2000 I1.2996 J0.6491 F1500.00
G1 X8.9020 Y10.6380 Z0.2000 F1500.00
G2 X8.4939 Y8.8156 Z0.2000 I-1.3881 J-0.6460 F1500.00
G1 X8.4939 Y8.8156 Z0.0000 F300.00
G3 X8.9020 Y10.6380 Z0.0000 I-0.9799 J1.1764 F1500.00
G1 X6.8620 Y8.5980 Z0.0000 F1500.00
G2 X6.1342 Y9.2843 Z0.0000 I0.5718 J1.3354 F1500.00
G1 X8.2157 Y11.3658 Z0.0000 F1500.00
G3 X6.8165 Y11.3808 Z0.0000 I-0.7139 J-1.3224 F1500.00
G3 X6.1192 Y10.6835 Z0.0000 I0.6096 J-1.3068 F1500.00
G1 X6.8165 Y11.3808 Z0.0000 F1500.00
G0 Z15.0000
(finish operation: BoltHole)
(begin operation: Interior Contour)
(Path: Interior Contour)
(Interior Contour)
(Compensated Tool Path. Diameter: 2.0)
G0 Z15.0000
G0 X32.7071 Y22.2071
G0 Z13.0000
G1 X32.7071 Y22.2071 Z9.0000 F300.00
G2 X33.0000 Y21.5000 Z9.0000 I-0.7071 J-0.7071 F1500.00
G1 X33.0000 Y0.0000 Z9.0000 F1500.00
G2 X32.0000 Y-1.0000 Z9.0000 I-1.0000 J0.0000 F1500.00
G1 X-0.0000 Y-1.0000 Z9.0000 F1500.00
G2 X-1.0000 Y0.0000 Z9.0000 I0.0000 J1.0000 F1500.00
G1 X-1.0000 Y20.0000 Z9.0000 F1500.00
G2 X-0.0000 Y21.0000 Z9.0000 I1.0000 J-0.0000 F1500.00
G1 X14.0000 Y21.0000 Z9.0000 F1500.00
G1 X14.0000 Y21.5000 Z9.0000 F1500.00
G2 X15.0000 Y22.5000 Z9.0000 I1.0000 J-0.0000 F1500.00
G1 X32.0000 Y22.5000 Z9.0000 F1500.00
G2 X32.7071 Y22.2071 Z9.0000 I-0.0000 J-1.0000 F1500.00
G1 X32.7071 Y22.2071 Z8.0000 F300.00
G2 X33.0000 Y21.5000 Z8.0000 I-0.7071 J-0.7071 F1500.00
G1 X33.0000 Y0.0000 Z8.0000 F1500.00
G2 X32.0000 Y-1.0000 Z8.0000 I-1.0000 J0.0000 F1500.00
G1 X-0.0000 Y-1.0000 Z8.0000 F1500.00
G2 X-1.0000 Y0.0000 Z8.0000 I0.0000 J1.0000 F1500.00
G1 X-1.0000 Y20.0000 Z8.0000 F1500.00
G2 X-0.0000 Y21.0000 Z8.0000 I1.0000 J-0.0000 F1500.00
G1 X14.0000 Y21.0000 Z8.0000 F1500.00
G1 X14.0000 Y21.5000 Z8.0000 F1500.00
G2 X15.0000 Y22.5000 Z8.0000 I1.0000 J-0.0000 F1500.00
G1 X32.0000 Y22.5000 Z8.0000 F1500.00
G2 X32.7071 Y22.2071 Z8.0000 I-0.0000 J-1.0000 F1500.00
G1 X32.7071 Y22.2071 Z7.0000 F300.00
G2 X33.0000 Y21.5000 Z7.0000 I-0.7071 J-0.7071 F1500.00
G1 X33.0000 Y0.0000 Z7.0000 F1500.00
G2 X32.0000 Y-1.0000 Z7.0000 I-1.0000 J0.0000 F1500.00
G1 X-0.0000 Y-1.0000 Z7.0000 F1500.00
G2 X-1.0000 Y0.0000 Z7.0000 I0.0000 J1.0000 F1500.00
G1 X-1.0000 Y20.0000 Z7.0000 F1500.00
G2 X-0.0000 Y21.0000 Z7.0000 I1.0000 J-0.0000 F1500.00
G1 X14.0000 Y21.0000 Z7.0000 F1500.00
G1 X14.0000 Y21.5000 Z7.0000 F1500.00
G2 X15.0000 Y22.5000 Z7.0000 I1.0000 J-0.0000 F1500.00
G1 X32.0000 Y22.5000 Z7.0000 F1500.00
G2 X32.7071 Y22.2071 Z7.0000 I-0.0000 J-1.0000 F1500.00
G1 X32.7071 Y22.2071 Z6.0000 F300.00
G2 X33.0000 Y21.5000 Z6.0000 I-0.7071 J-0.7071 F1500.00
G1 X33.0000 Y0.0000 Z6.0000 F1500.00
G2 X32.0000 Y-1.0000 Z6.0000 I-1.0000 J0.0000 F1500.00
G1 X-0.0000 Y-1.0000 Z6.0000 F1500.00
G2 X-1.0000 Y0.0000 Z6.0000 I0.0000 J1.0000 F1500.00
G1 X-1.0000 Y20.0000 Z6.0000 F1500.00
G2 X-0.0000 Y21.0000 Z6.0000 I1.0000 J-0.0000 F1500.00
G1 X14.0000 Y21.0000 Z6.0000 F1500.00
G1 X14.0000 Y21.5000 Z6.0000 F1500.00
G2 X15.0000 Y22.5000 Z6.0000 I1.0000 J-0.0000 F1500.00
G1 X32.0000 Y22.5000 Z6.0000 F1500.00
G2 X32.7071 Y22.2071 Z6.0000 I-0.0000 J-1.0000 F1500.00
G1 X32.7071 Y22.2071 Z5.0000 F300.00
G2 X33.0000 Y21.5000 Z5.0000 I-0.7071 J-0.7071 F1500.00
G1 X33.0000 Y0.0000 Z5.0000 F1500.00
G2 X32.0000 Y-1.0000 Z5.0000 I-1.0000 J0.0000 F1500.00
G1 X-0.0000 Y-1.0000 Z5.0000 F1500.00
G2 X-1.0000 Y0.0000 Z5.0000 I0.0000 J1.0000 F1500.00
G1 X-1.0000 Y20.0000 Z5.0000 F1500.00
G2 X-0.0000 Y21.0000 Z5.0000 I1.0000 J-0.0000 F1500.00
G1 X14.0000 Y21.0000 Z5.0000 F1500.00
G1 X14.0000 Y21.5000 Z5.0000 F1500.00
G2 X15.0000 Y22.5000 Z5.0000 I1.0000 J-0.0000 F1500.00
G1 X32.0000 Y22.5000 Z5.0000 F1500.00
G2 X32.7071 Y22.2071 Z5.0000 I-0.0000 J-1.0000 F1500.00
G1 X32.7071 Y22.2071 Z4.0000 F300.00
G2 X33.0000 Y21.5000 Z4.0000 I-0.7071 J-0.7071 F1500.00
G1 X33.0000 Y0.0000 Z4.0000 F1500.00
G2 X32.0000 Y-1.0000 Z4.0000 I-1.0000 J0.0000 F1500.00
G1 X-0.0000 Y-1.0000 Z4.0000 F1500.00
G2 X-1.0000 Y0.0000 Z4.0000 I0.0000 J1.0000 F1500.00
G1 X-1.0000 Y20.0000 Z4.0000 F1500.00
G2 X-0.0000 Y21.0000 Z4.0000 I1.0000 J-0.0000 F1500.00
G1 X14.0000 Y21.0000 Z4.0000 F1500.00
G1 X14.0000 Y21.5000 Z4.0000 F1500.00
G2 X15.0000 Y22.5000 Z4.0000 I1.0000 J-0.0000 F1500.00
G1 X32.0000 Y22.5000 Z4.0000 F1500.00
G2 X32.7071 Y22.2071 Z4.0000 I-0.0000 J-1.0000 F1500.00
G1 X32.7071 Y22.2071 Z3.0000 F300.00
G2 X33.0000 Y21.5000 Z3.0000 I-0.7071 J-0.7071 F1500.00
G1 X33.0000 Y0.0000 Z3.0000 F1500.00
G2 X32.0000 Y-1.0000 Z3.0000 I-1.0000 J0.0000 F1500.00
G1 X-0.0000 Y-1.0000 Z3.0000 F1500.00
G2 X-1.0000 Y0.0000 Z3.0000 I0.0000 J1.0000 F1500.00
G1 X-1.0000 Y20.0000 Z3.0000 F1500.00
G2 X-0.0000 Y21.0000 Z3.0000 I1.0000 J-0.0000 F1500.00
G1 X14.0000 Y21.0000 Z3.0000 F1500.00
G1 X14.0000 Y21.5000 Z3.0000 F1500.00
G2 X15.0000 Y22.5000 Z3.0000 I1.0000 J-0.0000 F1500.00
G1 X32.0000 Y22.5000 Z3.0000 F1500.00
G2 X32.7071 Y22.2071 Z3.0000 I-0.0000 J-1.0000 F1500.00
G0 Z15.0000
(finish operation: Interior Contour)
(begin operation: Exterior Contour)
(Path: Exterior Contour)
(Exterior Contour)
(Compensated Tool Path. Diameter: 2.0)
G0 Z15.0000
G0 X33.4142 Y22.9142
G0 Z13.0000
G1 X33.4142 Y22.9142 Z9.0000 F300.00
G2 X34.0000 Y21.5000 Z9.0000 I-1.4142 J-1.4142 F1500.00
G1 X34.0000 Y0.0000 Z9.0000 F1500.00
G2 X32.0000 Y-2.0000 Z9.0000 I-2.0000 J-0.0000 F1500.00
G1 X-0.0000 Y-2.0000 Z9.0000 F1500.00
G2 X-2.0000 Y0.0000 Z9.0000 I-0.0000 J2.0000 F1500.00
G1 X-2.0000 Y20.0000 Z9.0000 F1500.00
G2 X-0.0000 Y22.0000 Z9.0000 I2.0000 J0.0000 F1500.00
G1 X13.0717 Y22.0000 Z9.0000 F1500.00
G2 X15.0000 Y23.5000 Z9.0000 I1.9189 J-0.4773 F1500.00
G1 X32.0000 Y23.5000 Z9.0000 F1500.00
G2 X33.4142 Y22.9142 Z9.0000 I0.0000 J-2.0000 F1500.00
G1 X33.4142 Y22.9142 Z8.0000 F300.00
G2 X34.0000 Y21.5000 Z8.0000 I-1.4142 J-1.4142 F1500.00
G1 X34.0000 Y0.0000 Z8.0000 F1500.00
G2 X32.0000 Y-2.0000 Z8.0000 I-2.0000 J-0.0000 F1500.00
G1 X-0.0000 Y-2.0000 Z8.0000 F1500.00
G2 X-2.0000 Y0.0000 Z8.0000 I-0.0000 J2.0000 F1500.00
G1 X-2.0000 Y20.0000 Z8.0000 F1500.00
G2 X-0.0000 Y22.0000 Z8.0000 I2.0000 J0.0000 F1500.00
G1 X13.0717 Y22.0000 Z8.0000 F1500.00
G2 X15.0000 Y23.5000 Z8.0000 I1.9189 J-0.4773 F1500.00
G1 X32.0000 Y23.5000 Z8.0000 F1500.00
G2 X33.4142 Y22.9142 Z8.0000 I0.0000 J-2.0000 F1500.00
G1 X33.4142 Y22.9142 Z7.0000 F300.00
G2 X34.0000 Y21.5000 Z7.0000 I-1.4142 J-1.4142 F1500.00
G1 X34.0000 Y0.0000 Z7.0000 F1500.00
G2 X32.0000 Y-2.0000 Z7.0000 I-2.0000 J-0.0000 F1500.00
G1 X-0.0000 Y-2.0000 Z7.0000 F1500.00
G2 X-2.0000 Y0.0000 Z7.0000 I-0.0000 J2.0000 F1500.00
G1 X-2.0000 Y20.0000 Z7.0000 F1500.00
G2 X-0.0000 Y22.0000 Z7.0000 I2.0000 J0.0000 F1500.00
G1 X13.0717 Y22.0000 Z7.0000 F1500.00
G2 X15.0000 Y23.5000 Z7.0000 I1.9189 J-0.4773 F1500.00
G1 X32.0000 Y23.5000 Z7.0000 F1500.00
G2 X33.4142 Y22.9142 Z7.0000 I0.0000 J-2.0000 F1500.00
G1 X33.4142 Y22.9142 Z6.0000 F300.00
G2 X34.0000 Y21.5000 Z6.0000 I-1.4142 J-1.4142 F1500.00
G1 X34.0000 Y0.0000 Z6.0000 F1500.00
G2 X32.0000 Y-2.0000 Z6.0000 I-2.0000 J-0.0000 F1500.00
G1 X-0.0000 Y-2.0000 Z6.0000 F1500.00
G2 X-2.0000 Y0.0000 Z6.0000 I-0.0000 J2.0000 F1500.00
G1 X-2.0000 Y20.0000 Z6.0000 F1500.00
G2 X-0.0000 Y22.0000 Z6.0000 I2.0000 J0.0000 F1500.00
G1 X13.0717 Y22.0000 Z6.0000 F1500.00
G2 X15.0000 Y23.5000 Z6.0000 I1.9189 J-0.4773 F1500.00
G1 X32.0000 Y23.5000 Z6.0000 F1500.00
G2 X33.4142 Y22.9142 Z6.0000 I0.0000 J-2.0000 F1500.00
G1 X33.4142 Y22.9142 Z5.0000 F300.00
G2 X34.0000 Y21.5000 Z5.0000 I-1.4142 J-1.4142 F1500.00
G1 X34.0000 Y0.0000 Z5.0000 F1500.00
G2 X32.0000 Y-2.0000 Z5.0000 I-2.0000 J-0.0000 F1500.00
G1 X-0.0000 Y-2.0000 Z5.0000 F1500.00
G2 X-2.0000 Y0.0000 Z5.0000 I-0.0000 J2.0000 F1500.00
G1 X-2.0000 Y20.0000 Z5.0000 F1500.00
G2 X-0.0000 Y22.0000 Z5.0000 I2.0000 J0.0000 F1500.00
G1 X13.0717 Y22.0000 Z5.0000 F1500.00
G2 X15.0000 Y23.5000 Z5.0000 I1.9189 J-0.4773 F1500.00
G1 X32.0000 Y23.5000 Z5.0000 F1500.00
G2 X33.4142 Y22.9142 Z5.0000 I0.0000 J-2.0000 F1500.00
G1 X33.4142 Y22.9142 Z4.0000 F300.00
G2 X34.0000 Y21.5000 Z4.0000 I-1.4142 J-1.4142 F1500.00
G1 X34.0000 Y0.0000 Z4.0000 F1500.00
G2 X32.0000 Y-2.0000 Z4.0000 I-2.0000 J-0.0000 F1500.00
G1 X-0.0000 Y-2.0000 Z4.0000 F1500.00
G2 X-2.0000 Y0.0000 Z4.0000 I-0.0000 J2.0000 F1500.00
G1 X-2.0000 Y20.0000 Z4.0000 F1500.00
G2 X-0.0000 Y22.0000 Z4.0000 I2.0000 J0.0000 F1500.00
G1 X13.0717 Y22.0000 Z4.0000 F1500.00
G2 X15.0000 Y23.5000 Z4.0000 I1.9189 J-0.4773 F1500.00
G1 X32.0000 Y23.5000 Z4.0000 F1500.00
G2 X33.4142 Y22.9142 Z4.0000 I0.0000 J-2.0000 F1500.00
G1 X33.4142 Y22.9142 Z3.0000 F300.00
G2 X34.0000 Y21.5000 Z3.0000 I-1.4142 J-1.4142 F1500.00
G1 X34.0000 Y0.0000 Z3.0000 F1500.00
G2 X32.0000 Y-2.0000 Z3.0000 I-2.0000 J-0.0000 F1500.00
G1 X-0.0000 Y-2.0000 Z3.0000 F1500.00
G2 X-2.0000 Y0.0000 Z3.0000 I-0.0000 J2.0000 F1500.00
G1 X-2.0000 Y20.0000 Z3.0000 F1500.00
G2 X-0.0000 Y22.0000 Z3.0000 I2.0000 J0.0000 F1500.00
G1 X13.0717 Y22.0000 Z3.0000 F1500.00
G2 X15.0000 Y23.5000 Z3.0000 I1.9189 J-0.4773 F1500.00
G1 X32.0000 Y23.5000 Z3.0000 F1500.00
G2 X33.4142 Y22.9142 Z3.0000 I0.0000 J-2.0000 F1500.00
G0 Z15.0000
(finish operation: Exterior Contour)
(begin operation: TagDressup)
(Path: TagDressup)
G0 Z15.0000
G0 X33.0607 Y22.5607 Z15.0000
G0 X33.0607 Y22.5607 Z13.0000
G1 X33.0607 Y22.5607 Z2.5000 F300.00
G2 X33.5000 Y21.5000 Z2.5000 I-1.0607 J-1.0607 F1500.00
G1 X33.5000 Y0.0000 Z2.5000 F1500.00
G2 X32.0000 Y-1.5000 Z2.5000 I-1.5000 J0.0000 F1500.00
G1 X0.0000 Y-1.5000 Z2.5000 F1500.00
G2 X-1.5000 Y0.0000 Z2.5000 I0.0000 J1.5000 F1500.00
G1 X-1.5000 Y20.0000 Z2.5000 F1500.00
G2 X-0.0000 Y21.5000 Z2.5000 I1.5000 J-0.0000 F1500.00
G1 X13.5000 Y21.5000 Z2.5000 F1500.00
G2 X15.0000 Y23.0000 Z2.5000 I1.5000 J-0.0000 F1500.00
G1 X32.0000 Y23.0000 Z2.5000 F1500.00
G2 X33.0607 Y22.5607 Z2.5000 I-0.0000 J-1.5000 F1500.00
G1 X33.0607 Y22.5607 Z2.0000 F300.00
G2 X33.5000 Y21.5000 Z2.0000 I-1.0607 J-1.0607 F1500.00
G1 X33.5000 Y0.0000 Z2.0000 F1500.00
G2 X32.0000 Y-1.5000 Z2.0000 I-1.5000 J0.0000 F1500.00
G1 X0.0000 Y-1.5000 Z2.0000 F1500.00
G2 X-1.5000 Y0.0000 Z2.0000 I0.0000 J1.5000 F1500.00
G1 X-1.5000 Y20.0000 Z2.0000 F1500.00
G2 X-0.0000 Y21.5000 Z2.0000 I1.5000 J-0.0000 F1500.00
G1 X13.5000 Y21.5000 Z2.0000 F1500.00
G2 X15.0000 Y23.0000 Z2.0000 I1.5000 J-0.0000 F1500.00
G1 X32.0000 Y23.0000 Z2.0000 F1500.00
G2 X33.0607 Y22.5607 Z2.0000 I-0.0000 J-1.5000 F1500.00
G1 X33.0607 Y22.5607 Z1.5000 F300.00
G2 X33.5000 Y21.5000 Z1.5000 I-1.0607 J-1.0607 F1500.00
G1 X33.5000 Y0.0000 Z1.5000 F1500.00
G2 X32.0000 Y-1.5000 Z1.5000 I-1.5000 J0.0000 F1500.00
G1 X0.0000 Y-1.5000 Z1.5000 F1500.00
G2 X-1.5000 Y0.0000 Z1.5000 I0.0000 J1.5000 F1500.00
G1 X-1.5000 Y20.0000 Z1.5000 F1500.00
G2 X-0.0000 Y21.5000 Z1.5000 I1.5000 J-0.0000 F1500.00
G1 X13.5000 Y21.5000 Z1.5000 F1500.00
G2 X15.0000 Y23.0000 Z1.5000 I1.5000 J-0.0000 F1500.00
G1 X32.0000 Y23.0000 Z1.5000 F1500.00
G2 X33.0607 Y22.5607 Z1.5000 I-0.0000 J-1.5000 F1500.00
G1 X33.0607 Y22.5607 Z1.0000 F300.00
G2 X33.5000 Y21.5000 Z1.0000 I-1.0607 J-1.0607 F1500.00
G1 X33.5000 Y0.0000 Z1.0000 F1500.00
G2 X32.0000 Y-1.5000 Z1.0000 I-1.5000 J0.0000 F1500.00
G1 X0.0000 Y-1.5000 Z1.0000 F1500.00
G2 X-1.5000 Y0.0000 Z1.0000 I0.0000 J1.5000 F1500.00
G1 X-1.5000 Y20.0000 Z1.0000 F1500.00
G2 X-0.0000 Y21.5000 Z1.0000 I1.5000 J-0.0000 F1500.00
G1 X13.5000 Y21.5000 Z1.0000 F1500.00
G2 X15.0000 Y23.0000 Z1.0000 I1.5000 J-0.0000 F1500.00
G1 X32.0000 Y23.0000 Z1.0000 F1500.00
G2 X33.0607 Y22.5607 Z1.0000 I-0.0000 J-1.5000 F1500.00
G1 X33.0607 Y22.5607 Z0.5000 F300.00
G2 X33.5000 Y21.5000 Z0.5000 I-1.0607 J-1.0607 F1500.00
G1 X33.5000 Y0.0000 Z0.5000 F1500.00
G2 X32.0000 Y-1.5000 Z0.5000 I-1.5000 J0.0000 F1500.00
G1 X0.0000 Y-1.5000 Z0.5000 F1500.00
G2 X-1.5000 Y0.0000 Z0.5000 I0.0000 J1.5000 F1500.00
G1 X-1.5000 Y20.0000 Z0.5000 F1500.00
G2 X-0.0000 Y21.5000 Z0.5000 I1.5000 J-0.0000 F1500.00
G1 X13.5000 Y21.5000 Z0.5000 F1500.00
G2 X15.0000 Y23.0000 Z0.5000 I1.5000 J-0.0000 F1500.00
G1 X32.0000 Y23.0000 Z0.5000 F1500.00
G2 X33.0607 Y22.5607 Z0.5000 I-0.0000 J-1.5000 F1500.00
G1 X33.0607 Y22.5607 Z0.0000 F300.00
G2 X33.5000 Y21.5000 Z0.0000 I-1.0607 J-1.0607 F1500.00
G1 X33.5000 Y12.7450 Z0.0000 F1500.00
G1 X33.5000 Y12.2450 Z0.5000 F900.00
G1 X33.5000 Y9.2550 Z0.5000 F1500.00
G1 X33.5000 Y8.7550 Z0.0000 F900.00
G1 X33.5000 Y0.0000 Z0.0000 F1500.00
G2 X32.0000 Y-1.5000 Z0.0000 I-1.5000 J0.0000 F1500.00
G1 X17.9950 Y-1.5000 Z0.0000 F1500.00
G1 X17.4950 Y-1.5000 Z0.5000 F900.00
G1 X14.5050 Y-1.5000 Z0.5000 F1500.00
G1 X14.0050 Y-1.5000 Z0.0000 F900.00
G1 X0.0000 Y-1.5000 Z0.0000 F1500.00
G2 X-1.5000 Y0.0000 Z0.0000 I0.0000 J1.5000 F1500.00
G1 X-1.5000 Y8.0050 Z0.0000 F1500.00
G1 X-1.5000 Y8.5050 Z0.5000 F900.00
G1 X-1.5000 Y11.4950 Z0.5000 F1500.00
G1 X-1.5000 Y11.9950 Z0.0000 F900.00
G1 X-1.5000 Y20.0000 Z0.0000 F1500.00
G2 X-0.0000 Y21.5000 Z0.0000 I1.5000 J-0.0000 F1500.00
G1 X13.5000 Y21.5000 Z0.0000 F1500.00
G2 X15.0000 Y23.0000 Z0.0000 I1.5000 J-0.0000 F1500.00
G1 X21.5050 Y23.0000 Z0.0000 F1500.00
G1 X22.0050 Y23.0000 Z0.5000 F900.00
G1 X24.9950 Y23.0000 Z0.5000 F1500.00
G1 X25.4950 Y23.0000 Z0.0000 F900.00
G1 X32.0000 Y23.0000 Z0.0000 F1500.00
G2 X33.0607 Y22.5607 Z0.0000 I-0.0000 J-1.5000 F1500.00
G0 X33.0607 Y22.5607 Z15.0000
(finish operation: TagDressup)
(begin postamble)
M5
G17 G90
; M2
