(Exported by FreeCAD)
(Post Processor: cnc1310_post)
(Output Time:2019-08-31 03:33:57.519914)
(begin preamble)
G17 G90
G21
(begin operation: T3: SingleFlute2mm)
(Path: T3: SingleFlute2mm)
(T3: SingleFlute2mm)
(begin toolchange)
G92 X0 Y0 Z0
G53 G0 Z30
M5
G53 G0 X0 Y0
M0
G0 X0 Y0
G0 Z0
G92.1
; M3 (Path ejects a M3 command by its own.)
; M6 T3
M3 S0.0000
(finish operation: T3: SingleFlute2mm)
(begin operation: DogboneDressup)
(Path: DogboneDressup)
(Pocket_Shape)
G0 Z18.0000
G0 X31.0000 Y6.1000
G0 Z16.0000
G1 X31.0000 Y6.1000 Z11.0000
G1 X31.0000 Y1.0000 Z11.0000
G1 X31.9999 Y1.0000 Z11.0000
G1 X31.0000 Y1.0000 Z11.0000
G1 X1.0000 Y1.0000 Z11.0000
G1 X1.0000 Y1.0000 Z11.0000
G1 X0.0000 Y1.0000 Z11.0000
G1 X1.0000 Y1.0000 Z11.0000
G1 X1.0000 Y4.5000 Z11.0000
G1 X1.0000 Y4.5000 Z11.0000
G1 X29.4000 Y4.5000 Z11.0000
G1 X29.4000 Y4.5000 Z11.0000
G1 X29.4000 Y2.6000 Z11.0000
G1 X29.4000 Y2.6000 Z11.0000
G1 X2.6000 Y2.6000 Z11.0000
G1 X2.6000 Y2.6000 Z11.0000
G1 X29.4000 Y2.6000 Z11.0000
G1 X29.4000 Y4.5000 Z11.0000
G1 X2.6000 Y4.5000 Z11.0000
G1 X2.6000 Y2.6000 Z11.0000
G1 X2.6000 Y4.5000 Z11.0000
G1 X1.0000 Y4.5000 Z11.0000
G1 X1.0000 Y6.1000 Z11.0000
G1 X1.0000 Y6.1000 Z11.0000
G1 X0.0001 Y6.1000 Z11.0000
G1 X1.0000 Y6.1000 Z11.0000
G1 X31.0000 Y6.1000 Z11.0000
G1 X31.0000 Y6.1000 Z11.0000
G1 X32.0000 Y6.1000 Z11.0000
G1 X31.0000 Y6.1000 Z11.0000
G0 Z18.0000
(finish operation: DogboneDressup)
(begin operation: DogboneDressup001)
(Path: DogboneDressup001)
(Pocket_Shape001)
G0 Z18.0000
G0 X31.0000 Y20.5000
G0 Z16.0000
G1 X31.0000 Y20.5000 Z11.0000
G1 X16.0000 Y20.5000 Z11.0000
G2 X15.9629 Y19.7302 Z11.0000 I-2.8189 J-0.2500
G2 X15.0000 Y19.0000 Z11.0000 I-0.9629 J0.2698
G1 X1.0000 Y19.0000 Z11.0000
G1 X0.0000 Y19.0000 Z11.0000
G1 X1.0000 Y19.0000 Z11.0000
G1 X1.0000 Y13.9000 Z11.0000
G1 X1.0000 Y13.9000 Z11.0000
G1 X0.0000 Y13.9000 Z11.0000
G1 X1.0000 Y13.9000 Z11.0000
G1 X31.0000 Y13.9000 Z11.0000
G1 X31.0000 Y13.9000 Z11.0000
G1 X32.0000 Y13.9000 Z11.0000
G1 X31.0000 Y13.9000 Z11.0000
G1 X31.0000 Y20.5000 Z11.0000
G1 X31.0000 Y20.5000 Z11.0000
G1 X32.0000 Y20.5000 Z11.0000
G1 X31.0000 Y20.5000 Z11.0000
G0 X31.0000 Y20.5000 Z18.0000
G0 X29.4000 Y18.9000 Z18.0000
G1 X29.4000 Y18.9000 Z11.0000
G1 X17.3449 Y18.9000 Z11.0000
G2 X15.0000 Y17.4000 Z11.0000 I-2.3370 J1.0706
G1 X2.6000 Y17.4000 Z11.0000
G1 X2.6000 Y15.5000 Z11.0000
G1 X2.6000 Y15.5000 Z11.0000
G1 X29.4000 Y15.5000 Z11.0000
G1 X29.4000 Y15.5000 Z11.0000
G1 X29.4000 Y18.9000 Z11.0000
G1 X29.4000 Y18.9000 Z11.0000
G0 X29.4000 Y18.9000 Z18.0000
G0 X27.8000 Y17.3000 Z18.0000
G1 X27.8000 Y17.3000 Z11.0000
G1 X18.2118 Y17.3000 Z11.0000
G1 X17.7775 Y17.3000 Z11.0000
G1 X18.2118 Y17.3000 Z11.0000
G1 X18.0250 Y17.1000 Z11.0000
G1 X18.0250 Y17.1000 Z11.0000
G1 X15.7228 Y17.1000 Z11.0000
G1 X18.0250 Y17.1000 Z11.0000
G1 X27.8000 Y17.1000 Z11.0000
G1 X27.8000 Y17.1000 Z11.0000
G1 X27.8000 Y17.3000 Z11.0000
G1 X27.8000 Y17.3000 Z11.0000
G0 Z18.0000
(finish operation: DogboneDressup001)
(begin postamble)
M5
G17 G90
; M2
