(Exported by FreeCAD)
(Post Processor: cnc1310_post)
(Output Time:2019-08-31 19:52:34.480206)
(begin preamble)
G17 G90
G21
(begin operation: T4: SingleFlute1mm)
(Path: T4: SingleFlute1mm)
(T4: SingleFlute1mm)
(begin toolchange)
G92 X0 Y0 Z0
G53 G0 Z30
M5
G53 G0 X0 Y0
M0
G0 X0 Y0
G0 Z0
G92.1
; M3 (Path ejects a M3 command by its own.)
; M6 T4
M3 S8000.0000
(finish operation: T4: SingleFlute1mm)
(begin operation: DogboneDressup002)
(Path: DogboneDressup002)
(Pocket_Shape001)
G0 Z15.0000
G0 X28.7500 Y14.5000
G0 Z13.0000
G1 X28.7500 Y14.5000 Z9.5000 F300.00
G1 X28.7500 Y9.7071 Z9.5000 F1500.00
G3 X28.5100 Y9.2600 Z9.5000 I0.3439 J-0.4725 F1500.00
G1 X28.5100 Y3.8246 Z9.5000 F1500.00
G2 X27.1854 Y2.5000 Z9.5000 I-1.3062 J-0.0184 F1500.00
G1 X0.5000 Y2.5000 Z9.5000 F1500.00
G1 X-0.1000 Y2.5000 Z9.5000 F1500.00
G1 X0.5000 Y2.5000 Z9.5000 F1500.00
G1 X0.5000 Y3.1000 Z9.5000 F1500.00
G1 X0.5000 Y3.1000 Z9.5000 F1500.00
G1 X0.5000 Y3.1000 Z9.5000 F1500.00
G1 X0.5000 Y3.1000 Z9.5000 F1500.00
G1 X16.9900 Y3.1000 Z9.5000 F1500.00
G3 X18.4897 Y4.5836 Z9.5000 I-0.0016 J1.5015 F1500.00
G3 X18.4900 Y9.2600 Z9.5000 I-142.8358 J2.3464 F1500.00
G3 X18.2500 Y9.7071 Z9.5000 I-0.5579 J-0.0115 F1500.00
G1 X18.2500 Y14.5000 Z9.5000 F1500.00
G1 X18.2500 Y15.0000 Z9.5000 F1500.00
G1 X18.2500 Y15.0000 Z9.5000 F1500.00
G1 X18.2500 Y14.5000 Z9.5000 F1500.00
G1 X18.7182 Y14.5000 Z9.5000 F1500.00
G1 X18.7182 Y14.5000 Z9.5000 F1500.00
G1 X18.7182 Y14.5000 Z9.5000 F1500.00
G1 X18.7500 Y14.4770 Z9.5000 F1500.00
G1 X18.7500 Y14.4770 Z9.5000 F1500.00
G1 X18.7500 Y14.4770 Z9.5000 F1500.00
G1 X18.7500 Y14.4770 Z9.5000 F1500.00
G1 X18.7500 Y14.9770 Z9.5000 F1500.00
G1 X18.7500 Y14.9770 Z9.5000 F1500.00
G1 X18.7500 Y14.4770 Z9.5000 F1500.00
G1 X18.7500 Y14.4770 Z9.5000 F1500.00
G1 X18.7500 Y9.7071 Z9.5000 F1500.00
G3 X18.5100 Y9.2600 Z9.5000 I0.3439 J-0.4725 F1500.00
G1 X18.5100 Y3.6000 Z9.5000 F1500.00
G3 X19.0100 Y3.1000 Z9.5000 I0.5000 J0.0000 F1500.00
G1 X21.9900 Y3.1000 Z9.5000 F1500.00
G3 X23.4897 Y4.5836 Z9.5000 I-0.0016 J1.5015 F1500.00
G3 X23.4900 Y9.2600 Z9.5000 I-142.8358 J2.3464 F1500.00
G3 X23.2500 Y9.7071 Z9.5000 I-0.5579 J-0.0115 F1500.00
G1 X23.2500 Y14.5000 Z9.5000 F1500.00
G1 X23.2500 Y15.0000 Z9.5000 F1500.00
G1 X23.2500 Y15.0000 Z9.5000 F1500.00
G1 X23.2500 Y14.5000 Z9.5000 F1500.00
G1 X23.7500 Y14.5000 Z9.5000 F1500.00
G1 X23.7500 Y14.5000 Z9.5000 F1500.00
G1 X23.7500 Y14.5000 Z9.5000 F1500.00
G1 X23.7500 Y15.0000 Z9.5000 F1500.00
G1 X23.7500 Y15.0000 Z9.5000 F1500.00
G1 X23.7500 Y14.5000 Z9.5000 F1500.00
G1 X23.7500 Y14.5000 Z9.5000 F1500.00
G1 X23.7500 Y9.7071 Z9.5000 F1500.00
G3 X23.5100 Y9.2600 Z9.5000 I0.3439 J-0.4725 F1500.00
G1 X23.5100 Y3.6000 Z9.5000 F1500.00
G3 X24.0100 Y3.1000 Z9.5000 I0.5000 J0.0000 F1500.00
G1 X26.9900 Y3.1000 Z9.5000 F1500.00
G3 X28.4897 Y4.5836 Z9.5000 I-0.0016 J1.5015 F1500.00
G3 X28.4900 Y9.2600 Z9.5000 I-142.8364 J2.3464 F1500.00
G3 X28.2500 Y9.7071 Z9.5000 I-0.5579 J-0.0115 F1500.00
G1 X28.2500 Y14.4770 Z9.5000 F1500.00
G1 X28.2500 Y14.9770 Z9.5000 F1500.00
G1 X28.2500 Y14.9770 Z9.5000 F1500.00
G1 X28.2500 Y14.4770 Z9.5000 F1500.00
G1 X28.2818 Y14.5000 Z9.5000 F1500.00
G1 X28.2818 Y14.5000 Z9.5000 F1500.00
G1 X28.2818 Y14.5000 Z9.5000 F1500.00
G1 X28.7500 Y14.5000 Z9.5000 F1500.00
G1 X28.7500 Y14.5000 Z9.5000 F1500.00
G1 X28.7500 Y14.5000 Z9.5000 F1500.00
G1 X28.7500 Y14.5000 Z9.5000 F1500.00
G1 X28.7500 Y15.0000 Z9.5000 F1500.00
G1 X28.7500 Y15.0000 Z9.5000 F1500.00
G1 X28.7500 Y14.5000 Z9.5000 F1500.00
G1 X28.7500 Y14.5000 Z9.5000 F1500.00
G1 X28.7500 Y14.5000 Z9.0000 F300.00
G1 X28.7500 Y9.7071 Z9.0000 F1500.00
G3 X28.5100 Y9.2600 Z9.0000 I0.3439 J-0.4725 F1500.00
G1 X28.5100 Y3.8246 Z9.0000 F1500.00
G2 X27.1854 Y2.5000 Z9.0000 I-1.3062 J-0.0184 F1500.00
G1 X0.5000 Y2.5000 Z9.0000 F1500.00
G1 X0.5000 Y3.1000 Z9.0000 F1500.00
G1 X0.5000 Y3.1000 Z9.0000 F1500.00
G1 X0.5000 Y3.1000 Z9.0000 F1500.00
G1 X0.5000 Y3.1000 Z9.0000 F1500.00
G1 X16.9900 Y3.1000 Z9.0000 F1500.00
G3 X18.4897 Y4.5836 Z9.0000 I-0.0016 J1.5015 F1500.00
G3 X18.4900 Y9.2600 Z9.0000 I-142.8358 J2.3464 F1500.00
G3 X18.2500 Y9.7071 Z9.0000 I-0.5579 J-0.0115 F1500.00
G1 X18.2500 Y14.5000 Z9.0000 F1500.00
G1 X18.2500 Y15.0000 Z9.0000 F1500.00
G1 X18.2500 Y15.0000 Z9.0000 F1500.00
G1 X18.2500 Y14.5000 Z9.0000 F1500.00
G1 X18.7182 Y14.5000 Z9.0000 F1500.00
G1 X18.7182 Y14.5000 Z9.0000 F1500.00
G1 X18.7182 Y14.5000 Z9.0000 F1500.00
G1 X18.7500 Y14.4770 Z9.0000 F1500.00
G1 X18.7500 Y14.4770 Z9.0000 F1500.00
G1 X18.7500 Y14.4770 Z9.0000 F1500.00
G1 X18.7500 Y14.4770 Z9.0000 F1500.00
G1 X18.7500 Y14.9770 Z9.0000 F1500.00
G1 X18.7500 Y14.9770 Z9.0000 F1500.00
G1 X18.7500 Y14.4770 Z9.0000 F1500.00
G1 X18.7500 Y14.4770 Z9.0000 F1500.00
G1 X18.7500 Y9.7071 Z9.0000 F1500.00
G3 X18.5100 Y9.2600 Z9.0000 I0.3439 J-0.4725 F1500.00
G1 X18.5100 Y3.6000 Z9.0000 F1500.00
G3 X19.0100 Y3.1000 Z9.0000 I0.5000 J0.0000 F1500.00
G1 X21.9900 Y3.1000 Z9.0000 F1500.00
G3 X23.4897 Y4.5836 Z9.0000 I-0.0016 J1.5015 F1500.00
G3 X23.4900 Y9.2600 Z9.0000 I-142.8358 J2.3464 F1500.00
G3 X23.2500 Y9.7071 Z9.0000 I-0.5579 J-0.0115 F1500.00
G1 X23.2500 Y14.5000 Z9.0000 F1500.00
G1 X23.2500 Y15.0000 Z9.0000 F1500.00
G1 X23.2500 Y15.0000 Z9.0000 F1500.00
G1 X23.2500 Y14.5000 Z9.0000 F1500.00
G1 X23.7500 Y14.5000 Z9.0000 F1500.00
G1 X23.7500 Y14.5000 Z9.0000 F1500.00
G1 X23.7500 Y14.5000 Z9.0000 F1500.00
G1 X23.7500 Y15.0000 Z9.0000 F1500.00
G1 X23.7500 Y15.0000 Z9.0000 F1500.00
G1 X23.7500 Y14.5000 Z9.0000 F1500.00
G1 X23.7500 Y14.5000 Z9.0000 F1500.00
G1 X23.7500 Y9.7071 Z9.0000 F1500.00
G3 X23.5100 Y9.2600 Z9.0000 I0.3439 J-0.4725 F1500.00
G1 X23.5100 Y3.6000 Z9.0000 F1500.00
G3 X24.0100 Y3.1000 Z9.0000 I0.5000 J0.0000 F1500.00
G1 X26.9900 Y3.1000 Z9.0000 F1500.00
G3 X28.4897 Y4.5836 Z9.0000 I-0.0016 J1.5015 F1500.00
G3 X28.4900 Y9.2600 Z9.0000 I-142.8364 J2.3464 F1500.00
G3 X28.2500 Y9.7071 Z9.0000 I-0.5579 J-0.0115 F1500.00
G1 X28.2500 Y14.4770 Z9.0000 F1500.00
G1 X28.2500 Y14.9770 Z9.0000 F1500.00
G1 X28.2500 Y14.9770 Z9.0000 F1500.00
G1 X28.2500 Y14.4770 Z9.0000 F1500.00
G1 X28.2818 Y14.5000 Z9.0000 F1500.00
G1 X28.2818 Y14.5000 Z9.0000 F1500.00
G1 X28.2818 Y14.5000 Z9.0000 F1500.00
G1 X28.7500 Y14.5000 Z9.0000 F1500.00
G1 X28.7500 Y14.5000 Z9.0000 F1500.00
G1 X28.7500 Y14.5000 Z9.0000 F1500.00
G1 X28.7500 Y14.5000 Z9.0000 F1500.00
G1 X28.7500 Y15.0000 Z9.0000 F1500.00
G1 X28.7500 Y15.0000 Z9.0000 F1500.00
G1 X28.7500 Y14.5000 Z9.0000 F1500.00
G1 X28.7500 Y14.5000 Z9.0000 F1500.00
G1 X28.7500 Y14.5000 Z8.5000 F300.00
G1 X28.7500 Y9.7071 Z8.5000 F1500.00
G3 X28.5100 Y9.2600 Z8.5000 I0.3439 J-0.4725 F1500.00
G1 X28.5100 Y3.8246 Z8.5000 F1500.00
G2 X27.1854 Y2.5000 Z8.5000 I-1.3062 J-0.0184 F1500.00
G1 X0.5000 Y2.5000 Z8.5000 F1500.00
G1 X0.5000 Y3.1000 Z8.5000 F1500.00
G1 X0.5000 Y3.1000 Z8.5000 F1500.00
G1 X0.5000 Y3.1000 Z8.5000 F1500.00
G1 X0.5000 Y3.1000 Z8.5000 F1500.00
G1 X16.9900 Y3.1000 Z8.5000 F1500.00
G3 X18.4897 Y4.5836 Z8.5000 I-0.0016 J1.5015 F1500.00
G3 X18.4900 Y9.2600 Z8.5000 I-142.8358 J2.3464 F1500.00
G3 X18.2500 Y9.7071 Z8.5000 I-0.5579 J-0.0115 F1500.00
G1 X18.2500 Y14.5000 Z8.5000 F1500.00
G1 X18.2500 Y15.0000 Z8.5000 F1500.00
G1 X18.2500 Y15.0000 Z8.5000 F1500.00
G1 X18.2500 Y14.5000 Z8.5000 F1500.00
G1 X18.7182 Y14.5000 Z8.5000 F1500.00
G1 X18.7182 Y14.5000 Z8.5000 F1500.00
G1 X18.7182 Y14.5000 Z8.5000 F1500.00
G1 X18.7500 Y14.4770 Z8.5000 F1500.00
G1 X18.7500 Y14.4770 Z8.5000 F1500.00
G1 X18.7500 Y14.4770 Z8.5000 F1500.00
G1 X18.7500 Y14.4770 Z8.5000 F1500.00
G1 X18.7500 Y14.9770 Z8.5000 F1500.00
G1 X18.7500 Y14.9770 Z8.5000 F1500.00
G1 X18.7500 Y14.4770 Z8.5000 F1500.00
G1 X18.7500 Y14.4770 Z8.5000 F1500.00
G1 X18.7500 Y9.7071 Z8.5000 F1500.00
G3 X18.5100 Y9.2600 Z8.5000 I0.3439 J-0.4725 F1500.00
G1 X18.5100 Y3.6000 Z8.5000 F1500.00
G3 X19.0100 Y3.1000 Z8.5000 I0.5000 J0.0000 F1500.00
G1 X21.9900 Y3.1000 Z8.5000 F1500.00
G3 X23.4897 Y4.5836 Z8.5000 I-0.0016 J1.5015 F1500.00
G3 X23.4900 Y9.2600 Z8.5000 I-142.8358 J2.3464 F1500.00
G3 X23.2500 Y9.7071 Z8.5000 I-0.5579 J-0.0115 F1500.00
G1 X23.2500 Y14.5000 Z8.5000 F1500.00
G1 X23.2500 Y15.0000 Z8.5000 F1500.00
G1 X23.2500 Y15.0000 Z8.5000 F1500.00
G1 X23.2500 Y14.5000 Z8.5000 F1500.00
G1 X23.7500 Y14.5000 Z8.5000 F1500.00
G1 X23.7500 Y14.5000 Z8.5000 F1500.00
G1 X23.7500 Y14.5000 Z8.5000 F1500.00
G1 X23.7500 Y15.0000 Z8.5000 F1500.00
G1 X23.7500 Y15.0000 Z8.5000 F1500.00
G1 X23.7500 Y14.5000 Z8.5000 F1500.00
G1 X23.7500 Y14.5000 Z8.5000 F1500.00
G1 X23.7500 Y9.7071 Z8.5000 F1500.00
G3 X23.5100 Y9.2600 Z8.5000 I0.3439 J-0.4725 F1500.00
G1 X23.5100 Y3.6000 Z8.5000 F1500.00
G3 X24.0100 Y3.1000 Z8.5000 I0.5000 J0.0000 F1500.00
G1 X26.9900 Y3.1000 Z8.5000 F1500.00
G3 X28.4897 Y4.5836 Z8.5000 I-0.0016 J1.5015 F1500.00
G3 X28.4900 Y9.2600 Z8.5000 I-142.8364 J2.3464 F1500.00
G3 X28.2500 Y9.7071 Z8.5000 I-0.5579 J-0.0115 F1500.00
G1 X28.2500 Y14.4770 Z8.5000 F1500.00
G1 X28.2500 Y14.9770 Z8.5000 F1500.00
G1 X28.2500 Y14.9770 Z8.5000 F1500.00
G1 X28.2500 Y14.4770 Z8.5000 F1500.00
G1 X28.2818 Y14.5000 Z8.5000 F1500.00
G1 X28.2818 Y14.5000 Z8.5000 F1500.00
G1 X28.2818 Y14.5000 Z8.5000 F1500.00
G1 X28.7500 Y14.5000 Z8.5000 F1500.00
G1 X28.7500 Y14.5000 Z8.5000 F1500.00
G1 X28.7500 Y14.5000 Z8.5000 F1500.00
G1 X28.7500 Y14.5000 Z8.5000 F1500.00
G1 X28.7500 Y15.0000 Z8.5000 F1500.00
G1 X28.7500 Y15.0000 Z8.5000 F1500.00
G1 X28.7500 Y14.5000 Z8.5000 F1500.00
G1 X28.7500 Y14.5000 Z8.5000 F1500.00
G1 X28.7500 Y14.5000 Z8.0000 F300.00
G1 X28.7500 Y9.7071 Z8.0000 F1500.00
G3 X28.5100 Y9.2600 Z8.0000 I0.3439 J-0.4725 F1500.00
G1 X28.5100 Y3.8246 Z8.0000 F1500.00
G2 X27.1854 Y2.5000 Z8.0000 I-1.3062 J-0.0184 F1500.00
G1 X0.5000 Y2.5000 Z8.0000 F1500.00
G1 X0.5000 Y3.1000 Z8.0000 F1500.00
G1 X0.5000 Y3.1000 Z8.0000 F1500.00
G1 X0.5000 Y3.1000 Z8.0000 F1500.00
G1 X0.5000 Y3.1000 Z8.0000 F1500.00
G1 X16.9900 Y3.1000 Z8.0000 F1500.00
G3 X18.4897 Y4.5836 Z8.0000 I-0.0016 J1.5015 F1500.00
G3 X18.4900 Y9.2600 Z8.0000 I-142.8358 J2.3464 F1500.00
G3 X18.2500 Y9.7071 Z8.0000 I-0.5579 J-0.0115 F1500.00
G1 X18.2500 Y14.5000 Z8.0000 F1500.00
G1 X18.2500 Y15.0000 Z8.0000 F1500.00
G1 X18.2500 Y15.0000 Z8.0000 F1500.00
G1 X18.2500 Y14.5000 Z8.0000 F1500.00
G1 X18.7182 Y14.5000 Z8.0000 F1500.00
G1 X18.7182 Y14.5000 Z8.0000 F1500.00
G1 X18.7182 Y14.5000 Z8.0000 F1500.00
G1 X18.7500 Y14.4770 Z8.0000 F1500.00
G1 X18.7500 Y14.4770 Z8.0000 F1500.00
G1 X18.7500 Y14.4770 Z8.0000 F1500.00
G1 X18.7500 Y14.4770 Z8.0000 F1500.00
G1 X18.7500 Y14.9770 Z8.0000 F1500.00
G1 X18.7500 Y14.9770 Z8.0000 F1500.00
G1 X18.7500 Y14.4770 Z8.0000 F1500.00
G1 X18.7500 Y14.4770 Z8.0000 F1500.00
G1 X18.7500 Y9.7071 Z8.0000 F1500.00
G3 X18.5100 Y9.2600 Z8.0000 I0.3439 J-0.4725 F1500.00
G1 X18.5100 Y3.6000 Z8.0000 F1500.00
G3 X19.0100 Y3.1000 Z8.0000 I0.5000 J0.0000 F1500.00
G1 X21.9900 Y3.1000 Z8.0000 F1500.00
G3 X23.4897 Y4.5836 Z8.0000 I-0.0016 J1.5015 F1500.00
G3 X23.4900 Y9.2600 Z8.0000 I-142.8358 J2.3464 F1500.00
G3 X23.2500 Y9.7071 Z8.0000 I-0.5579 J-0.0115 F1500.00
G1 X23.2500 Y14.5000 Z8.0000 F1500.00
G1 X23.2500 Y15.0000 Z8.0000 F1500.00
G1 X23.2500 Y15.0000 Z8.0000 F1500.00
G1 X23.2500 Y14.5000 Z8.0000 F1500.00
G1 X23.7500 Y14.5000 Z8.0000 F1500.00
G1 X23.7500 Y14.5000 Z8.0000 F1500.00
G1 X23.7500 Y14.5000 Z8.0000 F1500.00
G1 X23.7500 Y15.0000 Z8.0000 F1500.00
G1 X23.7500 Y15.0000 Z8.0000 F1500.00
G1 X23.7500 Y14.5000 Z8.0000 F1500.00
G1 X23.7500 Y14.5000 Z8.0000 F1500.00
G1 X23.7500 Y9.7071 Z8.0000 F1500.00
G3 X23.5100 Y9.2600 Z8.0000 I0.3439 J-0.4725 F1500.00
G1 X23.5100 Y3.6000 Z8.0000 F1500.00
G3 X24.0100 Y3.1000 Z8.0000 I0.5000 J0.0000 F1500.00
G1 X26.9900 Y3.1000 Z8.0000 F1500.00
G3 X28.4897 Y4.5836 Z8.0000 I-0.0016 J1.5015 F1500.00
G3 X28.4900 Y9.2600 Z8.0000 I-142.8364 J2.3464 F1500.00
G3 X28.2500 Y9.7071 Z8.0000 I-0.5579 J-0.0115 F1500.00
G1 X28.2500 Y14.4770 Z8.0000 F1500.00
G1 X28.2500 Y14.9770 Z8.0000 F1500.00
G1 X28.2500 Y14.9770 Z8.0000 F1500.00
G1 X28.2500 Y14.4770 Z8.0000 F1500.00
G1 X28.2818 Y14.5000 Z8.0000 F1500.00
G1 X28.2818 Y14.5000 Z8.0000 F1500.00
G1 X28.2818 Y14.5000 Z8.0000 F1500.00
G1 X28.7500 Y14.5000 Z8.0000 F1500.00
G1 X28.7500 Y14.5000 Z8.0000 F1500.00
G1 X28.7500 Y14.5000 Z8.0000 F1500.00
G1 X28.7500 Y14.5000 Z8.0000 F1500.00
G1 X28.7500 Y15.0000 Z8.0000 F1500.00
G1 X28.7500 Y15.0000 Z8.0000 F1500.00
G1 X28.7500 Y14.5000 Z8.0000 F1500.00
G1 X28.7500 Y14.5000 Z8.0000 F1500.00
G1 X28.7500 Y14.5000 Z7.5000 F300.00
G1 X28.7500 Y9.7071 Z7.5000 F1500.00
G3 X28.5100 Y9.2600 Z7.5000 I0.3439 J-0.4725 F1500.00
G1 X28.5100 Y3.8246 Z7.5000 F1500.00
G2 X27.1854 Y2.5000 Z7.5000 I-1.3062 J-0.0184 F1500.00
G1 X0.5000 Y2.5000 Z7.5000 F1500.00
G1 X0.5000 Y3.1000 Z7.5000 F1500.00
G1 X0.5000 Y3.1000 Z7.5000 F1500.00
G1 X0.5000 Y3.1000 Z7.5000 F1500.00
G1 X0.5000 Y3.1000 Z7.5000 F1500.00
G1 X16.9900 Y3.1000 Z7.5000 F1500.00
G3 X18.4897 Y4.5836 Z7.5000 I-0.0016 J1.5015 F1500.00
G3 X18.4900 Y9.2600 Z7.5000 I-142.8358 J2.3464 F1500.00
G3 X18.2500 Y9.7071 Z7.5000 I-0.5579 J-0.0115 F1500.00
G1 X18.2500 Y14.5000 Z7.5000 F1500.00
G1 X18.2500 Y15.0000 Z7.5000 F1500.00
G1 X18.2500 Y15.0000 Z7.5000 F1500.00
G1 X18.2500 Y14.5000 Z7.5000 F1500.00
G1 X18.7182 Y14.5000 Z7.5000 F1500.00
G1 X18.7182 Y14.5000 Z7.5000 F1500.00
G1 X18.7182 Y14.5000 Z7.5000 F1500.00
G1 X18.7500 Y14.4770 Z7.5000 F1500.00
G1 X18.7500 Y14.4770 Z7.5000 F1500.00
G1 X18.7500 Y14.4770 Z7.5000 F1500.00
G1 X18.7500 Y14.4770 Z7.5000 F1500.00
G1 X18.7500 Y14.9770 Z7.5000 F1500.00
G1 X18.7500 Y14.9770 Z7.5000 F1500.00
G1 X18.7500 Y14.4770 Z7.5000 F1500.00
G1 X18.7500 Y14.4770 Z7.5000 F1500.00
G1 X18.7500 Y9.7071 Z7.5000 F1500.00
G3 X18.5100 Y9.2600 Z7.5000 I0.3439 J-0.4725 F1500.00
G1 X18.5100 Y3.6000 Z7.5000 F1500.00
G3 X19.0100 Y3.1000 Z7.5000 I0.5000 J0.0000 F1500.00
G1 X21.9900 Y3.1000 Z7.5000 F1500.00
G3 X23.4897 Y4.5836 Z7.5000 I-0.0016 J1.5015 F1500.00
G3 X23.4900 Y9.2600 Z7.5000 I-142.8358 J2.3464 F1500.00
G3 X23.2500 Y9.7071 Z7.5000 I-0.5579 J-0.0115 F1500.00
G1 X23.2500 Y14.5000 Z7.5000 F1500.00
G1 X23.2500 Y15.0000 Z7.5000 F1500.00
G1 X23.2500 Y15.0000 Z7.5000 F1500.00
G1 X23.2500 Y14.5000 Z7.5000 F1500.00
G1 X23.7500 Y14.5000 Z7.5000 F1500.00
G1 X23.7500 Y14.5000 Z7.5000 F1500.00
G1 X23.7500 Y14.5000 Z7.5000 F1500.00
G1 X23.7500 Y15.0000 Z7.5000 F1500.00
G1 X23.7500 Y15.0000 Z7.5000 F1500.00
G1 X23.7500 Y14.5000 Z7.5000 F1500.00
G1 X23.7500 Y14.5000 Z7.5000 F1500.00
G1 X23.7500 Y9.7071 Z7.5000 F1500.00
G3 X23.5100 Y9.2600 Z7.5000 I0.3439 J-0.4725 F1500.00
G1 X23.5100 Y3.6000 Z7.5000 F1500.00
G3 X24.0100 Y3.1000 Z7.5000 I0.5000 J0.0000 F1500.00
G1 X26.9900 Y3.1000 Z7.5000 F1500.00
G3 X28.4897 Y4.5836 Z7.5000 I-0.0016 J1.5015 F1500.00
G3 X28.4900 Y9.2600 Z7.5000 I-142.8364 J2.3464 F1500.00
G3 X28.2500 Y9.7071 Z7.5000 I-0.5579 J-0.0115 F1500.00
G1 X28.2500 Y14.4770 Z7.5000 F1500.00
G1 X28.2500 Y14.9770 Z7.5000 F1500.00
G1 X28.2500 Y14.9770 Z7.5000 F1500.00
G1 X28.2500 Y14.4770 Z7.5000 F1500.00
G1 X28.2818 Y14.5000 Z7.5000 F1500.00
G1 X28.2818 Y14.5000 Z7.5000 F1500.00
G1 X28.2818 Y14.5000 Z7.5000 F1500.00
G1 X28.7500 Y14.5000 Z7.5000 F1500.00
G1 X28.7500 Y14.5000 Z7.5000 F1500.00
G1 X28.7500 Y14.5000 Z7.5000 F1500.00
G1 X28.7500 Y14.5000 Z7.5000 F1500.00
G1 X28.7500 Y15.0000 Z7.5000 F1500.00
G1 X28.7500 Y15.0000 Z7.5000 F1500.00
G1 X28.7500 Y14.5000 Z7.5000 F1500.00
G1 X28.7500 Y14.5000 Z7.5000 F1500.00
G1 X28.7500 Y14.5000 Z7.0000 F300.00
G1 X28.7500 Y9.7071 Z7.0000 F1500.00
G3 X28.5100 Y9.2600 Z7.0000 I0.3439 J-0.4725 F1500.00
G1 X28.5100 Y3.8246 Z7.0000 F1500.00
G2 X27.1854 Y2.5000 Z7.0000 I-1.3062 J-0.0184 F1500.00
G1 X0.5000 Y2.5000 Z7.0000 F1500.00
G1 X0.5000 Y3.1000 Z7.0000 F1500.00
G1 X0.5000 Y3.1000 Z7.0000 F1500.00
G1 X0.5000 Y3.1000 Z7.0000 F1500.00
G1 X0.5000 Y3.1000 Z7.0000 F1500.00
G1 X16.9900 Y3.1000 Z7.0000 F1500.00
G3 X18.4897 Y4.5836 Z7.0000 I-0.0016 J1.5015 F1500.00
G3 X18.4900 Y9.2600 Z7.0000 I-142.8358 J2.3464 F1500.00
G3 X18.2500 Y9.7071 Z7.0000 I-0.5579 J-0.0115 F1500.00
G1 X18.2500 Y14.5000 Z7.0000 F1500.00
G1 X18.2500 Y15.0000 Z7.0000 F1500.00
G1 X18.2500 Y15.0000 Z7.0000 F1500.00
G1 X18.2500 Y14.5000 Z7.0000 F1500.00
G1 X18.7182 Y14.5000 Z7.0000 F1500.00
G1 X18.7182 Y14.5000 Z7.0000 F1500.00
G1 X18.7182 Y14.5000 Z7.0000 F1500.00
G1 X18.7500 Y14.4770 Z7.0000 F1500.00
G1 X18.7500 Y14.4770 Z7.0000 F1500.00
G1 X18.7500 Y14.4770 Z7.0000 F1500.00
G1 X18.7500 Y14.4770 Z7.0000 F1500.00
G1 X18.7500 Y14.9770 Z7.0000 F1500.00
G1 X18.7500 Y14.9770 Z7.0000 F1500.00
G1 X18.7500 Y14.4770 Z7.0000 F1500.00
G1 X18.7500 Y14.4770 Z7.0000 F1500.00
G1 X18.7500 Y9.7071 Z7.0000 F1500.00
G3 X18.5100 Y9.2600 Z7.0000 I0.3439 J-0.4725 F1500.00
G1 X18.5100 Y3.6000 Z7.0000 F1500.00
G3 X19.0100 Y3.1000 Z7.0000 I0.5000 J0.0000 F1500.00
G1 X21.9900 Y3.1000 Z7.0000 F1500.00
G3 X23.4897 Y4.5836 Z7.0000 I-0.0016 J1.5015 F1500.00
G3 X23.4900 Y9.2600 Z7.0000 I-142.8358 J2.3464 F1500.00
G3 X23.2500 Y9.7071 Z7.0000 I-0.5579 J-0.0115 F1500.00
G1 X23.2500 Y14.5000 Z7.0000 F1500.00
G1 X23.2500 Y15.0000 Z7.0000 F1500.00
G1 X23.2500 Y15.0000 Z7.0000 F1500.00
G1 X23.2500 Y14.5000 Z7.0000 F1500.00
G1 X23.7500 Y14.5000 Z7.0000 F1500.00
G1 X23.7500 Y14.5000 Z7.0000 F1500.00
G1 X23.7500 Y14.5000 Z7.0000 F1500.00
G1 X23.7500 Y15.0000 Z7.0000 F1500.00
G1 X23.7500 Y15.0000 Z7.0000 F1500.00
G1 X23.7500 Y14.5000 Z7.0000 F1500.00
G1 X23.7500 Y14.5000 Z7.0000 F1500.00
G1 X23.7500 Y9.7071 Z7.0000 F1500.00
G3 X23.5100 Y9.2600 Z7.0000 I0.3439 J-0.4725 F1500.00
G1 X23.5100 Y3.6000 Z7.0000 F1500.00
G3 X24.0100 Y3.1000 Z7.0000 I0.5000 J0.0000 F1500.00
G1 X26.9900 Y3.1000 Z7.0000 F1500.00
G3 X28.4897 Y4.5836 Z7.0000 I-0.0016 J1.5015 F1500.00
G3 X28.4900 Y9.2600 Z7.0000 I-142.8364 J2.3464 F1500.00
G3 X28.2500 Y9.7071 Z7.0000 I-0.5579 J-0.0115 F1500.00
G1 X28.2500 Y14.4770 Z7.0000 F1500.00
G1 X28.2500 Y14.9770 Z7.0000 F1500.00
G1 X28.2500 Y14.9770 Z7.0000 F1500.00
G1 X28.2500 Y14.4770 Z7.0000 F1500.00
G1 X28.2818 Y14.5000 Z7.0000 F1500.00
G1 X28.2818 Y14.5000 Z7.0000 F1500.00
G1 X28.2818 Y14.5000 Z7.0000 F1500.00
G1 X28.7500 Y14.5000 Z7.0000 F1500.00
G1 X28.7500 Y14.5000 Z7.0000 F1500.00
G1 X28.7500 Y14.5000 Z7.0000 F1500.00
G1 X28.7500 Y14.5000 Z7.0000 F1500.00
G1 X28.7500 Y15.0000 Z7.0000 F1500.00
G1 X28.7500 Y15.0000 Z7.0000 F1500.00
G1 X28.7500 Y14.5000 Z7.0000 F1500.00
G1 X28.7500 Y14.5000 Z7.0000 F1500.00
G1 X28.7500 Y14.5000 Z6.5000 F300.00
G1 X28.7500 Y9.7071 Z6.5000 F1500.00
G3 X28.5100 Y9.2600 Z6.5000 I0.3439 J-0.4725 F1500.00
G1 X28.5100 Y3.8246 Z6.5000 F1500.00
G2 X27.1854 Y2.5000 Z6.5000 I-1.3062 J-0.0184 F1500.00
G1 X0.5000 Y2.5000 Z6.5000 F1500.00
G1 X0.5000 Y3.1000 Z6.5000 F1500.00
G1 X0.5000 Y3.1000 Z6.5000 F1500.00
G1 X0.5000 Y3.1000 Z6.5000 F1500.00
G1 X0.5000 Y3.1000 Z6.5000 F1500.00
G1 X16.9900 Y3.1000 Z6.5000 F1500.00
G3 X18.4897 Y4.5836 Z6.5000 I-0.0016 J1.5015 F1500.00
G3 X18.4900 Y9.2600 Z6.5000 I-142.8358 J2.3464 F1500.00
G3 X18.2500 Y9.7071 Z6.5000 I-0.5579 J-0.0115 F1500.00
G1 X18.2500 Y14.5000 Z6.5000 F1500.00
G1 X18.2500 Y15.0000 Z6.5000 F1500.00
G1 X18.2500 Y15.0000 Z6.5000 F1500.00
G1 X18.2500 Y14.5000 Z6.5000 F1500.00
G1 X18.7182 Y14.5000 Z6.5000 F1500.00
G1 X18.7182 Y14.5000 Z6.5000 F1500.00
G1 X18.7182 Y14.5000 Z6.5000 F1500.00
G1 X18.7500 Y14.4770 Z6.5000 F1500.00
G1 X18.7500 Y14.4770 Z6.5000 F1500.00
G1 X18.7500 Y14.4770 Z6.5000 F1500.00
G1 X18.7500 Y14.4770 Z6.5000 F1500.00
G1 X18.7500 Y14.9770 Z6.5000 F1500.00
G1 X18.7500 Y14.9770 Z6.5000 F1500.00
G1 X18.7500 Y14.4770 Z6.5000 F1500.00
G1 X18.7500 Y14.4770 Z6.5000 F1500.00
G1 X18.7500 Y9.7071 Z6.5000 F1500.00
G3 X18.5100 Y9.2600 Z6.5000 I0.3439 J-0.4725 F1500.00
G1 X18.5100 Y3.6000 Z6.5000 F1500.00
G3 X19.0100 Y3.1000 Z6.5000 I0.5000 J0.0000 F1500.00
G1 X21.9900 Y3.1000 Z6.5000 F1500.00
G3 X23.4897 Y4.5836 Z6.5000 I-0.0016 J1.5015 F1500.00
G3 X23.4900 Y9.2600 Z6.5000 I-142.8358 J2.3464 F1500.00
G3 X23.2500 Y9.7071 Z6.5000 I-0.5579 J-0.0115 F1500.00
G1 X23.2500 Y14.5000 Z6.5000 F1500.00
G1 X23.2500 Y15.0000 Z6.5000 F1500.00
G1 X23.2500 Y15.0000 Z6.5000 F1500.00
G1 X23.2500 Y14.5000 Z6.5000 F1500.00
G1 X23.7500 Y14.5000 Z6.5000 F1500.00
G1 X23.7500 Y14.5000 Z6.5000 F1500.00
G1 X23.7500 Y14.5000 Z6.5000 F1500.00
G1 X23.7500 Y15.0000 Z6.5000 F1500.00
G1 X23.7500 Y15.0000 Z6.5000 F1500.00
G1 X23.7500 Y14.5000 Z6.5000 F1500.00
G1 X23.7500 Y14.5000 Z6.5000 F1500.00
G1 X23.7500 Y9.7071 Z6.5000 F1500.00
G3 X23.5100 Y9.2600 Z6.5000 I0.3439 J-0.4725 F1500.00
G1 X23.5100 Y3.6000 Z6.5000 F1500.00
G3 X24.0100 Y3.1000 Z6.5000 I0.5000 J0.0000 F1500.00
G1 X26.9900 Y3.1000 Z6.5000 F1500.00
G3 X28.4897 Y4.5836 Z6.5000 I-0.0016 J1.5015 F1500.00
G3 X28.4900 Y9.2600 Z6.5000 I-142.8364 J2.3464 F1500.00
G3 X28.2500 Y9.7071 Z6.5000 I-0.5579 J-0.0115 F1500.00
G1 X28.2500 Y14.4770 Z6.5000 F1500.00
G1 X28.2500 Y14.9770 Z6.5000 F1500.00
G1 X28.2500 Y14.9770 Z6.5000 F1500.00
G1 X28.2500 Y14.4770 Z6.5000 F1500.00
G1 X28.2818 Y14.5000 Z6.5000 F1500.00
G1 X28.2818 Y14.5000 Z6.5000 F1500.00
G1 X28.2818 Y14.5000 Z6.5000 F1500.00
G1 X28.7500 Y14.5000 Z6.5000 F1500.00
G1 X28.7500 Y14.5000 Z6.5000 F1500.00
G1 X28.7500 Y14.5000 Z6.5000 F1500.00
G1 X28.7500 Y14.5000 Z6.5000 F1500.00
G1 X28.7500 Y15.0000 Z6.5000 F1500.00
G1 X28.7500 Y15.0000 Z6.5000 F1500.00
G1 X28.7500 Y14.5000 Z6.5000 F1500.00
G1 X28.7500 Y14.5000 Z6.5000 F1500.00
G1 X28.7500 Y14.5000 Z6.0000 F300.00
G1 X28.7500 Y9.7071 Z6.0000 F1500.00
G3 X28.5100 Y9.2600 Z6.0000 I0.3439 J-0.4725 F1500.00
G1 X28.5100 Y3.8246 Z6.0000 F1500.00
G2 X27.1854 Y2.5000 Z6.0000 I-1.3062 J-0.0184 F1500.00
G1 X0.5000 Y2.5000 Z6.0000 F1500.00
G1 X0.5000 Y3.1000 Z6.0000 F1500.00
G1 X0.5000 Y3.1000 Z6.0000 F1500.00
G1 X0.5000 Y3.1000 Z6.0000 F1500.00
G1 X0.5000 Y3.1000 Z6.0000 F1500.00
G1 X16.9900 Y3.1000 Z6.0000 F1500.00
G3 X18.4897 Y4.5836 Z6.0000 I-0.0016 J1.5015 F1500.00
G3 X18.4900 Y9.2600 Z6.0000 I-142.8358 J2.3464 F1500.00
G3 X18.2500 Y9.7071 Z6.0000 I-0.5579 J-0.0115 F1500.00
G1 X18.2500 Y14.5000 Z6.0000 F1500.00
G1 X18.2500 Y15.0000 Z6.0000 F1500.00
G1 X18.2500 Y15.0000 Z6.0000 F1500.00
G1 X18.2500 Y14.5000 Z6.0000 F1500.00
G1 X18.7182 Y14.5000 Z6.0000 F1500.00
G1 X18.7182 Y14.5000 Z6.0000 F1500.00
G1 X18.7182 Y14.5000 Z6.0000 F1500.00
G1 X18.7500 Y14.4770 Z6.0000 F1500.00
G1 X18.7500 Y14.4770 Z6.0000 F1500.00
G1 X18.7500 Y14.4770 Z6.0000 F1500.00
G1 X18.7500 Y14.4770 Z6.0000 F1500.00
G1 X18.7500 Y14.9770 Z6.0000 F1500.00
G1 X18.7500 Y14.9770 Z6.0000 F1500.00
G1 X18.7500 Y14.4770 Z6.0000 F1500.00
G1 X18.7500 Y14.4770 Z6.0000 F1500.00
G1 X18.7500 Y9.7071 Z6.0000 F1500.00
G3 X18.5100 Y9.2600 Z6.0000 I0.3439 J-0.4725 F1500.00
G1 X18.5100 Y3.6000 Z6.0000 F1500.00
G3 X19.0100 Y3.1000 Z6.0000 I0.5000 J0.0000 F1500.00
G1 X21.9900 Y3.1000 Z6.0000 F1500.00
G3 X23.4897 Y4.5836 Z6.0000 I-0.0016 J1.5015 F1500.00
G3 X23.4900 Y9.2600 Z6.0000 I-142.8358 J2.3464 F1500.00
G3 X23.2500 Y9.7071 Z6.0000 I-0.5579 J-0.0115 F1500.00
G1 X23.2500 Y14.5000 Z6.0000 F1500.00
G1 X23.2500 Y15.0000 Z6.0000 F1500.00
G1 X23.2500 Y15.0000 Z6.0000 F1500.00
G1 X23.2500 Y14.5000 Z6.0000 F1500.00
G1 X23.7500 Y14.5000 Z6.0000 F1500.00
G1 X23.7500 Y14.5000 Z6.0000 F1500.00
G1 X23.7500 Y14.5000 Z6.0000 F1500.00
G1 X23.7500 Y15.0000 Z6.0000 F1500.00
G1 X23.7500 Y15.0000 Z6.0000 F1500.00
G1 X23.7500 Y14.5000 Z6.0000 F1500.00
G1 X23.7500 Y14.5000 Z6.0000 F1500.00
G1 X23.7500 Y9.7071 Z6.0000 F1500.00
G3 X23.5100 Y9.2600 Z6.0000 I0.3439 J-0.4725 F1500.00
G1 X23.5100 Y3.6000 Z6.0000 F1500.00
G3 X24.0100 Y3.1000 Z6.0000 I0.5000 J0.0000 F1500.00
G1 X26.9900 Y3.1000 Z6.0000 F1500.00
G3 X28.4897 Y4.5836 Z6.0000 I-0.0016 J1.5015 F1500.00
G3 X28.4900 Y9.2600 Z6.0000 I-142.8364 J2.3464 F1500.00
G3 X28.2500 Y9.7071 Z6.0000 I-0.5579 J-0.0115 F1500.00
G1 X28.2500 Y14.4770 Z6.0000 F1500.00
G1 X28.2500 Y14.9770 Z6.0000 F1500.00
G1 X28.2500 Y14.9770 Z6.0000 F1500.00
G1 X28.2500 Y14.4770 Z6.0000 F1500.00
G1 X28.2818 Y14.5000 Z6.0000 F1500.00
G1 X28.2818 Y14.5000 Z6.0000 F1500.00
G1 X28.2818 Y14.5000 Z6.0000 F1500.00
G1 X28.7500 Y14.5000 Z6.0000 F1500.00
G1 X28.7500 Y14.5000 Z6.0000 F1500.00
G1 X28.7500 Y14.5000 Z6.0000 F1500.00
G1 X28.7500 Y14.5000 Z6.0000 F1500.00
G1 X28.7500 Y15.0000 Z6.0000 F1500.00
G1 X28.7500 Y15.0000 Z6.0000 F1500.00
G1 X28.7500 Y14.5000 Z6.0000 F1500.00
G1 X28.7500 Y14.5000 Z6.0000 F1500.00
G0 Z15.0000
(finish operation: DogboneDressup002)
(begin operation: SwitchBed)
(Path: SwitchBed)
(Pocket_Shape)
G0 Z15.0000
G0 X29.5000 Y21.0000
G0 Z13.0000
G1 X29.5000 Y21.0000 Z9.0000 F300.00
G1 X17.5000 Y21.0000 Z9.0000 F1500.00
G1 X17.3536 Y21.1464 Z9.0000 F1500.00
G1 X17.5000 Y21.0000 Z9.0000 F1500.00
G1 X17.5000 Y15.5000 Z9.0000 F1500.00
G1 X17.5000 Y15.5000 Z9.0000 F1500.00
G1 X17.3536 Y15.3536 Z9.0000 F1500.00
G1 X17.5000 Y15.5000 Z9.0000 F1500.00
G1 X18.8899 Y15.5000 Z9.0000 F1500.00
G2 X19.4443 Y15.2199 Z9.0000 I-0.1626 J-1.0108 F1500.00
G3 X21.3211 Y15.4080 Z9.0000 I0.8081 J1.3938 F1500.00
G2 X21.6101 Y15.5000 Z9.0000 I0.2891 J-0.4080 F1500.00
G1 X25.3899 Y15.5000 Z9.0000 F1500.00
G2 X25.9443 Y15.2199 Z9.0000 I-0.1626 J-1.0108 F1500.00
G3 X27.3014 Y15.1001 Z9.0000 I0.8057 J1.3801 F1500.00
G3 X27.8211 Y15.4080 Z9.0000 I-0.6051 J1.6139 F1500.00
G2 X28.1101 Y15.5000 Z9.0000 I0.2891 J-0.4080 F1500.00
G1 X29.5000 Y15.5000 Z9.0000 F1500.00
G1 X29.6464 Y15.3536 Z9.0000 F1500.00
G1 X29.5000 Y15.5000 Z9.0000 F1500.00
G1 X29.5000 Y21.0000 Z9.0000 F1500.00
G1 X29.5000 Y21.0000 Z9.0000 F1500.00
G1 X29.6464 Y21.1464 Z9.0000 F1500.00
G1 X29.5000 Y21.0000 Z9.0000 F1500.00
G0 X29.5000 Y21.0000 Z15.0000
G0 X29.0000 Y20.5000 Z15.0000
G1 X29.0000 Y20.5000 Z9.0000 F300.00
G1 X18.0000 Y20.5000 Z9.0000 F1500.00
G1 X18.0000 Y16.0000 Z9.0000 F1500.00
G1 X18.0000 Y16.0000 Z9.0000 F1500.00
G1 X18.3491 Y16.0000 Z9.0000 F1500.00
G2 X22.1398 Y17.2415 Z9.0000 I1.9017 J0.6015 F1500.00
G2 X22.1509 Y16.0000 Z9.0000 I-1.8590 J-0.6375 F1500.00
G1 X24.8491 Y16.0000 Z9.0000 F1500.00
G2 X28.6398 Y17.2415 Z9.0000 I1.9017 J0.6015 F1500.00
G2 X28.6509 Y16.0000 Z9.0000 I-1.8590 J-0.6375 F1500.00
G1 X29.0000 Y16.0000 Z9.0000 F1500.00
G1 X29.0000 Y20.5000 Z9.0000 F1500.00
G1 X29.0000 Y20.5000 Z9.0000 F1500.00
G0 X29.0000 Y20.5000 Z15.0000
G0 X28.5000 Y20.0000 Z15.0000
G1 X28.5000 Y20.0000 Z9.0000 F300.00
G1 X18.5000 Y20.0000 Z9.0000 F1500.00
G1 X18.5000 Y18.3674 Z9.0000 F1500.00
G2 X22.7372 Y16.5000 Z9.0000 I1.7552 J-1.7582 F1500.00
G1 X24.2628 Y16.5000 Z9.0000 F1500.00
G2 X28.5000 Y18.3674 Z9.0000 I2.4819 J0.1093 F1500.00
G1 X28.5000 Y20.0000 Z9.0000 F1500.00
G0 X28.5000 Y20.0000 Z15.0000
G0 X28.0000 Y19.5000 Z15.0000
G1 X28.0000 Y19.5000 Z9.0000 F300.00
G1 X27.4521 Y19.5000 Z9.0000 F1500.00
G2 X28.0000 Y19.3202 Z9.0000 I-0.4091 J-2.1710 F1500.00
G1 X28.0000 Y19.5000 Z9.0000 F1500.00
G0 X28.0000 Y19.5000 Z15.0000
G0 X27.3426 Y17.9749 Z15.0000
G1 X27.3426 Y17.9749 Z9.0000 F300.00
G3 X27.2002 Y18.0279 Z9.0000 I-0.5926 J-1.3749 F1500.00
G3 X26.2998 Y15.1721 Z9.0000 I-0.4502 J-1.4279 F1500.00
G3 X27.3426 Y17.9749 Z9.0000 I0.4502 J1.4279 F1500.00
G0 X27.3426 Y17.9749 Z15.0000
G0 X26.0479 Y19.5000 Z15.0000
G1 X26.0479 Y19.5000 Z9.0000 F300.00
G1 X20.9521 Y19.5000 Z9.0000 F1500.00
G2 X23.2146 Y17.0000 Z9.0000 I-0.6703 J-2.8805 F1500.00
G1 X23.7854 Y17.0000 Z9.0000 F1500.00
G2 X26.0479 Y19.5000 Z9.0000 I2.9329 J-0.3805 F1500.00
G0 X26.0479 Y19.5000 Z15.0000
G0 X24.2305 Y19.0000 Z15.0000
G1 X24.2305 Y19.0000 Z9.0000 F300.00
G1 X22.7695 Y19.0000 Z9.0000 F1500.00
G2 X23.5000 Y17.8774 Z9.0000 I-2.0122 J-2.1084 F1500.00
G2 X24.2305 Y19.0000 Z9.0000 I2.8312 J-1.0433 F1500.00
G0 X24.2305 Y19.0000 Z15.0000
G0 X23.6855 Y18.7500 Z15.0000
G1 X23.6855 Y18.7500 Z9.0000 F300.00
G1 X23.3132 Y18.7500 Z9.0000 F1500.00
G1 X23.5009 Y18.4569 Z9.0000 F1500.00
G2 X23.6855 Y18.7500 Z9.0000 I1.2056 J-0.5544 F1500.00
G0 X23.6855 Y18.7500 Z15.0000
G0 X21.5191 Y17.3942 Z15.0000
G1 X21.5191 Y17.3942 Z9.0000 F300.00
G3 X20.5741 Y18.0616 Z9.0000 I-1.2691 J-0.7942 F1500.00
G3 X18.7884 Y16.9241 Z9.0000 I-0.3241 J-1.4616 F1500.00
G3 X19.9259 Y15.1384 Z9.0000 I1.4616 J-0.3241 F1500.00
G3 X21.5191 Y17.3942 Z9.0000 I0.3241 J1.4616 F1500.00
G0 X21.5191 Y17.3942 Z15.0000
G0 X19.5479 Y19.5000 Z15.0000
G1 X19.5479 Y19.5000 Z9.0000 F300.00
G1 X19.0000 Y19.5000 Z9.0000 F1500.00
G1 X19.0000 Y19.3202 Z9.0000 F1500.00
G2 X19.5479 Y19.5000 Z9.0000 I0.9570 J-1.9911 F1500.00
G1 X19.5479 Y19.5000 Z8.0000 F300.00
G1 X19.0000 Y19.5000 Z8.0000 F1500.00
G1 X19.0000 Y19.3202 Z8.0000 F1500.00
G2 X19.5479 Y19.5000 Z8.0000 I0.9570 J-1.9911 F1500.00
G0 X19.5479 Y19.5000 Z15.0000
G0 X19.6648 Y19.0223 Z15.0000
G1 X19.6648 Y19.0223 Z8.0000 F300.00
G2 X22.7372 Y16.5000 Z8.0000 I0.5904 J-2.4132 F1500.00
G1 X24.2628 Y16.5000 Z8.0000 F1500.00
G2 X28.5000 Y18.3674 Z8.0000 I2.4819 J0.1093 F1500.00
G1 X28.5000 Y20.0000 Z8.0000 F1500.00
G1 X18.5000 Y20.0000 Z8.0000 F1500.00
G1 X18.5000 Y20.0000 Z8.0000 F1500.00
G1 X18.5000 Y18.3674 Z8.0000 F1500.00
G2 X19.6648 Y19.0223 Z8.0000 I1.7552 J-1.7582 F1500.00
G0 X19.6648 Y19.0223 Z15.0000
G0 X19.7815 Y18.5401 Z15.0000
G1 X19.7815 Y18.5401 Z8.0000 F300.00
G2 X22.1398 Y17.2415 Z8.0000 I0.4692 J-1.9386 F1500.00
G2 X22.1509 Y16.0000 Z8.0000 I-1.8590 J-0.6375 F1500.00
G1 X24.8491 Y16.0000 Z8.0000 F1500.00
G2 X28.6398 Y17.2415 Z8.0000 I1.9017 J0.6015 F1500.00
G2 X28.6509 Y16.0000 Z8.0000 I-1.8590 J-0.6375 F1500.00
G1 X29.0000 Y16.0000 Z8.0000 F1500.00
G1 X29.0000 Y20.5000 Z8.0000 F1500.00
G1 X29.0000 Y20.5000 Z8.0000 F1500.00
G1 X18.0000 Y20.5000 Z8.0000 F1500.00
G1 X18.0000 Y20.5000 Z8.0000 F1500.00
G1 X18.0000 Y16.0000 Z8.0000 F1500.00
G1 X18.0000 Y16.0000 Z8.0000 F1500.00
G1 X18.3491 Y16.0000 Z8.0000 F1500.00
G2 X19.7815 Y18.5401 Z8.0000 I1.9017 J0.6015 F1500.00
G0 X19.7815 Y18.5401 Z15.0000
G0 X19.8986 Y18.0553 Z15.0000
G1 X19.8986 Y18.0553 Z8.0000 F300.00
G3 X19.9259 Y15.1384 Z8.0000 I0.3514 J-1.4553 F1500.00
G3 X20.5741 Y18.0616 Z8.0000 I0.3241 J1.4616 F1500.00
G3 X19.8986 Y18.0553 Z8.0000 I-0.3241 J-1.4616 F1500.00
G0 X19.8986 Y18.0553 Z15.0000
G0 X20.9521 Y19.5000 Z15.0000
G1 X20.9521 Y19.5000 Z8.0000 F300.00
G2 X23.2146 Y17.0000 Z8.0000 I-0.6703 J-2.8805 F1500.00
G1 X23.7854 Y17.0000 Z8.0000 F1500.00
G2 X26.0479 Y19.5000 Z8.0000 I2.9329 J-0.3805 F1500.00
G1 X20.9521 Y19.5000 Z8.0000 F1500.00
G0 X20.9521 Y19.5000 Z15.0000
G0 X20.9521 Y21.0000 Z15.0000
G1 X20.9521 Y21.0000 Z8.0000 F300.00
G1 X17.5000 Y21.0000 Z8.0000 F1500.00
G1 X17.3536 Y21.1464 Z8.0000 F1500.00
G1 X17.5000 Y21.0000 Z8.0000 F1500.00
G1 X17.5000 Y15.5000 Z8.0000 F1500.00
G1 X17.5000 Y15.5000 Z8.0000 F1500.00
G1 X17.3536 Y15.3536 Z8.0000 F1500.00
G1 X17.5000 Y15.5000 Z8.0000 F1500.00
G1 X18.8899 Y15.5000 Z8.0000 F1500.00
G2 X19.4443 Y15.2199 Z8.0000 I-0.1626 J-1.0108 F1500.00
G3 X21.3211 Y15.4080 Z8.0000 I0.8081 J1.3938 F1500.00
G2 X21.6101 Y15.5000 Z8.0000 I0.2891 J-0.4080 F1500.00
G1 X25.3899 Y15.5000 Z8.0000 F1500.00
G2 X25.9443 Y15.2199 Z8.0000 I-0.1626 J-1.0108 F1500.00
G3 X27.3014 Y15.1001 Z8.0000 I0.8057 J1.3801 F1500.00
G3 X27.8211 Y15.4080 Z8.0000 I-0.6051 J1.6139 F1500.00
G2 X28.1101 Y15.5000 Z8.0000 I0.2891 J-0.4080 F1500.00
G1 X29.5000 Y15.5000 Z8.0000 F1500.00
G1 X29.6464 Y15.3536 Z8.0000 F1500.00
G1 X29.5000 Y15.5000 Z8.0000 F1500.00
G1 X29.5000 Y21.0000 Z8.0000 F1500.00
G1 X29.5000 Y21.0000 Z8.0000 F1500.00
G1 X29.6464 Y21.1464 Z8.0000 F1500.00
G1 X29.5000 Y21.0000 Z8.0000 F1500.00
G1 X20.9521 Y21.0000 Z8.0000 F1500.00
G1 X20.9521 Y21.0000 Z8.0000 F1500.00
G0 X20.9521 Y21.0000 Z15.0000
G0 X22.7695 Y19.0000 Z15.0000
G1 X22.7695 Y19.0000 Z8.0000 F300.00
G2 X23.5000 Y17.8774 Z8.0000 I-2.0122 J-2.1084 F1500.00
G2 X24.2305 Y19.0000 Z8.0000 I2.8312 J-1.0433 F1500.00
G1 X22.7695 Y19.0000 Z8.0000 F1500.00
G0 X22.7695 Y19.0000 Z15.0000
G0 X23.3132 Y18.7500 Z15.0000
G1 X23.3132 Y18.7500 Z8.0000 F300.00
G1 X23.5009 Y18.4569 Z8.0000 F1500.00
G2 X23.6855 Y18.7500 Z8.0000 I1.2056 J-0.5544 F1500.00
G1 X23.3132 Y18.7500 Z8.0000 F1500.00
G0 X23.3132 Y18.7500 Z15.0000
G0 X25.4808 Y17.3940 Z15.0000
G1 X25.4808 Y17.3940 Z8.0000 F300.00
G3 X26.2998 Y15.1721 Z8.0000 I1.2692 J-0.7940 F1500.00
G3 X28.1779 Y16.1498 Z8.0000 I0.4502 J1.4279 F1500.00
G3 X27.2002 Y18.0279 Z8.0000 I-1.4279 J0.4502 F1500.00
G3 X25.4808 Y17.3940 Z8.0000 I-0.4502 J-1.4279 F1500.00
G0 X25.4808 Y17.3940 Z15.0000
G0 X27.4521 Y19.5000 Z15.0000
G1 X27.4521 Y19.5000 Z8.0000 F300.00
G2 X28.0000 Y19.3202 Z8.0000 I-0.4091 J-2.1710 F1500.00
G1 X28.0000 Y19.5000 Z8.0000 F1500.00
G1 X27.4521 Y19.5000 Z8.0000 F1500.00
G1 X27.4521 Y19.5000 Z7.0000 F300.00
G2 X28.0000 Y19.3202 Z7.0000 I-0.4091 J-2.1710 F1500.00
G1 X28.0000 Y19.5000 Z7.0000 F1500.00
G1 X27.4521 Y19.5000 Z7.0000 F1500.00
G0 X27.4521 Y19.5000 Z15.0000
G0 X27.3352 Y19.0224 Z15.0000
G1 X27.3352 Y19.0224 Z7.0000 F300.00
G2 X28.5000 Y18.3674 Z7.0000 I-0.5905 J-2.4131 F1500.00
G1 X28.5000 Y20.0000 Z7.0000 F1500.00
G1 X18.5000 Y20.0000 Z7.0000 F1500.00
G1 X18.5000 Y20.0000 Z7.0000 F1500.00
G1 X18.5000 Y18.3674 Z7.0000 F1500.00
G2 X22.7372 Y16.5000 Z7.0000 I1.7552 J-1.7582 F1500.00
G1 X24.2628 Y16.5000 Z7.0000 F1500.00
G2 X27.3352 Y19.0224 Z7.0000 I2.4819 J0.1093 F1500.00
G0 X27.3352 Y19.0224 Z15.0000
G0 X27.2188 Y18.5403 Z15.0000
G1 X27.2188 Y18.5403 Z7.0000 F300.00
G2 X28.6398 Y17.2415 Z7.0000 I-0.4681 J-1.9388 F1500.00
G2 X28.6509 Y16.0000 Z7.0000 I-1.8590 J-0.6375 F1500.00
G1 X29.0000 Y16.0000 Z7.0000 F1500.00
G1 X29.0000 Y20.5000 Z7.0000 F1500.00
G1 X29.0000 Y20.5000 Z7.0000 F1500.00
G1 X18.0000 Y20.5000 Z7.0000 F1500.00
G1 X18.0000 Y20.5000 Z7.0000 F1500.00
G1 X18.0000 Y16.0000 Z7.0000 F1500.00
G1 X18.0000 Y16.0000 Z7.0000 F1500.00
G1 X18.3491 Y16.0000 Z7.0000 F1500.00
G2 X22.1398 Y17.2415 Z7.0000 I1.9017 J0.6015 F1500.00
G2 X22.1509 Y16.0000 Z7.0000 I-1.8590 J-0.6375 F1500.00
G1 X24.8491 Y16.0000 Z7.0000 F1500.00
G2 X27.2188 Y18.5403 Z7.0000 I1.9017 J0.6015 F1500.00
G0 X27.2188 Y18.5403 Z15.0000
G0 X27.1016 Y18.0553 Z15.0000
G1 X27.1016 Y18.0553 Z7.0000 F300.00
G3 X26.2998 Y15.1721 Z7.0000 I-0.3516 J-1.4553 F1500.00
G3 X28.1779 Y16.1498 Z7.0000 I0.4502 J1.4279 F1500.00
G3 X27.2002 Y18.0279 Z7.0000 I-1.4279 J0.4502 F1500.00
G3 X27.1016 Y18.0553 Z7.0000 I-0.4502 J-1.4279 F1500.00
G0 X27.1016 Y18.0553 Z15.0000
G0 X26.0479 Y19.5000 Z15.0000
G1 X26.0479 Y19.5000 Z7.0000 F300.00
G1 X20.9521 Y19.5000 Z7.0000 F1500.00
G2 X23.2146 Y17.0000 Z7.0000 I-0.6703 J-2.8805 F1500.00
G1 X23.7854 Y17.0000 Z7.0000 F1500.00
G2 X26.0479 Y19.5000 Z7.0000 I2.9329 J-0.3805 F1500.00
G0 X26.0479 Y19.5000 Z15.0000
G0 X26.0479 Y21.0000 Z15.0000
G1 X26.0479 Y21.0000 Z7.0000 F300.00
G1 X17.5000 Y21.0000 Z7.0000 F1500.00
G1 X17.3536 Y21.1464 Z7.0000 F1500.00
G1 X17.5000 Y21.0000 Z7.0000 F1500.00
G1 X17.5000 Y15.5000 Z7.0000 F1500.00
G1 X17.5000 Y15.5000 Z7.0000 F1500.00
G1 X17.3536 Y15.3536 Z7.0000 F1500.00
G1 X17.5000 Y15.5000 Z7.0000 F1500.00
G1 X18.8899 Y15.5000 Z7.0000 F1500.00
G2 X19.4443 Y15.2199 Z7.0000 I-0.1626 J-1.0108 F1500.00
G3 X21.3211 Y15.4080 Z7.0000 I0.8081 J1.3938 F1500.00
G2 X21.6101 Y15.5000 Z7.0000 I0.2891 J-0.4080 F1500.00
G1 X25.3899 Y15.5000 Z7.0000 F1500.00
G2 X25.9443 Y15.2199 Z7.0000 I-0.1626 J-1.0108 F1500.00
G3 X27.3014 Y15.1001 Z7.0000 I0.8057 J1.3801 F1500.00
G3 X27.8211 Y15.4080 Z7.0000 I-0.6051 J1.6139 F1500.00
G2 X28.1101 Y15.5000 Z7.0000 I0.2891 J-0.4080 F1500.00
G1 X29.5000 Y15.5000 Z7.0000 F1500.00
G1 X29.6464 Y15.3536 Z7.0000 F1500.00
G1 X29.5000 Y15.5000 Z7.0000 F1500.00
G1 X29.5000 Y21.0000 Z7.0000 F1500.00
G1 X29.5000 Y21.0000 Z7.0000 F1500.00
G1 X29.6464 Y21.1464 Z7.0000 F1500.00
G1 X29.5000 Y21.0000 Z7.0000 F1500.00
G1 X26.0479 Y21.0000 Z7.0000 F1500.00
G1 X26.0479 Y21.0000 Z7.0000 F1500.00
G0 X26.0479 Y21.0000 Z15.0000
G0 X24.2305 Y19.0000 Z15.0000
G1 X24.2305 Y19.0000 Z7.0000 F300.00
G1 X22.7695 Y19.0000 Z7.0000 F1500.00
G2 X23.5000 Y17.8774 Z7.0000 I-2.0122 J-2.1084 F1500.00
G2 X24.2305 Y19.0000 Z7.0000 I2.8312 J-1.0433 F1500.00
G0 X24.2305 Y19.0000 Z15.0000
G0 X23.6855 Y18.7500 Z15.0000
G1 X23.6855 Y18.7500 Z7.0000 F300.00
G1 X23.3132 Y18.7500 Z7.0000 F1500.00
G1 X23.5009 Y18.4569 Z7.0000 F1500.00
G2 X23.6855 Y18.7500 Z7.0000 I1.2056 J-0.5544 F1500.00
G0 X23.6855 Y18.7500 Z15.0000
G0 X21.5191 Y17.3942 Z15.0000
G1 X21.5191 Y17.3942 Z7.0000 F300.00
G3 X20.5741 Y18.0616 Z7.0000 I-1.2691 J-0.7942 F1500.00
G3 X18.7884 Y16.9241 Z7.0000 I-0.3241 J-1.4616 F1500.00
G3 X19.9259 Y15.1384 Z7.0000 I1.4616 J-0.3241 F1500.00
G3 X21.5191 Y17.3942 Z7.0000 I0.3241 J1.4616 F1500.00
G0 X21.5191 Y17.3942 Z15.0000
G0 X19.5479 Y19.5000 Z15.0000
G1 X19.5479 Y19.5000 Z7.0000 F300.00
G1 X19.0000 Y19.5000 Z7.0000 F1500.00
G1 X19.0000 Y19.3202 Z7.0000 F1500.00
G2 X19.5479 Y19.5000 Z7.0000 I0.9570 J-1.9911 F1500.00
G1 X19.5479 Y19.5000 Z6.0000 F300.00
G1 X19.0000 Y19.5000 Z6.0000 F1500.00
G1 X19.0000 Y19.3202 Z6.0000 F1500.00
G2 X19.5479 Y19.5000 Z6.0000 I0.9570 J-1.9911 F1500.00
G0 X19.5479 Y19.5000 Z15.0000
G0 X19.6648 Y19.0223 Z15.0000
G1 X19.6648 Y19.0223 Z6.0000 F300.00
G2 X22.7372 Y16.5000 Z6.0000 I0.5904 J-2.4132 F1500.00
G1 X24.2628 Y16.5000 Z6.0000 F1500.00
G2 X28.5000 Y18.3674 Z6.0000 I2.4819 J0.1093 F1500.00
G1 X28.5000 Y20.0000 Z6.0000 F1500.00
G1 X18.5000 Y20.0000 Z6.0000 F1500.00
G1 X18.5000 Y20.0000 Z6.0000 F1500.00
G1 X18.5000 Y18.3674 Z6.0000 F1500.00
G2 X19.6648 Y19.0223 Z6.0000 I1.7552 J-1.7582 F1500.00
G0 X19.6648 Y19.0223 Z15.0000
G0 X19.7815 Y18.5401 Z15.0000
G1 X19.7815 Y18.5401 Z6.0000 F300.00
G2 X22.1398 Y17.2415 Z6.0000 I0.4692 J-1.9386 F1500.00
G2 X22.1509 Y16.0000 Z6.0000 I-1.8590 J-0.6375 F1500.00
G1 X24.8491 Y16.0000 Z6.0000 F1500.00
G2 X28.6398 Y17.2415 Z6.0000 I1.9017 J0.6015 F1500.00
G2 X28.6509 Y16.0000 Z6.0000 I-1.8590 J-0.6375 F1500.00
G1 X29.0000 Y16.0000 Z6.0000 F1500.00
G1 X29.0000 Y20.5000 Z6.0000 F1500.00
G1 X29.0000 Y20.5000 Z6.0000 F1500.00
G1 X18.0000 Y20.5000 Z6.0000 F1500.00
G1 X18.0000 Y20.5000 Z6.0000 F1500.00
G1 X18.0000 Y16.0000 Z6.0000 F1500.00
G1 X18.0000 Y16.0000 Z6.0000 F1500.00
G1 X18.3491 Y16.0000 Z6.0000 F1500.00
G2 X19.7815 Y18.5401 Z6.0000 I1.9017 J0.6015 F1500.00
G0 X19.7815 Y18.5401 Z15.0000
G0 X19.8986 Y18.0553 Z15.0000
G1 X19.8986 Y18.0553 Z6.0000 F300.00
G3 X19.9259 Y15.1384 Z6.0000 I0.3514 J-1.4553 F1500.00
G3 X20.5741 Y18.0616 Z6.0000 I0.3241 J1.4616 F1500.00
G3 X19.8986 Y18.0553 Z6.0000 I-0.3241 J-1.4616 F1500.00
G0 X19.8986 Y18.0553 Z15.0000
G0 X20.9521 Y19.5000 Z15.0000
G1 X20.9521 Y19.5000 Z6.0000 F300.00
G2 X23.2146 Y17.0000 Z6.0000 I-0.6703 J-2.8805 F1500.00
G1 X23.7854 Y17.0000 Z6.0000 F1500.00
G2 X26.0479 Y19.5000 Z6.0000 I2.9329 J-0.3805 F1500.00
G1 X20.9521 Y19.5000 Z6.0000 F1500.00
G0 X20.9521 Y19.5000 Z15.0000
G0 X20.9521 Y21.0000 Z15.0000
G1 X20.9521 Y21.0000 Z6.0000 F300.00
G1 X17.5000 Y21.0000 Z6.0000 F1500.00
G1 X17.3536 Y21.1464 Z6.0000 F1500.00
G1 X17.5000 Y21.0000 Z6.0000 F1500.00
G1 X17.5000 Y15.5000 Z6.0000 F1500.00
G1 X17.5000 Y15.5000 Z6.0000 F1500.00
G1 X17.3536 Y15.3536 Z6.0000 F1500.00
G1 X17.5000 Y15.5000 Z6.0000 F1500.00
G1 X18.8899 Y15.5000 Z6.0000 F1500.00
G2 X19.4443 Y15.2199 Z6.0000 I-0.1626 J-1.0108 F1500.00
G3 X21.3211 Y15.4080 Z6.0000 I0.8081 J1.3938 F1500.00
G2 X21.6101 Y15.5000 Z6.0000 I0.2891 J-0.4080 F1500.00
G1 X25.3899 Y15.5000 Z6.0000 F1500.00
G2 X25.9443 Y15.2199 Z6.0000 I-0.1626 J-1.0108 F1500.00
G3 X27.3014 Y15.1001 Z6.0000 I0.8057 J1.3801 F1500.00
G3 X27.8211 Y15.4080 Z6.0000 I-0.6051 J1.6139 F1500.00
G2 X28.1101 Y15.5000 Z6.0000 I0.2891 J-0.4080 F1500.00
G1 X29.5000 Y15.5000 Z6.0000 F1500.00
G1 X29.6464 Y15.3536 Z6.0000 F1500.00
G1 X29.5000 Y15.5000 Z6.0000 F1500.00
G1 X29.5000 Y21.0000 Z6.0000 F1500.00
G1 X29.5000 Y21.0000 Z6.0000 F1500.00
G1 X29.6464 Y21.1464 Z6.0000 F1500.00
G1 X29.5000 Y21.0000 Z6.0000 F1500.00
G1 X20.9521 Y21.0000 Z6.0000 F1500.00
G1 X20.9521 Y21.0000 Z6.0000 F1500.00
G0 X20.9521 Y21.0000 Z15.0000
G0 X22.7695 Y19.0000 Z15.0000
G1 X22.7695 Y19.0000 Z6.0000 F300.00
G2 X23.5000 Y17.8774 Z6.0000 I-2.0122 J-2.1084 F1500.00
G2 X24.2305 Y19.0000 Z6.0000 I2.8312 J-1.0433 F1500.00
G1 X22.7695 Y19.0000 Z6.0000 F1500.00
G0 X22.7695 Y19.0000 Z15.0000
G0 X23.3132 Y18.7500 Z15.0000
G1 X23.3132 Y18.7500 Z6.0000 F300.00
G1 X23.5009 Y18.4569 Z6.0000 F1500.00
G2 X23.6855 Y18.7500 Z6.0000 I1.2056 J-0.5544 F1500.00
G1 X23.3132 Y18.7500 Z6.0000 F1500.00
G0 X23.3132 Y18.7500 Z15.0000
G0 X25.4808 Y17.3940 Z15.0000
G1 X25.4808 Y17.3940 Z6.0000 F300.00
G3 X26.2998 Y15.1721 Z6.0000 I1.2692 J-0.7940 F1500.00
G3 X28.1779 Y16.1498 Z6.0000 I0.4502 J1.4279 F1500.00
G3 X27.2002 Y18.0279 Z6.0000 I-1.4279 J0.4502 F1500.00
G3 X25.4808 Y17.3940 Z6.0000 I-0.4502 J-1.4279 F1500.00
G0 X25.4808 Y17.3940 Z15.0000
G0 X27.4521 Y19.5000 Z15.0000
G1 X27.4521 Y19.5000 Z6.0000 F300.00
G2 X28.0000 Y19.3202 Z6.0000 I-0.4091 J-2.1710 F1500.00
G1 X28.0000 Y19.5000 Z6.0000 F1500.00
G1 X27.4521 Y19.5000 Z6.0000 F1500.00
G1 X27.4521 Y19.5000 Z5.0000 F300.00
G2 X28.0000 Y19.3202 Z5.0000 I-0.4091 J-2.1710 F1500.00
G1 X28.0000 Y19.5000 Z5.0000 F1500.00
G1 X27.4521 Y19.5000 Z5.0000 F1500.00
G0 X27.4521 Y19.5000 Z15.0000
G0 X27.3352 Y19.0224 Z15.0000
G1 X27.3352 Y19.0224 Z5.0000 F300.00
G2 X28.5000 Y18.3674 Z5.0000 I-0.5905 J-2.4131 F1500.00
G1 X28.5000 Y20.0000 Z5.0000 F1500.00
G1 X18.5000 Y20.0000 Z5.0000 F1500.00
G1 X18.5000 Y20.0000 Z5.0000 F1500.00
G1 X18.5000 Y18.3674 Z5.0000 F1500.00
G2 X22.7372 Y16.5000 Z5.0000 I1.7552 J-1.7582 F1500.00
G1 X24.2628 Y16.5000 Z5.0000 F1500.00
G2 X27.3352 Y19.0224 Z5.0000 I2.4819 J0.1093 F1500.00
G0 X27.3352 Y19.0224 Z15.0000
G0 X27.2188 Y18.5403 Z15.0000
G1 X27.2188 Y18.5403 Z5.0000 F300.00
G2 X28.6398 Y17.2415 Z5.0000 I-0.4681 J-1.9388 F1500.00
G2 X28.6509 Y16.0000 Z5.0000 I-1.8590 J-0.6375 F1500.00
G1 X29.0000 Y16.0000 Z5.0000 F1500.00
G1 X29.0000 Y20.5000 Z5.0000 F1500.00
G1 X29.0000 Y20.5000 Z5.0000 F1500.00
G1 X18.0000 Y20.5000 Z5.0000 F1500.00
G1 X18.0000 Y20.5000 Z5.0000 F1500.00
G1 X18.0000 Y16.0000 Z5.0000 F1500.00
G1 X18.0000 Y16.0000 Z5.0000 F1500.00
G1 X18.3491 Y16.0000 Z5.0000 F1500.00
G2 X22.1398 Y17.2415 Z5.0000 I1.9017 J0.6015 F1500.00
G2 X22.1509 Y16.0000 Z5.0000 I-1.8590 J-0.6375 F1500.00
G1 X24.8491 Y16.0000 Z5.0000 F1500.00
G2 X27.2188 Y18.5403 Z5.0000 I1.9017 J0.6015 F1500.00
G0 X27.2188 Y18.5403 Z15.0000
G0 X27.1016 Y18.0553 Z15.0000
G1 X27.1016 Y18.0553 Z5.0000 F300.00
G3 X26.2998 Y15.1721 Z5.0000 I-0.3516 J-1.4553 F1500.00
G3 X28.1779 Y16.1498 Z5.0000 I0.4502 J1.4279 F1500.00
G3 X27.2002 Y18.0279 Z5.0000 I-1.4279 J0.4502 F1500.00
G3 X27.1016 Y18.0553 Z5.0000 I-0.4502 J-1.4279 F1500.00
G0 X27.1016 Y18.0553 Z15.0000
G0 X26.0479 Y19.5000 Z15.0000
G1 X26.0479 Y19.5000 Z5.0000 F300.00
G1 X20.9521 Y19.5000 Z5.0000 F1500.00
G2 X23.2146 Y17.0000 Z5.0000 I-0.6703 J-2.8805 F1500.00
G1 X23.7854 Y17.0000 Z5.0000 F1500.00
G2 X26.0479 Y19.5000 Z5.0000 I2.9329 J-0.3805 F1500.00
G0 X26.0479 Y19.5000 Z15.0000
G0 X26.0479 Y21.0000 Z15.0000
G1 X26.0479 Y21.0000 Z5.0000 F300.00
G1 X17.5000 Y21.0000 Z5.0000 F1500.00
G1 X17.3536 Y21.1464 Z5.0000 F1500.00
G1 X17.5000 Y21.0000 Z5.0000 F1500.00
G1 X17.5000 Y15.5000 Z5.0000 F1500.00
G1 X17.5000 Y15.5000 Z5.0000 F1500.00
G1 X17.3536 Y15.3536 Z5.0000 F1500.00
G1 X17.5000 Y15.5000 Z5.0000 F1500.00
G1 X18.8899 Y15.5000 Z5.0000 F1500.00
G2 X19.4443 Y15.2199 Z5.0000 I-0.1626 J-1.0108 F1500.00
G3 X21.3211 Y15.4080 Z5.0000 I0.8081 J1.3938 F1500.00
G2 X21.6101 Y15.5000 Z5.0000 I0.2891 J-0.4080 F1500.00
G1 X25.3899 Y15.5000 Z5.0000 F1500.00
G2 X25.9443 Y15.2199 Z5.0000 I-0.1626 J-1.0108 F1500.00
G3 X27.3014 Y15.1001 Z5.0000 I0.8057 J1.3801 F1500.00
G3 X27.8211 Y15.4080 Z5.0000 I-0.6051 J1.6139 F1500.00
G2 X28.1101 Y15.5000 Z5.0000 I0.2891 J-0.4080 F1500.00
G1 X29.5000 Y15.5000 Z5.0000 F1500.00
G1 X29.6464 Y15.3536 Z5.0000 F1500.00
G1 X29.5000 Y15.5000 Z5.0000 F1500.00
G1 X29.5000 Y21.0000 Z5.0000 F1500.00
G1 X29.5000 Y21.0000 Z5.0000 F1500.00
G1 X29.6464 Y21.1464 Z5.0000 F1500.00
G1 X29.5000 Y21.0000 Z5.0000 F1500.00
G1 X26.0479 Y21.0000 Z5.0000 F1500.00
G1 X26.0479 Y21.0000 Z5.0000 F1500.00
G0 X26.0479 Y21.0000 Z15.0000
G0 X24.2305 Y19.0000 Z15.0000
G1 X24.2305 Y19.0000 Z5.0000 F300.00
G1 X22.7695 Y19.0000 Z5.0000 F1500.00
G2 X23.5000 Y17.8774 Z5.0000 I-2.0122 J-2.1084 F1500.00
G2 X24.2305 Y19.0000 Z5.0000 I2.8312 J-1.0433 F1500.00
G0 X24.2305 Y19.0000 Z15.0000
G0 X23.6855 Y18.7500 Z15.0000
G1 X23.6855 Y18.7500 Z5.0000 F300.00
G1 X23.3132 Y18.7500 Z5.0000 F1500.00
G1 X23.5009 Y18.4569 Z5.0000 F1500.00
G2 X23.6855 Y18.7500 Z5.0000 I1.2056 J-0.5544 F1500.00
G0 X23.6855 Y18.7500 Z15.0000
G0 X21.5191 Y17.3942 Z15.0000
G1 X21.5191 Y17.3942 Z5.0000 F300.00
G3 X20.5741 Y18.0616 Z5.0000 I-1.2691 J-0.7942 F1500.00
G3 X18.7884 Y16.9241 Z5.0000 I-0.3241 J-1.4616 F1500.00
G3 X19.9259 Y15.1384 Z5.0000 I1.4616 J-0.3241 F1500.00
G3 X21.5191 Y17.3942 Z5.0000 I0.3241 J1.4616 F1500.00
G0 X21.5191 Y17.3942 Z15.0000
G0 X19.5479 Y19.5000 Z15.0000
G1 X19.5479 Y19.5000 Z5.0000 F300.00
G1 X19.0000 Y19.5000 Z5.0000 F1500.00
G1 X19.0000 Y19.3202 Z5.0000 F1500.00
G2 X19.5479 Y19.5000 Z5.0000 I0.9570 J-1.9911 F1500.00
G1 X19.5479 Y19.5000 Z4.0000 F300.00
G1 X19.0000 Y19.5000 Z4.0000 F1500.00
G1 X19.0000 Y19.3202 Z4.0000 F1500.00
G2 X19.5479 Y19.5000 Z4.0000 I0.9570 J-1.9911 F1500.00
G0 X19.5479 Y19.5000 Z15.0000
G0 X19.6648 Y19.0223 Z15.0000
G1 X19.6648 Y19.0223 Z4.0000 F300.00
G2 X22.7372 Y16.5000 Z4.0000 I0.5904 J-2.4132 F1500.00
G1 X24.2628 Y16.5000 Z4.0000 F1500.00
G2 X28.5000 Y18.3674 Z4.0000 I2.4819 J0.1093 F1500.00
G1 X28.5000 Y20.0000 Z4.0000 F1500.00
G1 X18.5000 Y20.0000 Z4.0000 F1500.00
G1 X18.5000 Y20.0000 Z4.0000 F1500.00
G1 X18.5000 Y18.3674 Z4.0000 F1500.00
G2 X19.6648 Y19.0223 Z4.0000 I1.7552 J-1.7582 F1500.00
G0 X19.6648 Y19.0223 Z15.0000
G0 X19.7815 Y18.5401 Z15.0000
G1 X19.7815 Y18.5401 Z4.0000 F300.00
G2 X22.1398 Y17.2415 Z4.0000 I0.4692 J-1.9386 F1500.00
G2 X22.1509 Y16.0000 Z4.0000 I-1.8590 J-0.6375 F1500.00
G1 X24.8491 Y16.0000 Z4.0000 F1500.00
G2 X28.6398 Y17.2415 Z4.0000 I1.9017 J0.6015 F1500.00
G2 X28.6509 Y16.0000 Z4.0000 I-1.8590 J-0.6375 F1500.00
G1 X29.0000 Y16.0000 Z4.0000 F1500.00
G1 X29.0000 Y20.5000 Z4.0000 F1500.00
G1 X29.0000 Y20.5000 Z4.0000 F1500.00
G1 X18.0000 Y20.5000 Z4.0000 F1500.00
G1 X18.0000 Y20.5000 Z4.0000 F1500.00
G1 X18.0000 Y16.0000 Z4.0000 F1500.00
G1 X18.0000 Y16.0000 Z4.0000 F1500.00
G1 X18.3491 Y16.0000 Z4.0000 F1500.00
G2 X19.7815 Y18.5401 Z4.0000 I1.9017 J0.6015 F1500.00
G0 X19.7815 Y18.5401 Z15.0000
G0 X19.8986 Y18.0553 Z15.0000
G1 X19.8986 Y18.0553 Z4.0000 F300.00
G3 X19.9259 Y15.1384 Z4.0000 I0.3514 J-1.4553 F1500.00
G3 X20.5741 Y18.0616 Z4.0000 I0.3241 J1.4616 F1500.00
G3 X19.8986 Y18.0553 Z4.0000 I-0.3241 J-1.4616 F1500.00
G0 X19.8986 Y18.0553 Z15.0000
G0 X20.9521 Y19.5000 Z15.0000
G1 X20.9521 Y19.5000 Z4.0000 F300.00
G2 X23.2146 Y17.0000 Z4.0000 I-0.6703 J-2.8805 F1500.00
G1 X23.7854 Y17.0000 Z4.0000 F1500.00
G2 X26.0479 Y19.5000 Z4.0000 I2.9329 J-0.3805 F1500.00
G1 X20.9521 Y19.5000 Z4.0000 F1500.00
G0 X20.9521 Y19.5000 Z15.0000
G0 X20.9521 Y21.0000 Z15.0000
G1 X20.9521 Y21.0000 Z4.0000 F300.00
G1 X17.5000 Y21.0000 Z4.0000 F1500.00
G1 X17.3536 Y21.1464 Z4.0000 F1500.00
G1 X17.5000 Y21.0000 Z4.0000 F1500.00
G1 X17.5000 Y15.5000 Z4.0000 F1500.00
G1 X17.5000 Y15.5000 Z4.0000 F1500.00
G1 X17.3536 Y15.3536 Z4.0000 F1500.00
G1 X17.5000 Y15.5000 Z4.0000 F1500.00
G1 X18.8899 Y15.5000 Z4.0000 F1500.00
G2 X19.4443 Y15.2199 Z4.0000 I-0.1626 J-1.0108 F1500.00
G3 X21.3211 Y15.4080 Z4.0000 I0.8081 J1.3938 F1500.00
G2 X21.6101 Y15.5000 Z4.0000 I0.2891 J-0.4080 F1500.00
G1 X25.3899 Y15.5000 Z4.0000 F1500.00
G2 X25.9443 Y15.2199 Z4.0000 I-0.1626 J-1.0108 F1500.00
G3 X27.3014 Y15.1001 Z4.0000 I0.8057 J1.3801 F1500.00
G3 X27.8211 Y15.4080 Z4.0000 I-0.6051 J1.6139 F1500.00
G2 X28.1101 Y15.5000 Z4.0000 I0.2891 J-0.4080 F1500.00
G1 X29.5000 Y15.5000 Z4.0000 F1500.00
G1 X29.6464 Y15.3536 Z4.0000 F1500.00
G1 X29.5000 Y15.5000 Z4.0000 F1500.00
G1 X29.5000 Y21.0000 Z4.0000 F1500.00
G1 X29.5000 Y21.0000 Z4.0000 F1500.00
G1 X29.6464 Y21.1464 Z4.0000 F1500.00
G1 X29.5000 Y21.0000 Z4.0000 F1500.00
G1 X20.9521 Y21.0000 Z4.0000 F1500.00
G1 X20.9521 Y21.0000 Z4.0000 F1500.00
G0 X20.9521 Y21.0000 Z15.0000
G0 X22.7695 Y19.0000 Z15.0000
G1 X22.7695 Y19.0000 Z4.0000 F300.00
G2 X23.5000 Y17.8774 Z4.0000 I-2.0122 J-2.1084 F1500.00
G2 X24.2305 Y19.0000 Z4.0000 I2.8312 J-1.0433 F1500.00
G1 X22.7695 Y19.0000 Z4.0000 F1500.00
G0 X22.7695 Y19.0000 Z15.0000
G0 X23.3132 Y18.7500 Z15.0000
G1 X23.3132 Y18.7500 Z4.0000 F300.00
G1 X23.5009 Y18.4569 Z4.0000 F1500.00
G2 X23.6855 Y18.7500 Z4.0000 I1.2056 J-0.5544 F1500.00
G1 X23.3132 Y18.7500 Z4.0000 F1500.00
G0 X23.3132 Y18.7500 Z15.0000
G0 X25.4808 Y17.3940 Z15.0000
G1 X25.4808 Y17.3940 Z4.0000 F300.00
G3 X26.2998 Y15.1721 Z4.0000 I1.2692 J-0.7940 F1500.00
G3 X28.1779 Y16.1498 Z4.0000 I0.4502 J1.4279 F1500.00
G3 X27.2002 Y18.0279 Z4.0000 I-1.4279 J0.4502 F1500.00
G3 X25.4808 Y17.3940 Z4.0000 I-0.4502 J-1.4279 F1500.00
G0 X25.4808 Y17.3940 Z15.0000
G0 X27.4521 Y19.5000 Z15.0000
G1 X27.4521 Y19.5000 Z4.0000 F300.00
G2 X28.0000 Y19.3202 Z4.0000 I-0.4091 J-2.1710 F1500.00
G1 X28.0000 Y19.5000 Z4.0000 F1500.00
G1 X27.4521 Y19.5000 Z4.0000 F1500.00
G0 Z15.0000
(finish operation: SwitchBed)
(begin operation: WashBed)
(Path: WashBed)
(WashBed)
(helix cut operation)
G0 Z15.0000
G0 X7.9500 Y10.0000
G0 Z13.0000
G1 Z10.0000 F300.00
G2 X7.0500 Y10.0000 Z9.5833 I-0.4500 J0.0000 F1500.00
G2 X7.9500 Y10.0000 Z9.1667 I0.4500 J0.0000 F1500.00
G2 X7.0500 Y10.0000 Z8.7500 I-0.4500 J0.0000 F1500.00
G2 X7.9500 Y10.0000 Z8.3333 I0.4500 J0.0000 F1500.00
G2 X7.0500 Y10.0000 Z7.9167 I-0.4500 J0.0000 F1500.00
G2 X7.9500 Y10.0000 Z7.5000 I0.4500 J0.0000 F1500.00
G2 X7.0500 Y10.0000 Z7.5000 I-0.4500 J0.0000 F1500.00
G2 X7.9500 Y10.0000 Z7.5000 I0.4500 J0.0000 F1500.00
G0 Z13.0000
G0 X8.8250 Y10.0000
G0 Z13.0000
G1 Z10.0000 F300.00
G2 X6.1750 Y10.0000 Z9.5833 I-1.3250 J0.0000 F1500.00
G2 X8.8250 Y10.0000 Z9.1667 I1.3250 J0.0000 F1500.00
G2 X6.1750 Y10.0000 Z8.7500 I-1.3250 J0.0000 F1500.00
G2 X8.8250 Y10.0000 Z8.3333 I1.3250 J0.0000 F1500.00
G2 X6.1750 Y10.0000 Z7.9167 I-1.3250 J0.0000 F1500.00
G2 X8.8250 Y10.0000 Z7.5000 I1.3250 J0.0000 F1500.00
G2 X6.1750 Y10.0000 Z7.5000 I-1.3250 J0.0000 F1500.00
G2 X8.8250 Y10.0000 Z7.5000 I1.3250 J0.0000 F1500.00
G0 Z13.0000
G0 X9.7000 Y10.0000
G0 Z13.0000
G1 Z10.0000 F300.00
G2 X5.3000 Y10.0000 Z9.5833 I-2.2000 J0.0000 F1500.00
G2 X9.7000 Y10.0000 Z9.1667 I2.2000 J0.0000 F1500.00
G2 X5.3000 Y10.0000 Z8.7500 I-2.2000 J0.0000 F1500.00
G2 X9.7000 Y10.0000 Z8.3333 I2.2000 J0.0000 F1500.00
G2 X5.3000 Y10.0000 Z7.9167 I-2.2000 J0.0000 F1500.00
G2 X9.7000 Y10.0000 Z7.5000 I2.2000 J0.0000 F1500.00
G2 X5.3000 Y10.0000 Z7.5000 I-2.2000 J0.0000 F1500.00
G2 X9.7000 Y10.0000 Z7.5000 I2.2000 J0.0000 F1500.00
G0 Z13.0000
G0 X10.5750 Y10.0000
G0 Z13.0000
G1 Z10.0000 F300.00
G2 X4.4250 Y10.0000 Z9.5833 I-3.0750 J0.0000 F1500.00
G2 X10.5750 Y10.0000 Z9.1667 I3.0750 J0.0000 F1500.00
G2 X4.4250 Y10.0000 Z8.7500 I-3.0750 J0.0000 F1500.00
G2 X10.5750 Y10.0000 Z8.3333 I3.0750 J0.0000 F1500.00
G2 X4.4250 Y10.0000 Z7.9167 I-3.0750 J0.0000 F1500.00
G2 X10.5750 Y10.0000 Z7.5000 I3.0750 J0.0000 F1500.00
G2 X4.4250 Y10.0000 Z7.5000 I-3.0750 J0.0000 F1500.00
G2 X10.5750 Y10.0000 Z7.5000 I3.0750 J0.0000 F1500.00
G0 Z13.0000
G0 X11.4500 Y10.0000
G0 Z13.0000
G1 Z10.0000 F300.00
G2 X3.5500 Y10.0000 Z9.5833 I-3.9500 J0.0000 F1500.00
G2 X11.4500 Y10.0000 Z9.1667 I3.9500 J0.0000 F1500.00
G2 X3.5500 Y10.0000 Z8.7500 I-3.9500 J0.0000 F1500.00
G2 X11.4500 Y10.0000 Z8.3333 I3.9500 J0.0000 F1500.00
G2 X3.5500 Y10.0000 Z7.9167 I-3.9500 J0.0000 F1500.00
G2 X11.4500 Y10.0000 Z7.5000 I3.9500 J0.0000 F1500.00
G2 X3.5500 Y10.0000 Z7.5000 I-3.9500 J0.0000 F1500.00
G2 X11.4500 Y10.0000 Z7.5000 I3.9500 J0.0000 F1500.00
G0 Z13.0000
G0 X12.3250 Y10.0000
G0 Z13.0000
G1 Z10.0000 F300.00
G2 X2.6750 Y10.0000 Z9.5833 I-4.8250 J0.0000 F1500.00
G2 X12.3250 Y10.0000 Z9.1667 I4.8250 J0.0000 F1500.00
G2 X2.6750 Y10.0000 Z8.7500 I-4.8250 J0.0000 F1500.00
G2 X12.3250 Y10.0000 Z8.3333 I4.8250 J0.0000 F1500.00
G2 X2.6750 Y10.0000 Z7.9167 I-4.8250 J0.0000 F1500.00
G2 X12.3250 Y10.0000 Z7.5000 I4.8250 J0.0000 F1500.00
G2 X2.6750 Y10.0000 Z7.5000 I-4.8250 J0.0000 F1500.00
G2 X12.3250 Y10.0000 Z7.5000 I4.8250 J0.0000 F1500.00
G0 Z13.0000
G0 X13.2000 Y10.0000
G0 Z13.0000
G1 Z10.0000 F300.00
G2 X1.8000 Y10.0000 Z9.5833 I-5.7000 J0.0000 F1500.00
G2 X13.2000 Y10.0000 Z9.1667 I5.7000 J0.0000 F1500.00
G2 X1.8000 Y10.0000 Z8.7500 I-5.7000 J0.0000 F1500.00
G2 X13.2000 Y10.0000 Z8.3333 I5.7000 J0.0000 F1500.00
G2 X1.8000 Y10.0000 Z7.9167 I-5.7000 J0.0000 F1500.00
G2 X13.2000 Y10.0000 Z7.5000 I5.7000 J0.0000 F1500.00
G2 X1.8000 Y10.0000 Z7.5000 I-5.7000 J0.0000 F1500.00
G2 X13.2000 Y10.0000 Z7.5000 I5.7000 J0.0000 F1500.00
G0 Z13.0000
G0 Z15.0000
(finish operation: WashBed)
(begin operation: BoltHole)
(Path: BoltHole)
(BoltHole)
(helix cut operation)
G0 Z15.0000
G0 X8.0000 Y10.0000
G0 Z13.0000
G1 Z7.0000 F300.00
G2 X7.0000 Y10.0000 Z6.5000 I-0.5000 J0.0000 F1500.00
G2 X8.0000 Y10.0000 Z6.0000 I0.5000 J0.0000 F1500.00
G2 X7.0000 Y10.0000 Z5.5000 I-0.5000 J0.0000 F1500.00
G2 X8.0000 Y10.0000 Z5.0000 I0.5000 J0.0000 F1500.00
G2 X7.0000 Y10.0000 Z4.5000 I-0.5000 J0.0000 F1500.00
G2 X8.0000 Y10.0000 Z4.0000 I0.5000 J0.0000 F1500.00
G2 X7.0000 Y10.0000 Z3.5000 I-0.5000 J0.0000 F1500.00
G2 X8.0000 Y10.0000 Z3.0000 I0.5000 J0.0000 F1500.00
G2 X7.0000 Y10.0000 Z2.5000 I-0.5000 J0.0000 F1500.00
G2 X8.0000 Y10.0000 Z2.0000 I0.5000 J0.0000 F1500.00
G2 X7.0000 Y10.0000 Z1.5000 I-0.5000 J0.0000 F1500.00
G2 X8.0000 Y10.0000 Z1.0000 I0.5000 J0.0000 F1500.00
G2 X7.0000 Y10.0000 Z0.5000 I-0.5000 J0.0000 F1500.00
G2 X8.0000 Y10.0000 Z0.0000 I0.5000 J0.0000 F1500.00
G2 X7.0000 Y10.0000 Z0.0000 I-0.5000 J0.0000 F1500.00
G2 X8.0000 Y10.0000 Z0.0000 I0.5000 J0.0000 F1500.00
G0 Z13.0000
G0 X8.7750 Y10.0000
G0 Z13.0000
G1 Z7.0000 F300.00
G2 X6.2250 Y10.0000 Z6.5000 I-1.2750 J0.0000 F1500.00
G2 X8.7750 Y10.0000 Z6.0000 I1.2750 J0.0000 F1500.00
G2 X6.2250 Y10.0000 Z5.5000 I-1.2750 J0.0000 F1500.00
G2 X8.7750 Y10.0000 Z5.0000 I1.2750 J0.0000 F1500.00
G2 X6.2250 Y10.0000 Z4.5000 I-1.2750 J0.0000 F1500.00
G2 X8.7750 Y10.0000 Z4.0000 I1.2750 J0.0000 F1500.00
G2 X6.2250 Y10.0000 Z3.5000 I-1.2750 J0.0000 F1500.00
G2 X8.7750 Y10.0000 Z3.0000 I1.2750 J0.0000 F1500.00
G2 X6.2250 Y10.0000 Z2.5000 I-1.2750 J0.0000 F1500.00
G2 X8.7750 Y10.0000 Z2.0000 I1.2750 J0.0000 F1500.00
G2 X6.2250 Y10.0000 Z1.5000 I-1.2750 J0.0000 F1500.00
G2 X8.7750 Y10.0000 Z1.0000 I1.2750 J0.0000 F1500.00
G2 X6.2250 Y10.0000 Z0.5000 I-1.2750 J0.0000 F1500.00
G2 X8.7750 Y10.0000 Z0.0000 I1.2750 J0.0000 F1500.00
G2 X6.2250 Y10.0000 Z0.0000 I-1.2750 J0.0000 F1500.00
G2 X8.7750 Y10.0000 Z0.0000 I1.2750 J0.0000 F1500.00
G0 Z13.0000
G0 X9.5500 Y10.0000
G0 Z13.0000
G1 Z7.0000 F300.00
G2 X5.4500 Y10.0000 Z6.5000 I-2.0500 J0.0000 F1500.00
G2 X9.5500 Y10.0000 Z6.0000 I2.0500 J0.0000 F1500.00
G2 X5.4500 Y10.0000 Z5.5000 I-2.0500 J0.0000 F1500.00
G2 X9.5500 Y10.0000 Z5.0000 I2.0500 J0.0000 F1500.00
G2 X5.4500 Y10.0000 Z4.5000 I-2.0500 J0.0000 F1500.00
G2 X9.5500 Y10.0000 Z4.0000 I2.0500 J0.0000 F1500.00
G2 X5.4500 Y10.0000 Z3.5000 I-2.0500 J0.0000 F1500.00
G2 X9.5500 Y10.0000 Z3.0000 I2.0500 J0.0000 F1500.00
G2 X5.4500 Y10.0000 Z2.5000 I-2.0500 J0.0000 F1500.00
G2 X9.5500 Y10.0000 Z2.0000 I2.0500 J0.0000 F1500.00
G2 X5.4500 Y10.0000 Z1.5000 I-2.0500 J0.0000 F1500.00
G2 X9.5500 Y10.0000 Z1.0000 I2.0500 J0.0000 F1500.00
G2 X5.4500 Y10.0000 Z0.5000 I-2.0500 J0.0000 F1500.00
G2 X9.5500 Y10.0000 Z0.0000 I2.0500 J0.0000 F1500.00
G2 X5.4500 Y10.0000 Z0.0000 I-2.0500 J0.0000 F1500.00
G2 X9.5500 Y10.0000 Z0.0000 I2.0500 J0.0000 F1500.00
G0 Z13.0000
G0 Z15.0000
(finish operation: BoltHole)
(begin operation: Interior Contour)
(Path: Interior Contour)
(Contour003)
(Compensated Tool Path. Diameter: 1.0)
G0 Z15.0000
G0 X32.3536 Y21.8536
G0 Z13.0000
G1 X32.3536 Y21.8536 Z9.0000 F300.00
G2 X32.5000 Y21.5000 Z9.0000 I-0.3536 J-0.3536 F1500.00
G1 X32.5000 Y0.0000 Z9.0000 F1500.00
G2 X32.0000 Y-0.5000 Z9.0000 I-0.5000 J0.0000 F1500.00
G1 X0.0000 Y-0.5000 Z9.0000 F1500.00
G2 X-0.5000 Y0.0000 Z9.0000 I0.0000 J0.5000 F1500.00
G1 X-0.5000 Y20.0000 Z9.0000 F1500.00
G2 X0.0000 Y20.5000 Z9.0000 I0.5000 J0.0000 F1500.00
G1 X14.5000 Y20.5000 Z9.0000 F1500.00
G1 X14.5000 Y21.5000 Z9.0000 F1500.00
G2 X15.0000 Y22.0000 Z9.0000 I0.5000 J0.0000 F1500.00
G1 X32.0000 Y22.0000 Z9.0000 F1500.00
G2 X32.3536 Y21.8536 Z9.0000 I0.0000 J-0.5000 F1500.00
G1 X32.3536 Y21.8536 Z8.0000 F300.00
G2 X32.5000 Y21.5000 Z8.0000 I-0.3536 J-0.3536 F1500.00
G1 X32.5000 Y0.0000 Z8.0000 F1500.00
G2 X32.0000 Y-0.5000 Z8.0000 I-0.5000 J0.0000 F1500.00
G1 X0.0000 Y-0.5000 Z8.0000 F1500.00
G2 X-0.5000 Y0.0000 Z8.0000 I0.0000 J0.5000 F1500.00
G1 X-0.5000 Y20.0000 Z8.0000 F1500.00
G2 X0.0000 Y20.5000 Z8.0000 I0.5000 J0.0000 F1500.00
G1 X14.5000 Y20.5000 Z8.0000 F1500.00
G1 X14.5000 Y21.5000 Z8.0000 F1500.00
G2 X15.0000 Y22.0000 Z8.0000 I0.5000 J0.0000 F1500.00
G1 X32.0000 Y22.0000 Z8.0000 F1500.00
G2 X32.3536 Y21.8536 Z8.0000 I0.0000 J-0.5000 F1500.00
G1 X32.3536 Y21.8536 Z7.0000 F300.00
G2 X32.5000 Y21.5000 Z7.0000 I-0.3536 J-0.3536 F1500.00
G1 X32.5000 Y0.0000 Z7.0000 F1500.00
G2 X32.0000 Y-0.5000 Z7.0000 I-0.5000 J0.0000 F1500.00
G1 X0.0000 Y-0.5000 Z7.0000 F1500.00
G2 X-0.5000 Y0.0000 Z7.0000 I0.0000 J0.5000 F1500.00
G1 X-0.5000 Y20.0000 Z7.0000 F1500.00
G2 X0.0000 Y20.5000 Z7.0000 I0.5000 J0.0000 F1500.00
G1 X14.5000 Y20.5000 Z7.0000 F1500.00
G1 X14.5000 Y21.5000 Z7.0000 F1500.00
G2 X15.0000 Y22.0000 Z7.0000 I0.5000 J0.0000 F1500.00
G1 X32.0000 Y22.0000 Z7.0000 F1500.00
G2 X32.3536 Y21.8536 Z7.0000 I0.0000 J-0.5000 F1500.00
G1 X32.3536 Y21.8536 Z6.0000 F300.00
G2 X32.5000 Y21.5000 Z6.0000 I-0.3536 J-0.3536 F1500.00
G1 X32.5000 Y0.0000 Z6.0000 F1500.00
G2 X32.0000 Y-0.5000 Z6.0000 I-0.5000 J0.0000 F1500.00
G1 X0.0000 Y-0.5000 Z6.0000 F1500.00
G2 X-0.5000 Y0.0000 Z6.0000 I0.0000 J0.5000 F1500.00
G1 X-0.5000 Y20.0000 Z6.0000 F1500.00
G2 X0.0000 Y20.5000 Z6.0000 I0.5000 J0.0000 F1500.00
G1 X14.5000 Y20.5000 Z6.0000 F1500.00
G1 X14.5000 Y21.5000 Z6.0000 F1500.00
G2 X15.0000 Y22.0000 Z6.0000 I0.5000 J0.0000 F1500.00
G1 X32.0000 Y22.0000 Z6.0000 F1500.00
G2 X32.3536 Y21.8536 Z6.0000 I0.0000 J-0.5000 F1500.00
G1 X32.3536 Y21.8536 Z5.0000 F300.00
G2 X32.5000 Y21.5000 Z5.0000 I-0.3536 J-0.3536 F1500.00
G1 X32.5000 Y0.0000 Z5.0000 F1500.00
G2 X32.0000 Y-0.5000 Z5.0000 I-0.5000 J0.0000 F1500.00
G1 X0.0000 Y-0.5000 Z5.0000 F1500.00
G2 X-0.5000 Y0.0000 Z5.0000 I0.0000 J0.5000 F1500.00
G1 X-0.5000 Y20.0000 Z5.0000 F1500.00
G2 X0.0000 Y20.5000 Z5.0000 I0.5000 J0.0000 F1500.00
G1 X14.5000 Y20.5000 Z5.0000 F1500.00
G1 X14.5000 Y21.5000 Z5.0000 F1500.00
G2 X15.0000 Y22.0000 Z5.0000 I0.5000 J0.0000 F1500.00
G1 X32.0000 Y22.0000 Z5.0000 F1500.00
G2 X32.3536 Y21.8536 Z5.0000 I0.0000 J-0.5000 F1500.00
G1 X32.3536 Y21.8536 Z4.0000 F300.00
G2 X32.5000 Y21.5000 Z4.0000 I-0.3536 J-0.3536 F1500.00
G1 X32.5000 Y0.0000 Z4.0000 F1500.00
G2 X32.0000 Y-0.5000 Z4.0000 I-0.5000 J0.0000 F1500.00
G1 X0.0000 Y-0.5000 Z4.0000 F1500.00
G2 X-0.5000 Y0.0000 Z4.0000 I0.0000 J0.5000 F1500.00
G1 X-0.5000 Y20.0000 Z4.0000 F1500.00
G2 X0.0000 Y20.5000 Z4.0000 I0.5000 J0.0000 F1500.00
G1 X14.5000 Y20.5000 Z4.0000 F1500.00
G1 X14.5000 Y21.5000 Z4.0000 F1500.00
G2 X15.0000 Y22.0000 Z4.0000 I0.5000 J0.0000 F1500.00
G1 X32.0000 Y22.0000 Z4.0000 F1500.00
G2 X32.3536 Y21.8536 Z4.0000 I0.0000 J-0.5000 F1500.00
G1 X32.3536 Y21.8536 Z3.0000 F300.00
G2 X32.5000 Y21.5000 Z3.0000 I-0.3536 J-0.3536 F1500.00
G1 X32.5000 Y0.0000 Z3.0000 F1500.00
G2 X32.0000 Y-0.5000 Z3.0000 I-0.5000 J0.0000 F1500.00
G1 X0.0000 Y-0.5000 Z3.0000 F1500.00
G2 X-0.5000 Y0.0000 Z3.0000 I0.0000 J0.5000 F1500.00
G1 X-0.5000 Y20.0000 Z3.0000 F1500.00
G2 X0.0000 Y20.5000 Z3.0000 I0.5000 J0.0000 F1500.00
G1 X14.5000 Y20.5000 Z3.0000 F1500.00
G1 X14.5000 Y21.5000 Z3.0000 F1500.00
G2 X15.0000 Y22.0000 Z3.0000 I0.5000 J0.0000 F1500.00
G1 X32.0000 Y22.0000 Z3.0000 F1500.00
G2 X32.3536 Y21.8536 Z3.0000 I0.0000 J-0.5000 F1500.00
G0 Z15.0000
(finish operation: Interior Contour)
(begin operation: Exterior Contour)
(Path: Exterior Contour)
(Contour004)
(Compensated Tool Path. Diameter: 1.0)
G0 Z15.0000
G0 X33.0607 Y22.5607
G0 Z13.0000
G1 X33.0607 Y22.5607 Z9.0000 F300.00
G2 X33.5000 Y21.5000 Z9.0000 I-1.0607 J-1.0607 F1500.00
G1 X33.5000 Y0.0000 Z9.0000 F1500.00
G2 X32.0000 Y-1.5000 Z9.0000 I-1.5000 J0.0000 F1500.00
G1 X0.0000 Y-1.5000 Z9.0000 F1500.00
G2 X-1.5000 Y0.0000 Z9.0000 I0.0000 J1.5000 F1500.00
G1 X-1.5000 Y20.0000 Z9.0000 F1500.00
G2 X0.0000 Y21.5000 Z9.0000 I1.5000 J0.0000 F1500.00
G1 X13.5000 Y21.5000 Z9.0000 F1500.00
G2 X15.0000 Y23.0000 Z9.0000 I1.5000 J0.0000 F1500.00
G1 X32.0000 Y23.0000 Z9.0000 F1500.00
G2 X33.0607 Y22.5607 Z9.0000 I0.0000 J-1.5000 F1500.00
G1 X33.0607 Y22.5607 Z8.0000 F300.00
G2 X33.5000 Y21.5000 Z8.0000 I-1.0607 J-1.0607 F1500.00
G1 X33.5000 Y0.0000 Z8.0000 F1500.00
G2 X32.0000 Y-1.5000 Z8.0000 I-1.5000 J0.0000 F1500.00
G1 X0.0000 Y-1.5000 Z8.0000 F1500.00
G2 X-1.5000 Y0.0000 Z8.0000 I0.0000 J1.5000 F1500.00
G1 X-1.5000 Y20.0000 Z8.0000 F1500.00
G2 X0.0000 Y21.5000 Z8.0000 I1.5000 J0.0000 F1500.00
G1 X13.5000 Y21.5000 Z8.0000 F1500.00
G2 X15.0000 Y23.0000 Z8.0000 I1.5000 J0.0000 F1500.00
G1 X32.0000 Y23.0000 Z8.0000 F1500.00
G2 X33.0607 Y22.5607 Z8.0000 I0.0000 J-1.5000 F1500.00
G1 X33.0607 Y22.5607 Z7.0000 F300.00
G2 X33.5000 Y21.5000 Z7.0000 I-1.0607 J-1.0607 F1500.00
G1 X33.5000 Y0.0000 Z7.0000 F1500.00
G2 X32.0000 Y-1.5000 Z7.0000 I-1.5000 J0.0000 F1500.00
G1 X0.0000 Y-1.5000 Z7.0000 F1500.00
G2 X-1.5000 Y0.0000 Z7.0000 I0.0000 J1.5000 F1500.00
G1 X-1.5000 Y20.0000 Z7.0000 F1500.00
G2 X0.0000 Y21.5000 Z7.0000 I1.5000 J0.0000 F1500.00
G1 X13.5000 Y21.5000 Z7.0000 F1500.00
G2 X15.0000 Y23.0000 Z7.0000 I1.5000 J0.0000 F1500.00
G1 X32.0000 Y23.0000 Z7.0000 F1500.00
G2 X33.0607 Y22.5607 Z7.0000 I0.0000 J-1.5000 F1500.00
G1 X33.0607 Y22.5607 Z6.0000 F300.00
G2 X33.5000 Y21.5000 Z6.0000 I-1.0607 J-1.0607 F1500.00
G1 X33.5000 Y0.0000 Z6.0000 F1500.00
G2 X32.0000 Y-1.5000 Z6.0000 I-1.5000 J0.0000 F1500.00
G1 X0.0000 Y-1.5000 Z6.0000 F1500.00
G2 X-1.5000 Y0.0000 Z6.0000 I0.0000 J1.5000 F1500.00
G1 X-1.5000 Y20.0000 Z6.0000 F1500.00
G2 X0.0000 Y21.5000 Z6.0000 I1.5000 J0.0000 F1500.00
G1 X13.5000 Y21.5000 Z6.0000 F1500.00
G2 X15.0000 Y23.0000 Z6.0000 I1.5000 J0.0000 F1500.00
G1 X32.0000 Y23.0000 Z6.0000 F1500.00
G2 X33.0607 Y22.5607 Z6.0000 I0.0000 J-1.5000 F1500.00
G1 X33.0607 Y22.5607 Z5.0000 F300.00
G2 X33.5000 Y21.5000 Z5.0000 I-1.0607 J-1.0607 F1500.00
G1 X33.5000 Y0.0000 Z5.0000 F1500.00
G2 X32.0000 Y-1.5000 Z5.0000 I-1.5000 J0.0000 F1500.00
G1 X0.0000 Y-1.5000 Z5.0000 F1500.00
G2 X-1.5000 Y0.0000 Z5.0000 I0.0000 J1.5000 F1500.00
G1 X-1.5000 Y20.0000 Z5.0000 F1500.00
G2 X0.0000 Y21.5000 Z5.0000 I1.5000 J0.0000 F1500.00
G1 X13.5000 Y21.5000 Z5.0000 F1500.00
G2 X15.0000 Y23.0000 Z5.0000 I1.5000 J0.0000 F1500.00
G1 X32.0000 Y23.0000 Z5.0000 F1500.00
G2 X33.0607 Y22.5607 Z5.0000 I0.0000 J-1.5000 F1500.00
G1 X33.0607 Y22.5607 Z4.0000 F300.00
G2 X33.5000 Y21.5000 Z4.0000 I-1.0607 J-1.0607 F1500.00
G1 X33.5000 Y0.0000 Z4.0000 F1500.00
G2 X32.0000 Y-1.5000 Z4.0000 I-1.5000 J0.0000 F1500.00
G1 X0.0000 Y-1.5000 Z4.0000 F1500.00
G2 X-1.5000 Y0.0000 Z4.0000 I0.0000 J1.5000 F1500.00
G1 X-1.5000 Y20.0000 Z4.0000 F1500.00
G2 X0.0000 Y21.5000 Z4.0000 I1.5000 J0.0000 F1500.00
G1 X13.5000 Y21.5000 Z4.0000 F1500.00
G2 X15.0000 Y23.0000 Z4.0000 I1.5000 J0.0000 F1500.00
G1 X32.0000 Y23.0000 Z4.0000 F1500.00
G2 X33.0607 Y22.5607 Z4.0000 I0.0000 J-1.5000 F1500.00
G1 X33.0607 Y22.5607 Z3.0000 F300.00
G2 X33.5000 Y21.5000 Z3.0000 I-1.0607 J-1.0607 F1500.00
G1 X33.5000 Y0.0000 Z3.0000 F1500.00
G2 X32.0000 Y-1.5000 Z3.0000 I-1.5000 J0.0000 F1500.00
G1 X0.0000 Y-1.5000 Z3.0000 F1500.00
G2 X-1.5000 Y0.0000 Z3.0000 I0.0000 J1.5000 F1500.00
G1 X-1.5000 Y20.0000 Z3.0000 F1500.00
G2 X0.0000 Y21.5000 Z3.0000 I1.5000 J0.0000 F1500.00
G1 X13.5000 Y21.5000 Z3.0000 F1500.00
G2 X15.0000 Y23.0000 Z3.0000 I1.5000 J0.0000 F1500.00
G1 X32.0000 Y23.0000 Z3.0000 F1500.00
G2 X33.0607 Y22.5607 Z3.0000 I0.0000 J-1.5000 F1500.00
G0 Z15.0000
(finish operation: Exterior Contour)
(begin operation: Bottom Contour)
(Path: Bottom Contour)
G0 Z15.0000
G0 X32.7071 Y22.2071 Z15.0000
G0 X32.7071 Y22.2071 Z13.0000
G1 X32.7071 Y22.2071 Z2.0000 F300.00
G2 X33.0000 Y21.5000 Z2.0000 I-0.7071 J-0.7071 F1500.00
G1 X33.0000 Y0.0000 Z2.0000 F1500.00
G2 X32.0000 Y-1.0000 Z2.0000 I-1.0000 J0.0000 F1500.00
G1 X0.0000 Y-1.0000 Z2.0000 F1500.00
G2 X-1.0000 Y0.0000 Z2.0000 I0.0000 J1.0000 F1500.00
G1 X-1.0000 Y20.0000 Z2.0000 F1500.00
G2 X0.0000 Y21.0000 Z2.0000 I1.0000 J0.0000 F1500.00
G1 X14.0000 Y21.0000 Z2.0000 F1500.00
G1 X14.0000 Y21.5000 Z2.0000 F1500.00
G2 X15.0000 Y22.5000 Z2.0000 I1.0000 J0.0000 F1500.00
G1 X32.0000 Y22.5000 Z2.0000 F1500.00
G2 X32.7071 Y22.2071 Z2.0000 I0.0000 J-1.0000 F1500.00
G1 X32.7071 Y22.2071 Z1.0000 F300.00
G2 X33.0000 Y21.5000 Z1.0000 I-0.7071 J-0.7071 F1500.00
G1 X33.0000 Y0.0000 Z1.0000 F1500.00
G2 X32.0000 Y-1.0000 Z1.0000 I-1.0000 J0.0000 F1500.00
G1 X0.0000 Y-1.0000 Z1.0000 F1500.00
G2 X-1.0000 Y0.0000 Z1.0000 I0.0000 J1.0000 F1500.00
G1 X-1.0000 Y20.0000 Z1.0000 F1500.00
G2 X0.0000 Y21.0000 Z1.0000 I1.0000 J0.0000 F1500.00
G1 X14.0000 Y21.0000 Z1.0000 F1500.00
G1 X14.0000 Y21.5000 Z1.0000 F1500.00
G2 X15.0000 Y22.5000 Z1.0000 I1.0000 J0.0000 F1500.00
G1 X32.0000 Y22.5000 Z1.0000 F1500.00
G2 X32.7071 Y22.2071 Z1.0000 I0.0000 J-1.0000 F1500.00
G1 X32.7071 Y22.2071 Z0.0000 F300.00
G2 X33.0000 Y21.5000 Z0.0000 I-0.7071 J-0.7071 F1500.00
G1 X33.0000 Y12.2450 Z0.0000 F1500.00
G1 X33.0000 Y11.7450 Z0.5000 F900.00
G1 X33.0000 Y9.7550 Z0.5000 F1500.00
G1 X33.0000 Y9.2550 Z0.0000 F900.00
G1 X33.0000 Y0.0000 Z0.0000 F1500.00
G2 X32.0000 Y-1.0000 Z0.0000 I-1.0000 J0.0000 F1500.00
G1 X17.4950 Y-1.0000 Z0.0000 F1500.00
G1 X16.9950 Y-1.0000 Z0.5000 F900.00
G1 X15.0050 Y-1.0000 Z0.5000 F1500.00
G1 X14.5050 Y-1.0000 Z0.0000 F900.00
G1 X0.0000 Y-1.0000 Z0.0000 F1500.00
G2 X-1.0000 Y0.0000 Z0.0000 I0.0000 J1.0000 F1500.00
G1 X-1.0000 Y8.5050 Z0.0000 F1500.00
G1 X-1.0000 Y9.0050 Z0.5000 F900.00
G1 X-1.0000 Y10.9950 Z0.5000 F1500.00
G1 X-1.0000 Y11.4950 Z0.0000 F900.00
G1 X-1.0000 Y20.0000 Z0.0000 F1500.00
G2 X0.0000 Y21.0000 Z0.0000 I1.0000 J0.0000 F1500.00
G1 X14.0000 Y21.0000 Z0.0000 F1500.00
G1 X14.0000 Y21.5000 Z0.0000 F1500.00
G2 X15.0000 Y22.5000 Z0.0000 I1.0000 J0.0000 F1500.00
G1 X22.0050 Y22.5000 Z0.0000 F1500.00
G1 X22.5050 Y22.5000 Z0.5000 F900.00
G1 X24.4950 Y22.5000 Z0.5000 F1500.00
G1 X24.9950 Y22.5000 Z0.0000 F900.00
G1 X32.0000 Y22.5000 Z0.0000 F1500.00
G2 X32.7071 Y22.2071 Z0.0000 I0.0000 J-1.0000 F1500.00
G0 X32.7071 Y22.2071 Z15.0000
(finish operation: Bottom Contour)
(begin postamble)
M5
G17 G90
; M2
