(Exported by FreeCAD)
(Post Processor: cnc1310_post)
(Output Time:2019-09-02 17:18:11.710239)
(begin preamble)
G17 G90
G21
(begin operation: T4: SingleFlute1mm)
(Path: T4: SingleFlute1mm)
(T4: SingleFlute1mm)
(begin toolchange)
; ; M6 T4
M3 S8000.0000
(finish operation: T4: SingleFlute1mm)
(begin operation: CableGuide)
(Path: CableGuide)
(Profile_Faces)
(Compensated Tool Path. Diameter: 1.0)
G0 Z15.0000
G0 X28.7500 Y14.5000
G0 Z13.0000
G1 X28.7500 Y14.5000 Z9.8000 F300.00
G1 X28.7500 Y9.7071 Z9.8000 F1500.00
G3 X28.5100 Y9.2600 Z9.8000 I0.4197 J-0.5133 F1500.00
G1 X28.5100 Y3.8246 Z9.8000 F1500.00
G2 X27.1854 Y2.5000 Z9.8000 I-1.3062 J-0.0184 F1500.00
G1 X0.5000 Y2.5000 Z9.8000 F1500.00
G1 X0.5000 Y3.1000 Z9.8000 F1500.00
G1 X0.5000 Y3.1000 Z9.8000 F1500.00
G1 X16.9900 Y3.1000 Z9.8000 F1500.00
G3 X18.4857 Y4.5347 Z9.8000 I-0.0052 J1.5024 F1500.00
G1 X18.4900 Y9.2600 Z9.8000 F1500.00
G3 X18.2500 Y9.7071 Z9.8000 I-0.5579 J-0.0115 F1500.00
G1 X18.2500 Y14.5000 Z9.8000 F1500.00
G1 X18.2500 Y15.0000 Z9.8000 F1500.00
G1 X18.2500 Y14.5000 Z9.8000 F1500.00
G1 X18.7188 Y14.5000 Z9.8000 F1500.00
G1 X18.7188 Y14.5000 Z9.8000 F1500.00
G1 X18.7500 Y14.4771 Z9.8000 F1500.00
G1 X18.7500 Y14.4771 Z9.8000 F1500.00
G1 X18.7500 Y14.9771 Z9.8000 F1500.00
G1 X18.7500 Y14.4771 Z9.8000 F1500.00
G1 X18.7500 Y9.7071 Z9.8000 F1500.00
G3 X18.5100 Y9.2600 Z9.8000 I0.4197 J-0.5133 F1500.00
G1 X18.5100 Y3.6000 Z9.8000 F1500.00
G3 X19.0100 Y3.1000 Z9.8000 I0.5000 J0.0000 F1500.00
G1 X21.9900 Y3.1000 Z9.8000 F1500.00
G3 X23.4857 Y4.5347 Z9.8000 I-0.0052 J1.5024 F1500.00
G1 X23.4900 Y9.2600 Z9.8000 F1500.00
G3 X23.2500 Y9.7071 Z9.8000 I-0.5579 J-0.0115 F1500.00
G1 X23.2500 Y14.5000 Z9.8000 F1500.00
G1 X23.2500 Y15.0000 Z9.8000 F1500.00
G1 X23.2500 Y14.5000 Z9.8000 F1500.00
G1 X23.7500 Y14.5000 Z9.8000 F1500.00
G1 X23.7500 Y14.5000 Z9.8000 F1500.00
G1 X23.7500 Y15.0000 Z9.8000 F1500.00
G1 X23.7500 Y14.5000 Z9.8000 F1500.00
G1 X23.7500 Y9.7071 Z9.8000 F1500.00
G3 X23.5100 Y9.2600 Z9.8000 I0.4197 J-0.5133 F1500.00
G1 X23.5100 Y3.6000 Z9.8000 F1500.00
G3 X24.0100 Y3.1000 Z9.8000 I0.5000 J0.0000 F1500.00
G1 X26.9900 Y3.1000 Z9.8000 F1500.00
G3 X28.4857 Y4.5347 Z9.8000 I-0.0052 J1.5024 F1500.00
G1 X28.4900 Y9.2600 Z9.8000 F1500.00
G3 X28.2500 Y9.7071 Z9.8000 I-0.5579 J-0.0115 F1500.00
G1 X28.2500 Y14.4775 Z9.8000 F1500.00
G1 X28.2500 Y14.9775 Z9.8000 F1500.00
G1 X28.2500 Y14.4775 Z9.8000 F1500.00
G1 X28.2814 Y14.5000 Z9.8000 F1500.00
G1 X28.2814 Y14.5000 Z9.8000 F1500.00
G1 X28.7500 Y14.5000 Z9.8000 F1500.00
G1 X28.7500 Y14.5000 Z9.8000 F1500.00
G1 X28.7500 Y15.0000 Z9.8000 F1500.00
G1 X28.7500 Y14.5000 Z9.8000 F1500.00
G1 X28.7500 Y14.5000 Z9.6000 F300.00
G1 X28.7500 Y9.7071 Z9.6000 F1500.00
G3 X28.5100 Y9.2600 Z9.6000 I0.4197 J-0.5133 F1500.00
G1 X28.5100 Y3.8246 Z9.6000 F1500.00
G2 X27.1854 Y2.5000 Z9.6000 I-1.3062 J-0.0184 F1500.00
G1 X0.5000 Y2.5000 Z9.6000 F1500.00
G1 X0.5000 Y3.1000 Z9.6000 F1500.00
G1 X0.5000 Y3.1000 Z9.6000 F1500.00
G1 X16.9900 Y3.1000 Z9.6000 F1500.00
G3 X18.4857 Y4.5347 Z9.6000 I-0.0052 J1.5024 F1500.00
G1 X18.4900 Y9.2600 Z9.6000 F1500.00
G3 X18.2500 Y9.7071 Z9.6000 I-0.5579 J-0.0115 F1500.00
G1 X18.2500 Y14.5000 Z9.6000 F1500.00
G1 X18.2500 Y15.0000 Z9.6000 F1500.00
G1 X18.2500 Y14.5000 Z9.6000 F1500.00
G1 X18.7188 Y14.5000 Z9.6000 F1500.00
G1 X18.7188 Y14.5000 Z9.6000 F1500.00
G1 X18.7500 Y14.4771 Z9.6000 F1500.00
G1 X18.7500 Y14.4771 Z9.6000 F1500.00
G1 X18.7500 Y14.9771 Z9.6000 F1500.00
G1 X18.7500 Y14.4771 Z9.6000 F1500.00
G1 X18.7500 Y9.7071 Z9.6000 F1500.00
G3 X18.5100 Y9.2600 Z9.6000 I0.4197 J-0.5133 F1500.00
G1 X18.5100 Y3.6000 Z9.6000 F1500.00
G3 X19.0100 Y3.1000 Z9.6000 I0.5000 J0.0000 F1500.00
G1 X21.9900 Y3.1000 Z9.6000 F1500.00
G3 X23.4857 Y4.5347 Z9.6000 I-0.0052 J1.5024 F1500.00
G1 X23.4900 Y9.2600 Z9.6000 F1500.00
G3 X23.2500 Y9.7071 Z9.6000 I-0.5579 J-0.0115 F1500.00
G1 X23.2500 Y14.5000 Z9.6000 F1500.00
G1 X23.2500 Y15.0000 Z9.6000 F1500.00
G1 X23.2500 Y14.5000 Z9.6000 F1500.00
G1 X23.7500 Y14.5000 Z9.6000 F1500.00
G1 X23.7500 Y14.5000 Z9.6000 F1500.00
G1 X23.7500 Y15.0000 Z9.6000 F1500.00
G1 X23.7500 Y14.5000 Z9.6000 F1500.00
G1 X23.7500 Y9.7071 Z9.6000 F1500.00
G3 X23.5100 Y9.2600 Z9.6000 I0.4197 J-0.5133 F1500.00
G1 X23.5100 Y3.6000 Z9.6000 F1500.00
G3 X24.0100 Y3.1000 Z9.6000 I0.5000 J0.0000 F1500.00
G1 X26.9900 Y3.1000 Z9.6000 F1500.00
G3 X28.4857 Y4.5347 Z9.6000 I-0.0052 J1.5024 F1500.00
G1 X28.4900 Y9.2600 Z9.6000 F1500.00
G3 X28.2500 Y9.7071 Z9.6000 I-0.5579 J-0.0115 F1500.00
G1 X28.2500 Y14.4775 Z9.6000 F1500.00
G1 X28.2500 Y14.9775 Z9.6000 F1500.00
G1 X28.2500 Y14.4775 Z9.6000 F1500.00
G1 X28.2814 Y14.5000 Z9.6000 F1500.00
G1 X28.2814 Y14.5000 Z9.6000 F1500.00
G1 X28.7500 Y14.5000 Z9.6000 F1500.00
G1 X28.7500 Y14.5000 Z9.6000 F1500.00
G1 X28.7500 Y15.0000 Z9.6000 F1500.00
G1 X28.7500 Y14.5000 Z9.6000 F1500.00
G1 X28.7500 Y14.5000 Z9.4000 F300.00
G1 X28.7500 Y9.7071 Z9.4000 F1500.00
G3 X28.5100 Y9.2600 Z9.4000 I0.4197 J-0.5133 F1500.00
G1 X28.5100 Y3.8246 Z9.4000 F1500.00
G2 X27.1854 Y2.5000 Z9.4000 I-1.3062 J-0.0184 F1500.00
G1 X0.5000 Y2.5000 Z9.4000 F1500.00
G1 X0.5000 Y3.1000 Z9.4000 F1500.00
G1 X0.5000 Y3.1000 Z9.4000 F1500.00
G1 X16.9900 Y3.1000 Z9.4000 F1500.00
G3 X18.4857 Y4.5347 Z9.4000 I-0.0052 J1.5024 F1500.00
G1 X18.4900 Y9.2600 Z9.4000 F1500.00
G3 X18.2500 Y9.7071 Z9.4000 I-0.5579 J-0.0115 F1500.00
G1 X18.2500 Y14.5000 Z9.4000 F1500.00
G1 X18.2500 Y15.0000 Z9.4000 F1500.00
G1 X18.2500 Y14.5000 Z9.4000 F1500.00
G1 X18.7188 Y14.5000 Z9.4000 F1500.00
G1 X18.7188 Y14.5000 Z9.4000 F1500.00
G1 X18.7500 Y14.4771 Z9.4000 F1500.00
G1 X18.7500 Y14.4771 Z9.4000 F1500.00
G1 X18.7500 Y14.9771 Z9.4000 F1500.00
G1 X18.7500 Y14.4771 Z9.4000 F1500.00
G1 X18.7500 Y9.7071 Z9.4000 F1500.00
G3 X18.5100 Y9.2600 Z9.4000 I0.4197 J-0.5133 F1500.00
G1 X18.5100 Y3.6000 Z9.4000 F1500.00
G3 X19.0100 Y3.1000 Z9.4000 I0.5000 J0.0000 F1500.00
G1 X21.9900 Y3.1000 Z9.4000 F1500.00
G3 X23.4857 Y4.5347 Z9.4000 I-0.0052 J1.5024 F1500.00
G1 X23.4900 Y9.2600 Z9.4000 F1500.00
G3 X23.2500 Y9.7071 Z9.4000 I-0.5579 J-0.0115 F1500.00
G1 X23.2500 Y14.5000 Z9.4000 F1500.00
G1 X23.2500 Y15.0000 Z9.4000 F1500.00
G1 X23.2500 Y14.5000 Z9.4000 F1500.00
G1 X23.7500 Y14.5000 Z9.4000 F1500.00
G1 X23.7500 Y14.5000 Z9.4000 F1500.00
G1 X23.7500 Y15.0000 Z9.4000 F1500.00
G1 X23.7500 Y14.5000 Z9.4000 F1500.00
G1 X23.7500 Y9.7071 Z9.4000 F1500.00
G3 X23.5100 Y9.2600 Z9.4000 I0.4197 J-0.5133 F1500.00
G1 X23.5100 Y3.6000 Z9.4000 F1500.00
G3 X24.0100 Y3.1000 Z9.4000 I0.5000 J0.0000 F1500.00
G1 X26.9900 Y3.1000 Z9.4000 F1500.00
G3 X28.4857 Y4.5347 Z9.4000 I-0.0052 J1.5024 F1500.00
G1 X28.4900 Y9.2600 Z9.4000 F1500.00
G3 X28.2500 Y9.7071 Z9.4000 I-0.5579 J-0.0115 F1500.00
G1 X28.2500 Y14.4775 Z9.4000 F1500.00
G1 X28.2500 Y14.9775 Z9.4000 F1500.00
G1 X28.2500 Y14.4775 Z9.4000 F1500.00
G1 X28.2814 Y14.5000 Z9.4000 F1500.00
G1 X28.2814 Y14.5000 Z9.4000 F1500.00
G1 X28.7500 Y14.5000 Z9.4000 F1500.00
G1 X28.7500 Y14.5000 Z9.4000 F1500.00
G1 X28.7500 Y15.0000 Z9.4000 F1500.00
G1 X28.7500 Y14.5000 Z9.4000 F1500.00
G1 X28.7500 Y14.5000 Z9.2000 F300.00
G1 X28.7500 Y9.7071 Z9.2000 F1500.00
G3 X28.5100 Y9.2600 Z9.2000 I0.4197 J-0.5133 F1500.00
G1 X28.5100 Y3.8246 Z9.2000 F1500.00
G2 X27.1854 Y2.5000 Z9.2000 I-1.3062 J-0.0184 F1500.00
G1 X0.5000 Y2.5000 Z9.2000 F1500.00
G1 X0.5000 Y3.1000 Z9.2000 F1500.00
G1 X0.5000 Y3.1000 Z9.2000 F1500.00
G1 X16.9900 Y3.1000 Z9.2000 F1500.00
G3 X18.4857 Y4.5347 Z9.2000 I-0.0052 J1.5024 F1500.00
G1 X18.4900 Y9.2600 Z9.2000 F1500.00
G3 X18.2500 Y9.7071 Z9.2000 I-0.5579 J-0.0115 F1500.00
G1 X18.2500 Y14.5000 Z9.2000 F1500.00
G1 X18.2500 Y15.0000 Z9.2000 F1500.00
G1 X18.2500 Y14.5000 Z9.2000 F1500.00
G1 X18.7188 Y14.5000 Z9.2000 F1500.00
G1 X18.7188 Y14.5000 Z9.2000 F1500.00
G1 X18.7500 Y14.4771 Z9.2000 F1500.00
G1 X18.7500 Y14.4771 Z9.2000 F1500.00
G1 X18.7500 Y14.9771 Z9.2000 F1500.00
G1 X18.7500 Y14.4771 Z9.2000 F1500.00
G1 X18.7500 Y9.7071 Z9.2000 F1500.00
G3 X18.5100 Y9.2600 Z9.2000 I0.4197 J-0.5133 F1500.00
G1 X18.5100 Y3.6000 Z9.2000 F1500.00
G3 X19.0100 Y3.1000 Z9.2000 I0.5000 J0.0000 F1500.00
G1 X21.9900 Y3.1000 Z9.2000 F1500.00
G3 X23.4857 Y4.5347 Z9.2000 I-0.0052 J1.5024 F1500.00
G1 X23.4900 Y9.2600 Z9.2000 F1500.00
G3 X23.2500 Y9.7071 Z9.2000 I-0.5579 J-0.0115 F1500.00
G1 X23.2500 Y14.5000 Z9.2000 F1500.00
G1 X23.2500 Y15.0000 Z9.2000 F1500.00
G1 X23.2500 Y14.5000 Z9.2000 F1500.00
G1 X23.7500 Y14.5000 Z9.2000 F1500.00
G1 X23.7500 Y14.5000 Z9.2000 F1500.00
G1 X23.7500 Y15.0000 Z9.2000 F1500.00
G1 X23.7500 Y14.5000 Z9.2000 F1500.00
G1 X23.7500 Y9.7071 Z9.2000 F1500.00
G3 X23.5100 Y9.2600 Z9.2000 I0.4197 J-0.5133 F1500.00
G1 X23.5100 Y3.6000 Z9.2000 F1500.00
G3 X24.0100 Y3.1000 Z9.2000 I0.5000 J0.0000 F1500.00
G1 X26.9900 Y3.1000 Z9.2000 F1500.00
G3 X28.4857 Y4.5347 Z9.2000 I-0.0052 J1.5024 F1500.00
G1 X28.4900 Y9.2600 Z9.2000 F1500.00
G3 X28.2500 Y9.7071 Z9.2000 I-0.5579 J-0.0115 F1500.00
G1 X28.2500 Y14.4775 Z9.2000 F1500.00
G1 X28.2500 Y14.9775 Z9.2000 F1500.00
G1 X28.2500 Y14.4775 Z9.2000 F1500.00
G1 X28.2814 Y14.5000 Z9.2000 F1500.00
G1 X28.2814 Y14.5000 Z9.2000 F1500.00
G1 X28.7500 Y14.5000 Z9.2000 F1500.00
G1 X28.7500 Y14.5000 Z9.2000 F1500.00
G1 X28.7500 Y15.0000 Z9.2000 F1500.00
G1 X28.7500 Y14.5000 Z9.2000 F1500.00
G1 X28.7500 Y14.5000 Z9.0000 F300.00
G1 X28.7500 Y9.7071 Z9.0000 F1500.00
G3 X28.5100 Y9.2600 Z9.0000 I0.4197 J-0.5133 F1500.00
G1 X28.5100 Y3.8246 Z9.0000 F1500.00
G2 X27.1854 Y2.5000 Z9.0000 I-1.3062 J-0.0184 F1500.00
G1 X0.5000 Y2.5000 Z9.0000 F1500.00
G1 X0.5000 Y3.1000 Z9.0000 F1500.00
G1 X0.5000 Y3.1000 Z9.0000 F1500.00
G1 X16.9900 Y3.1000 Z9.0000 F1500.00
G3 X18.4857 Y4.5347 Z9.0000 I-0.0052 J1.5024 F1500.00
G1 X18.4900 Y9.2600 Z9.0000 F1500.00
G3 X18.2500 Y9.7071 Z9.0000 I-0.5579 J-0.0115 F1500.00
G1 X18.2500 Y14.5000 Z9.0000 F1500.00
G1 X18.2500 Y15.0000 Z9.0000 F1500.00
G1 X18.2500 Y14.5000 Z9.0000 F1500.00
G1 X18.7188 Y14.5000 Z9.0000 F1500.00
G1 X18.7188 Y14.5000 Z9.0000 F1500.00
G1 X18.7500 Y14.4771 Z9.0000 F1500.00
G1 X18.7500 Y14.4771 Z9.0000 F1500.00
G1 X18.7500 Y14.9771 Z9.0000 F1500.00
G1 X18.7500 Y14.4771 Z9.0000 F1500.00
G1 X18.7500 Y9.7071 Z9.0000 F1500.00
G3 X18.5100 Y9.2600 Z9.0000 I0.4197 J-0.5133 F1500.00
G1 X18.5100 Y3.6000 Z9.0000 F1500.00
G3 X19.0100 Y3.1000 Z9.0000 I0.5000 J0.0000 F1500.00
G1 X21.9900 Y3.1000 Z9.0000 F1500.00
G3 X23.4857 Y4.5347 Z9.0000 I-0.0052 J1.5024 F1500.00
G1 X23.4900 Y9.2600 Z9.0000 F1500.00
G3 X23.2500 Y9.7071 Z9.0000 I-0.5579 J-0.0115 F1500.00
G1 X23.2500 Y14.5000 Z9.0000 F1500.00
G1 X23.2500 Y15.0000 Z9.0000 F1500.00
G1 X23.2500 Y14.5000 Z9.0000 F1500.00
G1 X23.7500 Y14.5000 Z9.0000 F1500.00
G1 X23.7500 Y14.5000 Z9.0000 F1500.00
G1 X23.7500 Y15.0000 Z9.0000 F1500.00
G1 X23.7500 Y14.5000 Z9.0000 F1500.00
G1 X23.7500 Y9.7071 Z9.0000 F1500.00
G3 X23.5100 Y9.2600 Z9.0000 I0.4197 J-0.5133 F1500.00
G1 X23.5100 Y3.6000 Z9.0000 F1500.00
G3 X24.0100 Y3.1000 Z9.0000 I0.5000 J0.0000 F1500.00
G1 X26.9900 Y3.1000 Z9.0000 F1500.00
G3 X28.4857 Y4.5347 Z9.0000 I-0.0052 J1.5024 F1500.00
G1 X28.4900 Y9.2600 Z9.0000 F1500.00
G3 X28.2500 Y9.7071 Z9.0000 I-0.5579 J-0.0115 F1500.00
G1 X28.2500 Y14.4775 Z9.0000 F1500.00
G1 X28.2500 Y14.9775 Z9.0000 F1500.00
G1 X28.2500 Y14.4775 Z9.0000 F1500.00
G1 X28.2814 Y14.5000 Z9.0000 F1500.00
G1 X28.2814 Y14.5000 Z9.0000 F1500.00
G1 X28.7500 Y14.5000 Z9.0000 F1500.00
G1 X28.7500 Y14.5000 Z9.0000 F1500.00
G1 X28.7500 Y15.0000 Z9.0000 F1500.00
G1 X28.7500 Y14.5000 Z9.0000 F1500.00
G1 X28.7500 Y14.5000 Z8.8000 F300.00
G1 X28.7500 Y9.7071 Z8.8000 F1500.00
G3 X28.5100 Y9.2600 Z8.8000 I0.4197 J-0.5133 F1500.00
G1 X28.5100 Y3.8246 Z8.8000 F1500.00
G2 X27.1854 Y2.5000 Z8.8000 I-1.3062 J-0.0184 F1500.00
G1 X0.5000 Y2.5000 Z8.8000 F1500.00
G1 X0.5000 Y3.1000 Z8.8000 F1500.00
G1 X0.5000 Y3.1000 Z8.8000 F1500.00
G1 X16.9900 Y3.1000 Z8.8000 F1500.00
G3 X18.4857 Y4.5347 Z8.8000 I-0.0052 J1.5024 F1500.00
G1 X18.4900 Y9.2600 Z8.8000 F1500.00
G3 X18.2500 Y9.7071 Z8.8000 I-0.5579 J-0.0115 F1500.00
G1 X18.2500 Y14.5000 Z8.8000 F1500.00
G1 X18.2500 Y15.0000 Z8.8000 F1500.00
G1 X18.2500 Y14.5000 Z8.8000 F1500.00
G1 X18.7188 Y14.5000 Z8.8000 F1500.00
G1 X18.7188 Y14.5000 Z8.8000 F1500.00
G1 X18.7500 Y14.4771 Z8.8000 F1500.00
G1 X18.7500 Y14.4771 Z8.8000 F1500.00
G1 X18.7500 Y14.9771 Z8.8000 F1500.00
G1 X18.7500 Y14.4771 Z8.8000 F1500.00
G1 X18.7500 Y9.7071 Z8.8000 F1500.00
G3 X18.5100 Y9.2600 Z8.8000 I0.4197 J-0.5133 F1500.00
G1 X18.5100 Y3.6000 Z8.8000 F1500.00
G3 X19.0100 Y3.1000 Z8.8000 I0.5000 J0.0000 F1500.00
G1 X21.9900 Y3.1000 Z8.8000 F1500.00
G3 X23.4857 Y4.5347 Z8.8000 I-0.0052 J1.5024 F1500.00
G1 X23.4900 Y9.2600 Z8.8000 F1500.00
G3 X23.2500 Y9.7071 Z8.8000 I-0.5579 J-0.0115 F1500.00
G1 X23.2500 Y14.5000 Z8.8000 F1500.00
G1 X23.2500 Y15.0000 Z8.8000 F1500.00
G1 X23.2500 Y14.5000 Z8.8000 F1500.00
G1 X23.7500 Y14.5000 Z8.8000 F1500.00
G1 X23.7500 Y14.5000 Z8.8000 F1500.00
G1 X23.7500 Y15.0000 Z8.8000 F1500.00
G1 X23.7500 Y14.5000 Z8.8000 F1500.00
G1 X23.7500 Y9.7071 Z8.8000 F1500.00
G3 X23.5100 Y9.2600 Z8.8000 I0.4197 J-0.5133 F1500.00
G1 X23.5100 Y3.6000 Z8.8000 F1500.00
G3 X24.0100 Y3.1000 Z8.8000 I0.5000 J0.0000 F1500.00
G1 X26.9900 Y3.1000 Z8.8000 F1500.00
G3 X28.4857 Y4.5347 Z8.8000 I-0.0052 J1.5024 F1500.00
G1 X28.4900 Y9.2600 Z8.8000 F1500.00
G3 X28.2500 Y9.7071 Z8.8000 I-0.5579 J-0.0115 F1500.00
G1 X28.2500 Y14.4775 Z8.8000 F1500.00
G1 X28.2500 Y14.9775 Z8.8000 F1500.00
G1 X28.2500 Y14.4775 Z8.8000 F1500.00
G1 X28.2814 Y14.5000 Z8.8000 F1500.00
G1 X28.2814 Y14.5000 Z8.8000 F1500.00
G1 X28.7500 Y14.5000 Z8.8000 F1500.00
G1 X28.7500 Y14.5000 Z8.8000 F1500.00
G1 X28.7500 Y15.0000 Z8.8000 F1500.00
G1 X28.7500 Y14.5000 Z8.8000 F1500.00
G1 X28.7500 Y14.5000 Z8.6000 F300.00
G1 X28.7500 Y9.7071 Z8.6000 F1500.00
G3 X28.5100 Y9.2600 Z8.6000 I0.4197 J-0.5133 F1500.00
G1 X28.5100 Y3.8246 Z8.6000 F1500.00
G2 X27.1854 Y2.5000 Z8.6000 I-1.3062 J-0.0184 F1500.00
G1 X0.5000 Y2.5000 Z8.6000 F1500.00
G1 X0.5000 Y3.1000 Z8.6000 F1500.00
G1 X0.5000 Y3.1000 Z8.6000 F1500.00
G1 X16.9900 Y3.1000 Z8.6000 F1500.00
G3 X18.4857 Y4.5347 Z8.6000 I-0.0052 J1.5024 F1500.00
G1 X18.4900 Y9.2600 Z8.6000 F1500.00
G3 X18.2500 Y9.7071 Z8.6000 I-0.5579 J-0.0115 F1500.00
G1 X18.2500 Y14.5000 Z8.6000 F1500.00
G1 X18.2500 Y15.0000 Z8.6000 F1500.00
G1 X18.2500 Y14.5000 Z8.6000 F1500.00
G1 X18.7188 Y14.5000 Z8.6000 F1500.00
G1 X18.7188 Y14.5000 Z8.6000 F1500.00
G1 X18.7500 Y14.4771 Z8.6000 F1500.00
G1 X18.7500 Y14.4771 Z8.6000 F1500.00
G1 X18.7500 Y14.9771 Z8.6000 F1500.00
G1 X18.7500 Y14.4771 Z8.6000 F1500.00
G1 X18.7500 Y9.7071 Z8.6000 F1500.00
G3 X18.5100 Y9.2600 Z8.6000 I0.4197 J-0.5133 F1500.00
G1 X18.5100 Y3.6000 Z8.6000 F1500.00
G3 X19.0100 Y3.1000 Z8.6000 I0.5000 J0.0000 F1500.00
G1 X21.9900 Y3.1000 Z8.6000 F1500.00
G3 X23.4857 Y4.5347 Z8.6000 I-0.0052 J1.5024 F1500.00
G1 X23.4900 Y9.2600 Z8.6000 F1500.00
G3 X23.2500 Y9.7071 Z8.6000 I-0.5579 J-0.0115 F1500.00
G1 X23.2500 Y14.5000 Z8.6000 F1500.00
G1 X23.2500 Y15.0000 Z8.6000 F1500.00
G1 X23.2500 Y14.5000 Z8.6000 F1500.00
G1 X23.7500 Y14.5000 Z8.6000 F1500.00
G1 X23.7500 Y14.5000 Z8.6000 F1500.00
G1 X23.7500 Y15.0000 Z8.6000 F1500.00
G1 X23.7500 Y14.5000 Z8.6000 F1500.00
G1 X23.7500 Y9.7071 Z8.6000 F1500.00
G3 X23.5100 Y9.2600 Z8.6000 I0.4197 J-0.5133 F1500.00
G1 X23.5100 Y3.6000 Z8.6000 F1500.00
G3 X24.0100 Y3.1000 Z8.6000 I0.5000 J0.0000 F1500.00
G1 X26.9900 Y3.1000 Z8.6000 F1500.00
G3 X28.4857 Y4.5347 Z8.6000 I-0.0052 J1.5024 F1500.00
G1 X28.4900 Y9.2600 Z8.6000 F1500.00
G3 X28.2500 Y9.7071 Z8.6000 I-0.5579 J-0.0115 F1500.00
G1 X28.2500 Y14.4775 Z8.6000 F1500.00
G1 X28.2500 Y14.9775 Z8.6000 F1500.00
G1 X28.2500 Y14.4775 Z8.6000 F1500.00
G1 X28.2814 Y14.5000 Z8.6000 F1500.00
G1 X28.2814 Y14.5000 Z8.6000 F1500.00
G1 X28.7500 Y14.5000 Z8.6000 F1500.00
G1 X28.7500 Y14.5000 Z8.6000 F1500.00
G1 X28.7500 Y15.0000 Z8.6000 F1500.00
G1 X28.7500 Y14.5000 Z8.6000 F1500.00
G1 X28.7500 Y14.5000 Z8.4000 F300.00
G1 X28.7500 Y9.7071 Z8.4000 F1500.00
G3 X28.5100 Y9.2600 Z8.4000 I0.4197 J-0.5133 F1500.00
G1 X28.5100 Y3.8246 Z8.4000 F1500.00
G2 X27.1854 Y2.5000 Z8.4000 I-1.3062 J-0.0184 F1500.00
G1 X0.5000 Y2.5000 Z8.4000 F1500.00
G1 X0.5000 Y3.1000 Z8.4000 F1500.00
G1 X0.5000 Y3.1000 Z8.4000 F1500.00
G1 X16.9900 Y3.1000 Z8.4000 F1500.00
G3 X18.4857 Y4.5347 Z8.4000 I-0.0052 J1.5024 F1500.00
G1 X18.4900 Y9.2600 Z8.4000 F1500.00
G3 X18.2500 Y9.7071 Z8.4000 I-0.5579 J-0.0115 F1500.00
G1 X18.2500 Y14.5000 Z8.4000 F1500.00
G1 X18.2500 Y15.0000 Z8.4000 F1500.00
G1 X18.2500 Y14.5000 Z8.4000 F1500.00
G1 X18.7188 Y14.5000 Z8.4000 F1500.00
G1 X18.7188 Y14.5000 Z8.4000 F1500.00
G1 X18.7500 Y14.4771 Z8.4000 F1500.00
G1 X18.7500 Y14.4771 Z8.4000 F1500.00
G1 X18.7500 Y14.9771 Z8.4000 F1500.00
G1 X18.7500 Y14.4771 Z8.4000 F1500.00
G1 X18.7500 Y9.7071 Z8.4000 F1500.00
G3 X18.5100 Y9.2600 Z8.4000 I0.4197 J-0.5133 F1500.00
G1 X18.5100 Y3.6000 Z8.4000 F1500.00
G3 X19.0100 Y3.1000 Z8.4000 I0.5000 J0.0000 F1500.00
G1 X21.9900 Y3.1000 Z8.4000 F1500.00
G3 X23.4857 Y4.5347 Z8.4000 I-0.0052 J1.5024 F1500.00
G1 X23.4900 Y9.2600 Z8.4000 F1500.00
G3 X23.2500 Y9.7071 Z8.4000 I-0.5579 J-0.0115 F1500.00
G1 X23.2500 Y14.5000 Z8.4000 F1500.00
G1 X23.2500 Y15.0000 Z8.4000 F1500.00
G1 X23.2500 Y14.5000 Z8.4000 F1500.00
G1 X23.7500 Y14.5000 Z8.4000 F1500.00
G1 X23.7500 Y14.5000 Z8.4000 F1500.00
G1 X23.7500 Y15.0000 Z8.4000 F1500.00
G1 X23.7500 Y14.5000 Z8.4000 F1500.00
G1 X23.7500 Y9.7071 Z8.4000 F1500.00
G3 X23.5100 Y9.2600 Z8.4000 I0.4197 J-0.5133 F1500.00
G1 X23.5100 Y3.6000 Z8.4000 F1500.00
G3 X24.0100 Y3.1000 Z8.4000 I0.5000 J0.0000 F1500.00
G1 X26.9900 Y3.1000 Z8.4000 F1500.00
G3 X28.4857 Y4.5347 Z8.4000 I-0.0052 J1.5024 F1500.00
G1 X28.4900 Y9.2600 Z8.4000 F1500.00
G3 X28.2500 Y9.7071 Z8.4000 I-0.5579 J-0.0115 F1500.00
G1 X28.2500 Y14.4775 Z8.4000 F1500.00
G1 X28.2500 Y14.9775 Z8.4000 F1500.00
G1 X28.2500 Y14.4775 Z8.4000 F1500.00
G1 X28.2814 Y14.5000 Z8.4000 F1500.00
G1 X28.2814 Y14.5000 Z8.4000 F1500.00
G1 X28.7500 Y14.5000 Z8.4000 F1500.00
G1 X28.7500 Y14.5000 Z8.4000 F1500.00
G1 X28.7500 Y15.0000 Z8.4000 F1500.00
G1 X28.7500 Y14.5000 Z8.4000 F1500.00
G1 X28.7500 Y14.5000 Z8.2000 F300.00
G1 X28.7500 Y9.7071 Z8.2000 F1500.00
G3 X28.5100 Y9.2600 Z8.2000 I0.4197 J-0.5133 F1500.00
G1 X28.5100 Y3.8246 Z8.2000 F1500.00
G2 X27.1854 Y2.5000 Z8.2000 I-1.3062 J-0.0184 F1500.00
G1 X0.5000 Y2.5000 Z8.2000 F1500.00
G1 X0.5000 Y3.1000 Z8.2000 F1500.00
G1 X0.5000 Y3.1000 Z8.2000 F1500.00
G1 X16.9900 Y3.1000 Z8.2000 F1500.00
G3 X18.4857 Y4.5347 Z8.2000 I-0.0052 J1.5024 F1500.00
G1 X18.4900 Y9.2600 Z8.2000 F1500.00
G3 X18.2500 Y9.7071 Z8.2000 I-0.5579 J-0.0115 F1500.00
G1 X18.2500 Y14.5000 Z8.2000 F1500.00
G1 X18.2500 Y15.0000 Z8.2000 F1500.00
G1 X18.2500 Y14.5000 Z8.2000 F1500.00
G1 X18.7188 Y14.5000 Z8.2000 F1500.00
G1 X18.7188 Y14.5000 Z8.2000 F1500.00
G1 X18.7500 Y14.4771 Z8.2000 F1500.00
G1 X18.7500 Y14.4771 Z8.2000 F1500.00
G1 X18.7500 Y14.9771 Z8.2000 F1500.00
G1 X18.7500 Y14.4771 Z8.2000 F1500.00
G1 X18.7500 Y9.7071 Z8.2000 F1500.00
G3 X18.5100 Y9.2600 Z8.2000 I0.4197 J-0.5133 F1500.00
G1 X18.5100 Y3.6000 Z8.2000 F1500.00
G3 X19.0100 Y3.1000 Z8.2000 I0.5000 J0.0000 F1500.00
G1 X21.9900 Y3.1000 Z8.2000 F1500.00
G3 X23.4857 Y4.5347 Z8.2000 I-0.0052 J1.5024 F1500.00
G1 X23.4900 Y9.2600 Z8.2000 F1500.00
G3 X23.2500 Y9.7071 Z8.2000 I-0.5579 J-0.0115 F1500.00
G1 X23.2500 Y14.5000 Z8.2000 F1500.00
G1 X23.2500 Y15.0000 Z8.2000 F1500.00
G1 X23.2500 Y14.5000 Z8.2000 F1500.00
G1 X23.7500 Y14.5000 Z8.2000 F1500.00
G1 X23.7500 Y14.5000 Z8.2000 F1500.00
G1 X23.7500 Y15.0000 Z8.2000 F1500.00
G1 X23.7500 Y14.5000 Z8.2000 F1500.00
G1 X23.7500 Y9.7071 Z8.2000 F1500.00
G3 X23.5100 Y9.2600 Z8.2000 I0.4197 J-0.5133 F1500.00
G1 X23.5100 Y3.6000 Z8.2000 F1500.00
G3 X24.0100 Y3.1000 Z8.2000 I0.5000 J0.0000 F1500.00
G1 X26.9900 Y3.1000 Z8.2000 F1500.00
G3 X28.4857 Y4.5347 Z8.2000 I-0.0052 J1.5024 F1500.00
G1 X28.4900 Y9.2600 Z8.2000 F1500.00
G3 X28.2500 Y9.7071 Z8.2000 I-0.5579 J-0.0115 F1500.00
G1 X28.2500 Y14.4775 Z8.2000 F1500.00
G1 X28.2500 Y14.9775 Z8.2000 F1500.00
G1 X28.2500 Y14.4775 Z8.2000 F1500.00
G1 X28.2814 Y14.5000 Z8.2000 F1500.00
G1 X28.2814 Y14.5000 Z8.2000 F1500.00
G1 X28.7500 Y14.5000 Z8.2000 F1500.00
G1 X28.7500 Y14.5000 Z8.2000 F1500.00
G1 X28.7500 Y15.0000 Z8.2000 F1500.00
G1 X28.7500 Y14.5000 Z8.2000 F1500.00
G1 X28.7500 Y14.5000 Z8.0000 F300.00
G1 X28.7500 Y9.7071 Z8.0000 F1500.00
G3 X28.5100 Y9.2600 Z8.0000 I0.4197 J-0.5133 F1500.00
G1 X28.5100 Y3.8246 Z8.0000 F1500.00
G2 X27.1854 Y2.5000 Z8.0000 I-1.3062 J-0.0184 F1500.00
G1 X0.5000 Y2.5000 Z8.0000 F1500.00
G1 X0.5000 Y3.1000 Z8.0000 F1500.00
G1 X0.5000 Y3.1000 Z8.0000 F1500.00
G1 X16.9900 Y3.1000 Z8.0000 F1500.00
G3 X18.4857 Y4.5347 Z8.0000 I-0.0052 J1.5024 F1500.00
G1 X18.4900 Y9.2600 Z8.0000 F1500.00
G3 X18.2500 Y9.7071 Z8.0000 I-0.5579 J-0.0115 F1500.00
G1 X18.2500 Y14.5000 Z8.0000 F1500.00
G1 X18.2500 Y15.0000 Z8.0000 F1500.00
G1 X18.2500 Y14.5000 Z8.0000 F1500.00
G1 X18.7188 Y14.5000 Z8.0000 F1500.00
G1 X18.7188 Y14.5000 Z8.0000 F1500.00
G1 X18.7500 Y14.4771 Z8.0000 F1500.00
G1 X18.7500 Y14.4771 Z8.0000 F1500.00
G1 X18.7500 Y14.9771 Z8.0000 F1500.00
G1 X18.7500 Y14.4771 Z8.0000 F1500.00
G1 X18.7500 Y9.7071 Z8.0000 F1500.00
G3 X18.5100 Y9.2600 Z8.0000 I0.4197 J-0.5133 F1500.00
G1 X18.5100 Y3.6000 Z8.0000 F1500.00
G3 X19.0100 Y3.1000 Z8.0000 I0.5000 J0.0000 F1500.00
G1 X21.9900 Y3.1000 Z8.0000 F1500.00
G3 X23.4857 Y4.5347 Z8.0000 I-0.0052 J1.5024 F1500.00
G1 X23.4900 Y9.2600 Z8.0000 F1500.00
G3 X23.2500 Y9.7071 Z8.0000 I-0.5579 J-0.0115 F1500.00
G1 X23.2500 Y14.5000 Z8.0000 F1500.00
G1 X23.2500 Y15.0000 Z8.0000 F1500.00
G1 X23.2500 Y14.5000 Z8.0000 F1500.00
G1 X23.7500 Y14.5000 Z8.0000 F1500.00
G1 X23.7500 Y14.5000 Z8.0000 F1500.00
G1 X23.7500 Y15.0000 Z8.0000 F1500.00
G1 X23.7500 Y14.5000 Z8.0000 F1500.00
G1 X23.7500 Y9.7071 Z8.0000 F1500.00
G3 X23.5100 Y9.2600 Z8.0000 I0.4197 J-0.5133 F1500.00
G1 X23.5100 Y3.6000 Z8.0000 F1500.00
G3 X24.0100 Y3.1000 Z8.0000 I0.5000 J0.0000 F1500.00
G1 X26.9900 Y3.1000 Z8.0000 F1500.00
G3 X28.4857 Y4.5347 Z8.0000 I-0.0052 J1.5024 F1500.00
G1 X28.4900 Y9.2600 Z8.0000 F1500.00
G3 X28.2500 Y9.7071 Z8.0000 I-0.5579 J-0.0115 F1500.00
G1 X28.2500 Y14.4775 Z8.0000 F1500.00
G1 X28.2500 Y14.9775 Z8.0000 F1500.00
G1 X28.2500 Y14.4775 Z8.0000 F1500.00
G1 X28.2814 Y14.5000 Z8.0000 F1500.00
G1 X28.2814 Y14.5000 Z8.0000 F1500.00
G1 X28.7500 Y14.5000 Z8.0000 F1500.00
G1 X28.7500 Y14.5000 Z8.0000 F1500.00
G1 X28.7500 Y15.0000 Z8.0000 F1500.00
G1 X28.7500 Y14.5000 Z8.0000 F1500.00
G1 X28.7500 Y14.5000 Z7.8000 F300.00
G1 X28.7500 Y9.7071 Z7.8000 F1500.00
G3 X28.5100 Y9.2600 Z7.8000 I0.4197 J-0.5133 F1500.00
G1 X28.5100 Y3.8246 Z7.8000 F1500.00
G2 X27.1854 Y2.5000 Z7.8000 I-1.3062 J-0.0184 F1500.00
G1 X0.5000 Y2.5000 Z7.8000 F1500.00
G1 X0.5000 Y3.1000 Z7.8000 F1500.00
G1 X0.5000 Y3.1000 Z7.8000 F1500.00
G1 X16.9900 Y3.1000 Z7.8000 F1500.00
G3 X18.4857 Y4.5347 Z7.8000 I-0.0052 J1.5024 F1500.00
G1 X18.4900 Y9.2600 Z7.8000 F1500.00
G3 X18.2500 Y9.7071 Z7.8000 I-0.5579 J-0.0115 F1500.00
G1 X18.2500 Y14.5000 Z7.8000 F1500.00
G1 X18.2500 Y15.0000 Z7.8000 F1500.00
G1 X18.2500 Y14.5000 Z7.8000 F1500.00
G1 X18.7188 Y14.5000 Z7.8000 F1500.00
G1 X18.7188 Y14.5000 Z7.8000 F1500.00
G1 X18.7500 Y14.4771 Z7.8000 F1500.00
G1 X18.7500 Y14.4771 Z7.8000 F1500.00
G1 X18.7500 Y14.9771 Z7.8000 F1500.00
G1 X18.7500 Y14.4771 Z7.8000 F1500.00
G1 X18.7500 Y9.7071 Z7.8000 F1500.00
G3 X18.5100 Y9.2600 Z7.8000 I0.4197 J-0.5133 F1500.00
G1 X18.5100 Y3.6000 Z7.8000 F1500.00
G3 X19.0100 Y3.1000 Z7.8000 I0.5000 J0.0000 F1500.00
G1 X21.9900 Y3.1000 Z7.8000 F1500.00
G3 X23.4857 Y4.5347 Z7.8000 I-0.0052 J1.5024 F1500.00
G1 X23.4900 Y9.2600 Z7.8000 F1500.00
G3 X23.2500 Y9.7071 Z7.8000 I-0.5579 J-0.0115 F1500.00
G1 X23.2500 Y14.5000 Z7.8000 F1500.00
G1 X23.2500 Y15.0000 Z7.8000 F1500.00
G1 X23.2500 Y14.5000 Z7.8000 F1500.00
G1 X23.7500 Y14.5000 Z7.8000 F1500.00
G1 X23.7500 Y14.5000 Z7.8000 F1500.00
G1 X23.7500 Y15.0000 Z7.8000 F1500.00
G1 X23.7500 Y14.5000 Z7.8000 F1500.00
G1 X23.7500 Y9.7071 Z7.8000 F1500.00
G3 X23.5100 Y9.2600 Z7.8000 I0.4197 J-0.5133 F1500.00
G1 X23.5100 Y3.6000 Z7.8000 F1500.00
G3 X24.0100 Y3.1000 Z7.8000 I0.5000 J0.0000 F1500.00
G1 X26.9900 Y3.1000 Z7.8000 F1500.00
G3 X28.4857 Y4.5347 Z7.8000 I-0.0052 J1.5024 F1500.00
G1 X28.4900 Y9.2600 Z7.8000 F1500.00
G3 X28.2500 Y9.7071 Z7.8000 I-0.5579 J-0.0115 F1500.00
G1 X28.2500 Y14.4775 Z7.8000 F1500.00
G1 X28.2500 Y14.9775 Z7.8000 F1500.00
G1 X28.2500 Y14.4775 Z7.8000 F1500.00
G1 X28.2814 Y14.5000 Z7.8000 F1500.00
G1 X28.2814 Y14.5000 Z7.8000 F1500.00
G1 X28.7500 Y14.5000 Z7.8000 F1500.00
G1 X28.7500 Y14.5000 Z7.8000 F1500.00
G1 X28.7500 Y15.0000 Z7.8000 F1500.00
G1 X28.7500 Y14.5000 Z7.8000 F1500.00
G1 X28.7500 Y14.5000 Z7.6000 F300.00
G1 X28.7500 Y9.7071 Z7.6000 F1500.00
G3 X28.5100 Y9.2600 Z7.6000 I0.4197 J-0.5133 F1500.00
G1 X28.5100 Y3.8246 Z7.6000 F1500.00
G2 X27.1854 Y2.5000 Z7.6000 I-1.3062 J-0.0184 F1500.00
G1 X0.5000 Y2.5000 Z7.6000 F1500.00
G1 X0.5000 Y3.1000 Z7.6000 F1500.00
G1 X0.5000 Y3.1000 Z7.6000 F1500.00
G1 X16.9900 Y3.1000 Z7.6000 F1500.00
G3 X18.4857 Y4.5347 Z7.6000 I-0.0052 J1.5024 F1500.00
G1 X18.4900 Y9.2600 Z7.6000 F1500.00
G3 X18.2500 Y9.7071 Z7.6000 I-0.5579 J-0.0115 F1500.00
G1 X18.2500 Y14.5000 Z7.6000 F1500.00
G1 X18.2500 Y15.0000 Z7.6000 F1500.00
G1 X18.2500 Y14.5000 Z7.6000 F1500.00
G1 X18.7188 Y14.5000 Z7.6000 F1500.00
G1 X18.7188 Y14.5000 Z7.6000 F1500.00
G1 X18.7500 Y14.4771 Z7.6000 F1500.00
G1 X18.7500 Y14.4771 Z7.6000 F1500.00
G1 X18.7500 Y14.9771 Z7.6000 F1500.00
G1 X18.7500 Y14.4771 Z7.6000 F1500.00
G1 X18.7500 Y9.7071 Z7.6000 F1500.00
G3 X18.5100 Y9.2600 Z7.6000 I0.4197 J-0.5133 F1500.00
G1 X18.5100 Y3.6000 Z7.6000 F1500.00
G3 X19.0100 Y3.1000 Z7.6000 I0.5000 J0.0000 F1500.00
G1 X21.9900 Y3.1000 Z7.6000 F1500.00
G3 X23.4857 Y4.5347 Z7.6000 I-0.0052 J1.5024 F1500.00
G1 X23.4900 Y9.2600 Z7.6000 F1500.00
G3 X23.2500 Y9.7071 Z7.6000 I-0.5579 J-0.0115 F1500.00
G1 X23.2500 Y14.5000 Z7.6000 F1500.00
G1 X23.2500 Y15.0000 Z7.6000 F1500.00
G1 X23.2500 Y14.5000 Z7.6000 F1500.00
G1 X23.7500 Y14.5000 Z7.6000 F1500.00
G1 X23.7500 Y14.5000 Z7.6000 F1500.00
G1 X23.7500 Y15.0000 Z7.6000 F1500.00
G1 X23.7500 Y14.5000 Z7.6000 F1500.00
G1 X23.7500 Y9.7071 Z7.6000 F1500.00
G3 X23.5100 Y9.2600 Z7.6000 I0.4197 J-0.5133 F1500.00
G1 X23.5100 Y3.6000 Z7.6000 F1500.00
G3 X24.0100 Y3.1000 Z7.6000 I0.5000 J0.0000 F1500.00
G1 X26.9900 Y3.1000 Z7.6000 F1500.00
G3 X28.4857 Y4.5347 Z7.6000 I-0.0052 J1.5024 F1500.00
G1 X28.4900 Y9.2600 Z7.6000 F1500.00
G3 X28.2500 Y9.7071 Z7.6000 I-0.5579 J-0.0115 F1500.00
G1 X28.2500 Y14.4775 Z7.6000 F1500.00
G1 X28.2500 Y14.9775 Z7.6000 F1500.00
G1 X28.2500 Y14.4775 Z7.6000 F1500.00
G1 X28.2814 Y14.5000 Z7.6000 F1500.00
G1 X28.2814 Y14.5000 Z7.6000 F1500.00
G1 X28.7500 Y14.5000 Z7.6000 F1500.00
G1 X28.7500 Y14.5000 Z7.6000 F1500.00
G1 X28.7500 Y15.0000 Z7.6000 F1500.00
G1 X28.7500 Y14.5000 Z7.6000 F1500.00
G1 X28.7500 Y14.5000 Z7.4000 F300.00
G1 X28.7500 Y9.7071 Z7.4000 F1500.00
G3 X28.5100 Y9.2600 Z7.4000 I0.4197 J-0.5133 F1500.00
G1 X28.5100 Y3.8246 Z7.4000 F1500.00
G2 X27.1854 Y2.5000 Z7.4000 I-1.3062 J-0.0184 F1500.00
G1 X0.5000 Y2.5000 Z7.4000 F1500.00
G1 X0.5000 Y3.1000 Z7.4000 F1500.00
G1 X0.5000 Y3.1000 Z7.4000 F1500.00
G1 X16.9900 Y3.1000 Z7.4000 F1500.00
G3 X18.4857 Y4.5347 Z7.4000 I-0.0052 J1.5024 F1500.00
G1 X18.4900 Y9.2600 Z7.4000 F1500.00
G3 X18.2500 Y9.7071 Z7.4000 I-0.5579 J-0.0115 F1500.00
G1 X18.2500 Y14.5000 Z7.4000 F1500.00
G1 X18.2500 Y15.0000 Z7.4000 F1500.00
G1 X18.2500 Y14.5000 Z7.4000 F1500.00
G1 X18.7188 Y14.5000 Z7.4000 F1500.00
G1 X18.7188 Y14.5000 Z7.4000 F1500.00
G1 X18.7500 Y14.4771 Z7.4000 F1500.00
G1 X18.7500 Y14.4771 Z7.4000 F1500.00
G1 X18.7500 Y14.9771 Z7.4000 F1500.00
G1 X18.7500 Y14.4771 Z7.4000 F1500.00
G1 X18.7500 Y9.7071 Z7.4000 F1500.00
G3 X18.5100 Y9.2600 Z7.4000 I0.4197 J-0.5133 F1500.00
G1 X18.5100 Y3.6000 Z7.4000 F1500.00
G3 X19.0100 Y3.1000 Z7.4000 I0.5000 J0.0000 F1500.00
G1 X21.9900 Y3.1000 Z7.4000 F1500.00
G3 X23.4857 Y4.5347 Z7.4000 I-0.0052 J1.5024 F1500.00
G1 X23.4900 Y9.2600 Z7.4000 F1500.00
G3 X23.2500 Y9.7071 Z7.4000 I-0.5579 J-0.0115 F1500.00
G1 X23.2500 Y14.5000 Z7.4000 F1500.00
G1 X23.2500 Y15.0000 Z7.4000 F1500.00
G1 X23.2500 Y14.5000 Z7.4000 F1500.00
G1 X23.7500 Y14.5000 Z7.4000 F1500.00
G1 X23.7500 Y14.5000 Z7.4000 F1500.00
G1 X23.7500 Y15.0000 Z7.4000 F1500.00
G1 X23.7500 Y14.5000 Z7.4000 F1500.00
G1 X23.7500 Y9.7071 Z7.4000 F1500.00
G3 X23.5100 Y9.2600 Z7.4000 I0.4197 J-0.5133 F1500.00
G1 X23.5100 Y3.6000 Z7.4000 F1500.00
G3 X24.0100 Y3.1000 Z7.4000 I0.5000 J0.0000 F1500.00
G1 X26.9900 Y3.1000 Z7.4000 F1500.00
G3 X28.4857 Y4.5347 Z7.4000 I-0.0052 J1.5024 F1500.00
G1 X28.4900 Y9.2600 Z7.4000 F1500.00
G3 X28.2500 Y9.7071 Z7.4000 I-0.5579 J-0.0115 F1500.00
G1 X28.2500 Y14.4775 Z7.4000 F1500.00
G1 X28.2500 Y14.9775 Z7.4000 F1500.00
G1 X28.2500 Y14.4775 Z7.4000 F1500.00
G1 X28.2814 Y14.5000 Z7.4000 F1500.00
G1 X28.2814 Y14.5000 Z7.4000 F1500.00
G1 X28.7500 Y14.5000 Z7.4000 F1500.00
G1 X28.7500 Y14.5000 Z7.4000 F1500.00
G1 X28.7500 Y15.0000 Z7.4000 F1500.00
G1 X28.7500 Y14.5000 Z7.4000 F1500.00
G1 X28.7500 Y14.5000 Z7.2000 F300.00
G1 X28.7500 Y9.7071 Z7.2000 F1500.00
G3 X28.5100 Y9.2600 Z7.2000 I0.4197 J-0.5133 F1500.00
G1 X28.5100 Y3.8246 Z7.2000 F1500.00
G2 X27.1854 Y2.5000 Z7.2000 I-1.3062 J-0.0184 F1500.00
G1 X0.5000 Y2.5000 Z7.2000 F1500.00
G1 X0.5000 Y3.1000 Z7.2000 F1500.00
G1 X0.5000 Y3.1000 Z7.2000 F1500.00
G1 X16.9900 Y3.1000 Z7.2000 F1500.00
G3 X18.4857 Y4.5347 Z7.2000 I-0.0052 J1.5024 F1500.00
G1 X18.4900 Y9.2600 Z7.2000 F1500.00
G3 X18.2500 Y9.7071 Z7.2000 I-0.5579 J-0.0115 F1500.00
G1 X18.2500 Y14.5000 Z7.2000 F1500.00
G1 X18.2500 Y15.0000 Z7.2000 F1500.00
G1 X18.2500 Y14.5000 Z7.2000 F1500.00
G1 X18.7188 Y14.5000 Z7.2000 F1500.00
G1 X18.7188 Y14.5000 Z7.2000 F1500.00
G1 X18.7500 Y14.4771 Z7.2000 F1500.00
G1 X18.7500 Y14.4771 Z7.2000 F1500.00
G1 X18.7500 Y14.9771 Z7.2000 F1500.00
G1 X18.7500 Y14.4771 Z7.2000 F1500.00
G1 X18.7500 Y9.7071 Z7.2000 F1500.00
G3 X18.5100 Y9.2600 Z7.2000 I0.4197 J-0.5133 F1500.00
G1 X18.5100 Y3.6000 Z7.2000 F1500.00
G3 X19.0100 Y3.1000 Z7.2000 I0.5000 J0.0000 F1500.00
G1 X21.9900 Y3.1000 Z7.2000 F1500.00
G3 X23.4857 Y4.5347 Z7.2000 I-0.0052 J1.5024 F1500.00
G1 X23.4900 Y9.2600 Z7.2000 F1500.00
G3 X23.2500 Y9.7071 Z7.2000 I-0.5579 J-0.0115 F1500.00
G1 X23.2500 Y14.5000 Z7.2000 F1500.00
G1 X23.2500 Y15.0000 Z7.2000 F1500.00
G1 X23.2500 Y14.5000 Z7.2000 F1500.00
G1 X23.7500 Y14.5000 Z7.2000 F1500.00
G1 X23.7500 Y14.5000 Z7.2000 F1500.00
G1 X23.7500 Y15.0000 Z7.2000 F1500.00
G1 X23.7500 Y14.5000 Z7.2000 F1500.00
G1 X23.7500 Y9.7071 Z7.2000 F1500.00
G3 X23.5100 Y9.2600 Z7.2000 I0.4197 J-0.5133 F1500.00
G1 X23.5100 Y3.6000 Z7.2000 F1500.00
G3 X24.0100 Y3.1000 Z7.2000 I0.5000 J0.0000 F1500.00
G1 X26.9900 Y3.1000 Z7.2000 F1500.00
G3 X28.4857 Y4.5347 Z7.2000 I-0.0052 J1.5024 F1500.00
G1 X28.4900 Y9.2600 Z7.2000 F1500.00
G3 X28.2500 Y9.7071 Z7.2000 I-0.5579 J-0.0115 F1500.00
G1 X28.2500 Y14.4775 Z7.2000 F1500.00
G1 X28.2500 Y14.9775 Z7.2000 F1500.00
G1 X28.2500 Y14.4775 Z7.2000 F1500.00
G1 X28.2814 Y14.5000 Z7.2000 F1500.00
G1 X28.2814 Y14.5000 Z7.2000 F1500.00
G1 X28.7500 Y14.5000 Z7.2000 F1500.00
G1 X28.7500 Y14.5000 Z7.2000 F1500.00
G1 X28.7500 Y15.0000 Z7.2000 F1500.00
G1 X28.7500 Y14.5000 Z7.2000 F1500.00
G1 X28.7500 Y14.5000 Z7.0000 F300.00
G1 X28.7500 Y9.7071 Z7.0000 F1500.00
G3 X28.5100 Y9.2600 Z7.0000 I0.4197 J-0.5133 F1500.00
G1 X28.5100 Y3.8246 Z7.0000 F1500.00
G2 X27.1854 Y2.5000 Z7.0000 I-1.3062 J-0.0184 F1500.00
G1 X0.5000 Y2.5000 Z7.0000 F1500.00
G1 X0.5000 Y3.1000 Z7.0000 F1500.00
G1 X0.5000 Y3.1000 Z7.0000 F1500.00
G1 X16.9900 Y3.1000 Z7.0000 F1500.00
G3 X18.4857 Y4.5347 Z7.0000 I-0.0052 J1.5024 F1500.00
G1 X18.4900 Y9.2600 Z7.0000 F1500.00
G3 X18.2500 Y9.7071 Z7.0000 I-0.5579 J-0.0115 F1500.00
G1 X18.2500 Y14.5000 Z7.0000 F1500.00
G1 X18.2500 Y15.0000 Z7.0000 F1500.00
G1 X18.2500 Y14.5000 Z7.0000 F1500.00
G1 X18.7188 Y14.5000 Z7.0000 F1500.00
G1 X18.7188 Y14.5000 Z7.0000 F1500.00
G1 X18.7500 Y14.4771 Z7.0000 F1500.00
G1 X18.7500 Y14.4771 Z7.0000 F1500.00
G1 X18.7500 Y14.9771 Z7.0000 F1500.00
G1 X18.7500 Y14.4771 Z7.0000 F1500.00
G1 X18.7500 Y9.7071 Z7.0000 F1500.00
G3 X18.5100 Y9.2600 Z7.0000 I0.4197 J-0.5133 F1500.00
G1 X18.5100 Y3.6000 Z7.0000 F1500.00
G3 X19.0100 Y3.1000 Z7.0000 I0.5000 J0.0000 F1500.00
G1 X21.9900 Y3.1000 Z7.0000 F1500.00
G3 X23.4857 Y4.5347 Z7.0000 I-0.0052 J1.5024 F1500.00
G1 X23.4900 Y9.2600 Z7.0000 F1500.00
G3 X23.2500 Y9.7071 Z7.0000 I-0.5579 J-0.0115 F1500.00
G1 X23.2500 Y14.5000 Z7.0000 F1500.00
G1 X23.2500 Y15.0000 Z7.0000 F1500.00
G1 X23.2500 Y14.5000 Z7.0000 F1500.00
G1 X23.7500 Y14.5000 Z7.0000 F1500.00
G1 X23.7500 Y14.5000 Z7.0000 F1500.00
G1 X23.7500 Y15.0000 Z7.0000 F1500.00
G1 X23.7500 Y14.5000 Z7.0000 F1500.00
G1 X23.7500 Y9.7071 Z7.0000 F1500.00
G3 X23.5100 Y9.2600 Z7.0000 I0.4197 J-0.5133 F1500.00
G1 X23.5100 Y3.6000 Z7.0000 F1500.00
G3 X24.0100 Y3.1000 Z7.0000 I0.5000 J0.0000 F1500.00
G1 X26.9900 Y3.1000 Z7.0000 F1500.00
G3 X28.4857 Y4.5347 Z7.0000 I-0.0052 J1.5024 F1500.00
G1 X28.4900 Y9.2600 Z7.0000 F1500.00
G3 X28.2500 Y9.7071 Z7.0000 I-0.5579 J-0.0115 F1500.00
G1 X28.2500 Y14.4775 Z7.0000 F1500.00
G1 X28.2500 Y14.9775 Z7.0000 F1500.00
G1 X28.2500 Y14.4775 Z7.0000 F1500.00
G1 X28.2814 Y14.5000 Z7.0000 F1500.00
G1 X28.2814 Y14.5000 Z7.0000 F1500.00
G1 X28.7500 Y14.5000 Z7.0000 F1500.00
G1 X28.7500 Y14.5000 Z7.0000 F1500.00
G1 X28.7500 Y15.0000 Z7.0000 F1500.00
G1 X28.7500 Y14.5000 Z7.0000 F1500.00
G1 X28.7500 Y14.5000 Z6.8000 F300.00
G1 X28.7500 Y9.7071 Z6.8000 F1500.00
G3 X28.5100 Y9.2600 Z6.8000 I0.4197 J-0.5133 F1500.00
G1 X28.5100 Y3.8246 Z6.8000 F1500.00
G2 X27.1854 Y2.5000 Z6.8000 I-1.3062 J-0.0184 F1500.00
G1 X0.5000 Y2.5000 Z6.8000 F1500.00
G1 X0.5000 Y3.1000 Z6.8000 F1500.00
G1 X0.5000 Y3.1000 Z6.8000 F1500.00
G1 X16.9900 Y3.1000 Z6.8000 F1500.00
G3 X18.4857 Y4.5347 Z6.8000 I-0.0052 J1.5024 F1500.00
G1 X18.4900 Y9.2600 Z6.8000 F1500.00
G3 X18.2500 Y9.7071 Z6.8000 I-0.5579 J-0.0115 F1500.00
G1 X18.2500 Y14.5000 Z6.8000 F1500.00
G1 X18.2500 Y15.0000 Z6.8000 F1500.00
G1 X18.2500 Y14.5000 Z6.8000 F1500.00
G1 X18.7188 Y14.5000 Z6.8000 F1500.00
G1 X18.7188 Y14.5000 Z6.8000 F1500.00
G1 X18.7500 Y14.4771 Z6.8000 F1500.00
G1 X18.7500 Y14.4771 Z6.8000 F1500.00
G1 X18.7500 Y14.9771 Z6.8000 F1500.00
G1 X18.7500 Y14.4771 Z6.8000 F1500.00
G1 X18.7500 Y9.7071 Z6.8000 F1500.00
G3 X18.5100 Y9.2600 Z6.8000 I0.4197 J-0.5133 F1500.00
G1 X18.5100 Y3.6000 Z6.8000 F1500.00
G3 X19.0100 Y3.1000 Z6.8000 I0.5000 J0.0000 F1500.00
G1 X21.9900 Y3.1000 Z6.8000 F1500.00
G3 X23.4857 Y4.5347 Z6.8000 I-0.0052 J1.5024 F1500.00
G1 X23.4900 Y9.2600 Z6.8000 F1500.00
G3 X23.2500 Y9.7071 Z6.8000 I-0.5579 J-0.0115 F1500.00
G1 X23.2500 Y14.5000 Z6.8000 F1500.00
G1 X23.2500 Y15.0000 Z6.8000 F1500.00
G1 X23.2500 Y14.5000 Z6.8000 F1500.00
G1 X23.7500 Y14.5000 Z6.8000 F1500.00
G1 X23.7500 Y14.5000 Z6.8000 F1500.00
G1 X23.7500 Y15.0000 Z6.8000 F1500.00
G1 X23.7500 Y14.5000 Z6.8000 F1500.00
G1 X23.7500 Y9.7071 Z6.8000 F1500.00
G3 X23.5100 Y9.2600 Z6.8000 I0.4197 J-0.5133 F1500.00
G1 X23.5100 Y3.6000 Z6.8000 F1500.00
G3 X24.0100 Y3.1000 Z6.8000 I0.5000 J0.0000 F1500.00
G1 X26.9900 Y3.1000 Z6.8000 F1500.00
G3 X28.4857 Y4.5347 Z6.8000 I-0.0052 J1.5024 F1500.00
G1 X28.4900 Y9.2600 Z6.8000 F1500.00
G3 X28.2500 Y9.7071 Z6.8000 I-0.5579 J-0.0115 F1500.00
G1 X28.2500 Y14.4775 Z6.8000 F1500.00
G1 X28.2500 Y14.9775 Z6.8000 F1500.00
G1 X28.2500 Y14.4775 Z6.8000 F1500.00
G1 X28.2814 Y14.5000 Z6.8000 F1500.00
G1 X28.2814 Y14.5000 Z6.8000 F1500.00
G1 X28.7500 Y14.5000 Z6.8000 F1500.00
G1 X28.7500 Y14.5000 Z6.8000 F1500.00
G1 X28.7500 Y15.0000 Z6.8000 F1500.00
G1 X28.7500 Y14.5000 Z6.8000 F1500.00
G1 X28.7500 Y14.5000 Z6.6000 F300.00
G1 X28.7500 Y9.7071 Z6.6000 F1500.00
G3 X28.5100 Y9.2600 Z6.6000 I0.4197 J-0.5133 F1500.00
G1 X28.5100 Y3.8246 Z6.6000 F1500.00
G2 X27.1854 Y2.5000 Z6.6000 I-1.3062 J-0.0184 F1500.00
G1 X0.5000 Y2.5000 Z6.6000 F1500.00
G1 X0.5000 Y3.1000 Z6.6000 F1500.00
G1 X0.5000 Y3.1000 Z6.6000 F1500.00
G1 X16.9900 Y3.1000 Z6.6000 F1500.00
G3 X18.4857 Y4.5347 Z6.6000 I-0.0052 J1.5024 F1500.00
G1 X18.4900 Y9.2600 Z6.6000 F1500.00
G3 X18.2500 Y9.7071 Z6.6000 I-0.5579 J-0.0115 F1500.00
G1 X18.2500 Y14.5000 Z6.6000 F1500.00
G1 X18.2500 Y15.0000 Z6.6000 F1500.00
G1 X18.2500 Y14.5000 Z6.6000 F1500.00
G1 X18.7188 Y14.5000 Z6.6000 F1500.00
G1 X18.7188 Y14.5000 Z6.6000 F1500.00
G1 X18.7500 Y14.4771 Z6.6000 F1500.00
G1 X18.7500 Y14.4771 Z6.6000 F1500.00
G1 X18.7500 Y14.9771 Z6.6000 F1500.00
G1 X18.7500 Y14.4771 Z6.6000 F1500.00
G1 X18.7500 Y9.7071 Z6.6000 F1500.00
G3 X18.5100 Y9.2600 Z6.6000 I0.4197 J-0.5133 F1500.00
G1 X18.5100 Y3.6000 Z6.6000 F1500.00
G3 X19.0100 Y3.1000 Z6.6000 I0.5000 J0.0000 F1500.00
G1 X21.9900 Y3.1000 Z6.6000 F1500.00
G3 X23.4857 Y4.5347 Z6.6000 I-0.0052 J1.5024 F1500.00
G1 X23.4900 Y9.2600 Z6.6000 F1500.00
G3 X23.2500 Y9.7071 Z6.6000 I-0.5579 J-0.0115 F1500.00
G1 X23.2500 Y14.5000 Z6.6000 F1500.00
G1 X23.2500 Y15.0000 Z6.6000 F1500.00
G1 X23.2500 Y14.5000 Z6.6000 F1500.00
G1 X23.7500 Y14.5000 Z6.6000 F1500.00
G1 X23.7500 Y14.5000 Z6.6000 F1500.00
G1 X23.7500 Y15.0000 Z6.6000 F1500.00
G1 X23.7500 Y14.5000 Z6.6000 F1500.00
G1 X23.7500 Y9.7071 Z6.6000 F1500.00
G3 X23.5100 Y9.2600 Z6.6000 I0.4197 J-0.5133 F1500.00
G1 X23.5100 Y3.6000 Z6.6000 F1500.00
G3 X24.0100 Y3.1000 Z6.6000 I0.5000 J0.0000 F1500.00
G1 X26.9900 Y3.1000 Z6.6000 F1500.00
G3 X28.4857 Y4.5347 Z6.6000 I-0.0052 J1.5024 F1500.00
G1 X28.4900 Y9.2600 Z6.6000 F1500.00
G3 X28.2500 Y9.7071 Z6.6000 I-0.5579 J-0.0115 F1500.00
G1 X28.2500 Y14.4775 Z6.6000 F1500.00
G1 X28.2500 Y14.9775 Z6.6000 F1500.00
G1 X28.2500 Y14.4775 Z6.6000 F1500.00
G1 X28.2814 Y14.5000 Z6.6000 F1500.00
G1 X28.2814 Y14.5000 Z6.6000 F1500.00
G1 X28.7500 Y14.5000 Z6.6000 F1500.00
G1 X28.7500 Y14.5000 Z6.6000 F1500.00
G1 X28.7500 Y15.0000 Z6.6000 F1500.00
G1 X28.7500 Y14.5000 Z6.6000 F1500.00
G1 X28.7500 Y14.5000 Z6.4000 F300.00
G1 X28.7500 Y9.7071 Z6.4000 F1500.00
G3 X28.5100 Y9.2600 Z6.4000 I0.4197 J-0.5133 F1500.00
G1 X28.5100 Y3.8246 Z6.4000 F1500.00
G2 X27.1854 Y2.5000 Z6.4000 I-1.3062 J-0.0184 F1500.00
G1 X0.5000 Y2.5000 Z6.4000 F1500.00
G1 X0.5000 Y3.1000 Z6.4000 F1500.00
G1 X0.5000 Y3.1000 Z6.4000 F1500.00
G1 X16.9900 Y3.1000 Z6.4000 F1500.00
G3 X18.4857 Y4.5347 Z6.4000 I-0.0052 J1.5024 F1500.00
G1 X18.4900 Y9.2600 Z6.4000 F1500.00
G3 X18.2500 Y9.7071 Z6.4000 I-0.5579 J-0.0115 F1500.00
G1 X18.2500 Y14.5000 Z6.4000 F1500.00
G1 X18.2500 Y15.0000 Z6.4000 F1500.00
G1 X18.2500 Y14.5000 Z6.4000 F1500.00
G1 X18.7188 Y14.5000 Z6.4000 F1500.00
G1 X18.7188 Y14.5000 Z6.4000 F1500.00
G1 X18.7500 Y14.4771 Z6.4000 F1500.00
G1 X18.7500 Y14.4771 Z6.4000 F1500.00
G1 X18.7500 Y14.9771 Z6.4000 F1500.00
G1 X18.7500 Y14.4771 Z6.4000 F1500.00
G1 X18.7500 Y9.7071 Z6.4000 F1500.00
G3 X18.5100 Y9.2600 Z6.4000 I0.4197 J-0.5133 F1500.00
G1 X18.5100 Y3.6000 Z6.4000 F1500.00
G3 X19.0100 Y3.1000 Z6.4000 I0.5000 J0.0000 F1500.00
G1 X21.9900 Y3.1000 Z6.4000 F1500.00
G3 X23.4857 Y4.5347 Z6.4000 I-0.0052 J1.5024 F1500.00
G1 X23.4900 Y9.2600 Z6.4000 F1500.00
G3 X23.2500 Y9.7071 Z6.4000 I-0.5579 J-0.0115 F1500.00
G1 X23.2500 Y14.5000 Z6.4000 F1500.00
G1 X23.2500 Y15.0000 Z6.4000 F1500.00
G1 X23.2500 Y14.5000 Z6.4000 F1500.00
G1 X23.7500 Y14.5000 Z6.4000 F1500.00
G1 X23.7500 Y14.5000 Z6.4000 F1500.00
G1 X23.7500 Y15.0000 Z6.4000 F1500.00
G1 X23.7500 Y14.5000 Z6.4000 F1500.00
G1 X23.7500 Y9.7071 Z6.4000 F1500.00
G3 X23.5100 Y9.2600 Z6.4000 I0.4197 J-0.5133 F1500.00
G1 X23.5100 Y3.6000 Z6.4000 F1500.00
G3 X24.0100 Y3.1000 Z6.4000 I0.5000 J0.0000 F1500.00
G1 X26.9900 Y3.1000 Z6.4000 F1500.00
G3 X28.4857 Y4.5347 Z6.4000 I-0.0052 J1.5024 F1500.00
G1 X28.4900 Y9.2600 Z6.4000 F1500.00
G3 X28.2500 Y9.7071 Z6.4000 I-0.5579 J-0.0115 F1500.00
G1 X28.2500 Y14.4775 Z6.4000 F1500.00
G1 X28.2500 Y14.9775 Z6.4000 F1500.00
G1 X28.2500 Y14.4775 Z6.4000 F1500.00
G1 X28.2814 Y14.5000 Z6.4000 F1500.00
G1 X28.2814 Y14.5000 Z6.4000 F1500.00
G1 X28.7500 Y14.5000 Z6.4000 F1500.00
G1 X28.7500 Y14.5000 Z6.4000 F1500.00
G1 X28.7500 Y15.0000 Z6.4000 F1500.00
G1 X28.7500 Y14.5000 Z6.4000 F1500.00
G1 X28.7500 Y14.5000 Z6.2000 F300.00
G1 X28.7500 Y9.7071 Z6.2000 F1500.00
G3 X28.5100 Y9.2600 Z6.2000 I0.4197 J-0.5133 F1500.00
G1 X28.5100 Y3.8246 Z6.2000 F1500.00
G2 X27.1854 Y2.5000 Z6.2000 I-1.3062 J-0.0184 F1500.00
G1 X0.5000 Y2.5000 Z6.2000 F1500.00
G1 X0.5000 Y3.1000 Z6.2000 F1500.00
G1 X0.5000 Y3.1000 Z6.2000 F1500.00
G1 X16.9900 Y3.1000 Z6.2000 F1500.00
G3 X18.4857 Y4.5347 Z6.2000 I-0.0052 J1.5024 F1500.00
G1 X18.4900 Y9.2600 Z6.2000 F1500.00
G3 X18.2500 Y9.7071 Z6.2000 I-0.5579 J-0.0115 F1500.00
G1 X18.2500 Y14.5000 Z6.2000 F1500.00
G1 X18.2500 Y15.0000 Z6.2000 F1500.00
G1 X18.2500 Y14.5000 Z6.2000 F1500.00
G1 X18.7188 Y14.5000 Z6.2000 F1500.00
G1 X18.7188 Y14.5000 Z6.2000 F1500.00
G1 X18.7500 Y14.4771 Z6.2000 F1500.00
G1 X18.7500 Y14.4771 Z6.2000 F1500.00
G1 X18.7500 Y14.9771 Z6.2000 F1500.00
G1 X18.7500 Y14.4771 Z6.2000 F1500.00
G1 X18.7500 Y9.7071 Z6.2000 F1500.00
G3 X18.5100 Y9.2600 Z6.2000 I0.4197 J-0.5133 F1500.00
G1 X18.5100 Y3.6000 Z6.2000 F1500.00
G3 X19.0100 Y3.1000 Z6.2000 I0.5000 J0.0000 F1500.00
G1 X21.9900 Y3.1000 Z6.2000 F1500.00
G3 X23.4857 Y4.5347 Z6.2000 I-0.0052 J1.5024 F1500.00
G1 X23.4900 Y9.2600 Z6.2000 F1500.00
G3 X23.2500 Y9.7071 Z6.2000 I-0.5579 J-0.0115 F1500.00
G1 X23.2500 Y14.5000 Z6.2000 F1500.00
G1 X23.2500 Y15.0000 Z6.2000 F1500.00
G1 X23.2500 Y14.5000 Z6.2000 F1500.00
G1 X23.7500 Y14.5000 Z6.2000 F1500.00
G1 X23.7500 Y14.5000 Z6.2000 F1500.00
G1 X23.7500 Y15.0000 Z6.2000 F1500.00
G1 X23.7500 Y14.5000 Z6.2000 F1500.00
G1 X23.7500 Y9.7071 Z6.2000 F1500.00
G3 X23.5100 Y9.2600 Z6.2000 I0.4197 J-0.5133 F1500.00
G1 X23.5100 Y3.6000 Z6.2000 F1500.00
G3 X24.0100 Y3.1000 Z6.2000 I0.5000 J0.0000 F1500.00
G1 X26.9900 Y3.1000 Z6.2000 F1500.00
G3 X28.4857 Y4.5347 Z6.2000 I-0.0052 J1.5024 F1500.00
G1 X28.4900 Y9.2600 Z6.2000 F1500.00
G3 X28.2500 Y9.7071 Z6.2000 I-0.5579 J-0.0115 F1500.00
G1 X28.2500 Y14.4775 Z6.2000 F1500.00
G1 X28.2500 Y14.9775 Z6.2000 F1500.00
G1 X28.2500 Y14.4775 Z6.2000 F1500.00
G1 X28.2814 Y14.5000 Z6.2000 F1500.00
G1 X28.2814 Y14.5000 Z6.2000 F1500.00
G1 X28.7500 Y14.5000 Z6.2000 F1500.00
G1 X28.7500 Y14.5000 Z6.2000 F1500.00
G1 X28.7500 Y15.0000 Z6.2000 F1500.00
G1 X28.7500 Y14.5000 Z6.2000 F1500.00
G1 X28.7500 Y14.5000 Z6.0000 F300.00
G1 X28.7500 Y9.7071 Z6.0000 F1500.00
G3 X28.5100 Y9.2600 Z6.0000 I0.4197 J-0.5133 F1500.00
G1 X28.5100 Y3.8246 Z6.0000 F1500.00
G2 X27.1854 Y2.5000 Z6.0000 I-1.3062 J-0.0184 F1500.00
G1 X0.5000 Y2.5000 Z6.0000 F1500.00
G1 X0.5000 Y3.1000 Z6.0000 F1500.00
G1 X0.5000 Y3.1000 Z6.0000 F1500.00
G1 X16.9900 Y3.1000 Z6.0000 F1500.00
G3 X18.4857 Y4.5347 Z6.0000 I-0.0052 J1.5024 F1500.00
G1 X18.4900 Y9.2600 Z6.0000 F1500.00
G3 X18.2500 Y9.7071 Z6.0000 I-0.5579 J-0.0115 F1500.00
G1 X18.2500 Y14.5000 Z6.0000 F1500.00
G1 X18.2500 Y15.0000 Z6.0000 F1500.00
G1 X18.2500 Y14.5000 Z6.0000 F1500.00
G1 X18.7188 Y14.5000 Z6.0000 F1500.00
G1 X18.7188 Y14.5000 Z6.0000 F1500.00
G1 X18.7500 Y14.4771 Z6.0000 F1500.00
G1 X18.7500 Y14.4771 Z6.0000 F1500.00
G1 X18.7500 Y14.9771 Z6.0000 F1500.00
G1 X18.7500 Y14.4771 Z6.0000 F1500.00
G1 X18.7500 Y9.7071 Z6.0000 F1500.00
G3 X18.5100 Y9.2600 Z6.0000 I0.4197 J-0.5133 F1500.00
G1 X18.5100 Y3.6000 Z6.0000 F1500.00
G3 X19.0100 Y3.1000 Z6.0000 I0.5000 J0.0000 F1500.00
G1 X21.9900 Y3.1000 Z6.0000 F1500.00
G3 X23.4857 Y4.5347 Z6.0000 I-0.0052 J1.5024 F1500.00
G1 X23.4900 Y9.2600 Z6.0000 F1500.00
G3 X23.2500 Y9.7071 Z6.0000 I-0.5579 J-0.0115 F1500.00
G1 X23.2500 Y14.5000 Z6.0000 F1500.00
G1 X23.2500 Y15.0000 Z6.0000 F1500.00
G1 X23.2500 Y14.5000 Z6.0000 F1500.00
G1 X23.7500 Y14.5000 Z6.0000 F1500.00
G1 X23.7500 Y14.5000 Z6.0000 F1500.00
G1 X23.7500 Y15.0000 Z6.0000 F1500.00
G1 X23.7500 Y14.5000 Z6.0000 F1500.00
G1 X23.7500 Y9.7071 Z6.0000 F1500.00
G3 X23.5100 Y9.2600 Z6.0000 I0.4197 J-0.5133 F1500.00
G1 X23.5100 Y3.6000 Z6.0000 F1500.00
G3 X24.0100 Y3.1000 Z6.0000 I0.5000 J0.0000 F1500.00
G1 X26.9900 Y3.1000 Z6.0000 F1500.00
G3 X28.4857 Y4.5347 Z6.0000 I-0.0052 J1.5024 F1500.00
G1 X28.4900 Y9.2600 Z6.0000 F1500.00
G3 X28.2500 Y9.7071 Z6.0000 I-0.5579 J-0.0115 F1500.00
G1 X28.2500 Y14.4775 Z6.0000 F1500.00
G1 X28.2500 Y14.9775 Z6.0000 F1500.00
G1 X28.2500 Y14.4775 Z6.0000 F1500.00
G1 X28.2814 Y14.5000 Z6.0000 F1500.00
G1 X28.2814 Y14.5000 Z6.0000 F1500.00
G1 X28.7500 Y14.5000 Z6.0000 F1500.00
G1 X28.7500 Y14.5000 Z6.0000 F1500.00
G1 X28.7500 Y15.0000 Z6.0000 F1500.00
G1 X28.7500 Y14.5000 Z6.0000 F1500.00
G0 Z15.0000
(finish operation: CableGuide)
(begin operation: SwitchBed)
(Path: SwitchBed)
(Pocket_Shape)
G0 Z15.0000
G0 X29.5000 Y21.0000
G0 Z13.0000
G1 X29.5000 Y21.0000 Z9.8000 F300.00
G1 X17.5000 Y21.0000 Z9.8000 F1500.00
G1 X17.3536 Y21.1464 Z9.8000 F1500.00
G1 X17.5000 Y21.0000 Z9.8000 F1500.00
G1 X17.5000 Y15.5000 Z9.8000 F1500.00
G1 X17.5000 Y15.5000 Z9.8000 F1500.00
G1 X17.3536 Y15.3536 Z9.8000 F1500.00
G1 X17.5000 Y15.5000 Z9.8000 F1500.00
G1 X18.8899 Y15.5000 Z9.8000 F1500.00
G2 X19.4443 Y15.2199 Z9.8000 I-0.1626 J-1.0108 F1500.00
G3 X21.3211 Y15.4080 Z9.8000 I0.8081 J1.3938 F1500.00
G2 X21.6101 Y15.5000 Z9.8000 I0.2891 J-0.4080 F1500.00
G1 X25.3899 Y15.5000 Z9.8000 F1500.00
G2 X25.9443 Y15.2199 Z9.8000 I-0.1626 J-1.0108 F1500.00
G3 X27.3014 Y15.1001 Z9.8000 I0.8057 J1.3801 F1500.00
G3 X27.8211 Y15.4080 Z9.8000 I-0.6051 J1.6139 F1500.00
G2 X28.1101 Y15.5000 Z9.8000 I0.2891 J-0.4080 F1500.00
G1 X29.5000 Y15.5000 Z9.8000 F1500.00
G1 X29.6464 Y15.3536 Z9.8000 F1500.00
G1 X29.5000 Y15.5000 Z9.8000 F1500.00
G1 X29.5000 Y21.0000 Z9.8000 F1500.00
G1 X29.5000 Y21.0000 Z9.8000 F1500.00
G1 X29.6464 Y21.1464 Z9.8000 F1500.00
G1 X29.5000 Y21.0000 Z9.8000 F1500.00
G0 X29.5000 Y21.0000 Z15.0000
G0 X28.9000 Y20.4000 Z15.0000
G1 X28.9000 Y20.4000 Z9.8000 F300.00
G1 X18.1000 Y20.4000 Z9.8000 F1500.00
G1 X18.1000 Y16.1000 Z9.8000 F1500.00
G1 X18.1000 Y16.1000 Z9.8000 F1500.00
G1 X18.2196 Y16.1000 Z9.8000 F1500.00
G2 X22.2322 Y17.2798 Z9.8000 I2.0318 J0.5030 F1500.00
G2 X22.2804 Y16.1000 Z9.8000 I-1.8944 J-0.6682 F1500.00
G1 X24.7196 Y16.1000 Z9.8000 F1500.00
G2 X28.7322 Y17.2798 Z9.8000 I2.0318 J0.5030 F1500.00
G2 X28.7804 Y16.1000 Z9.8000 I-1.8944 J-0.6682 F1500.00
G1 X28.9000 Y16.1000 Z9.8000 F1500.00
G1 X28.9000 Y20.4000 Z9.8000 F1500.00
G1 X28.9000 Y20.4000 Z9.8000 F1500.00
G0 X28.9000 Y20.4000 Z15.0000
G0 X28.3000 Y19.8000 Z15.0000
G1 X28.3000 Y19.8000 Z9.8000 F300.00
G1 X18.7000 Y19.8000 Z9.8000 F1500.00
G1 X18.7000 Y18.8031 Z9.8000 F1500.00
G2 X22.9355 Y16.7000 Z9.8000 I1.5501 J-2.1947 F1500.00
G1 X24.0645 Y16.7000 Z9.8000 F1500.00
G2 X28.3000 Y18.8031 Z9.8000 I2.6853 J-0.0915 F1500.00
G1 X28.3000 Y19.8000 Z9.8000 F1500.00
G0 X28.3000 Y19.8000 Z15.0000
G0 X27.4026 Y17.9474 Z15.0000
G1 X27.4026 Y17.9474 Z9.8000 F300.00
G3 X27.2002 Y18.0279 Z9.8000 I-0.6526 J-1.3474 F1500.00
G3 X26.2998 Y15.1721 Z9.8000 I-0.4502 J-1.4279 F1500.00
G3 X27.4026 Y17.9474 Z9.8000 I0.4502 J1.4279 F1500.00
G0 X27.4026 Y17.9474 Z15.0000
G0 X24.7316 Y19.2000 Z15.0000
G1 X24.7316 Y19.2000 Z9.8000 F300.00
G1 X22.2684 Y19.2000 Z9.8000 F1500.00
G2 X23.4585 Y17.3000 Z9.8000 I-1.9437 J-2.5401 F1500.00
G1 X23.5415 Y17.3000 Z9.8000 F1500.00
G2 X24.7316 Y19.2000 Z9.8000 I3.1337 J-0.6401 F1500.00
G0 X24.7316 Y19.2000 Z15.0000
G0 X24.1104 Y18.9500 Z15.0000
G1 X24.1104 Y18.9500 Z9.8000 F300.00
G1 X22.8896 Y18.9500 Z9.8000 F1500.00
G2 X23.5000 Y18.0080 Z9.8000 I-1.9889 J-1.9576 F1500.00
G2 X24.1104 Y18.9500 Z9.8000 I2.7954 J-1.1427 F1500.00
G0 X24.1104 Y18.9500 Z15.0000
G0 X23.5901 Y18.7000 Z15.0000
G1 X23.5901 Y18.7000 Z9.8000 F300.00
G1 X23.4047 Y18.7000 Z9.8000 F1500.00
G1 X23.4961 Y18.5580 Z9.8000 F1500.00
G2 X23.5901 Y18.7000 Z9.8000 I0.5863 J-0.2862 F1500.00
G0 X23.5901 Y18.7000 Z15.0000
G0 X21.5175 Y17.3969 Z15.0000
G1 X21.5175 Y17.3969 Z9.8000 F300.00
G3 X20.5741 Y18.0616 Z9.8000 I-1.2675 J-0.7969 F1500.00
G3 X18.7884 Y16.9241 Z9.8000 I-0.3241 J-1.4616 F1500.00
G3 X19.9259 Y15.1384 Z9.8000 I1.4616 J-0.3241 F1500.00
G3 X21.5175 Y17.3969 Z9.8000 I0.3241 J1.4616 F1500.00
G1 X21.5175 Y17.3969 Z9.6000 F300.00
G3 X20.5741 Y18.0616 Z9.6000 I-1.2675 J-0.7969 F1500.00
G3 X18.7884 Y16.9241 Z9.6000 I-0.3241 J-1.4616 F1500.00
G3 X19.9259 Y15.1384 Z9.6000 I1.4616 J-0.3241 F1500.00
G3 X21.5175 Y17.3969 Z9.6000 I0.3241 J1.4616 F1500.00
G0 X21.5175 Y17.3969 Z15.0000
G0 X22.0248 Y17.7150 Z15.0000
G1 X22.0248 Y17.7150 Z9.6000 F300.00
G2 X22.2322 Y17.2798 Z9.6000 I-1.7733 J-1.1120 F1500.00
G2 X22.2804 Y16.1000 Z9.6000 I-1.8944 J-0.6682 F1500.00
G1 X24.7196 Y16.1000 Z9.6000 F1500.00
G2 X28.7322 Y17.2798 Z9.6000 I2.0318 J0.5030 F1500.00
G2 X28.7804 Y16.1000 Z9.6000 I-1.8944 J-0.6682 F1500.00
G1 X28.9000 Y16.1000 Z9.6000 F1500.00
G1 X28.9000 Y20.4000 Z9.6000 F1500.00
G1 X28.9000 Y20.4000 Z9.6000 F1500.00
G1 X18.1000 Y20.4000 Z9.6000 F1500.00
G1 X18.1000 Y20.4000 Z9.6000 F1500.00
G1 X18.1000 Y16.1000 Z9.6000 F1500.00
G1 X18.1000 Y16.1000 Z9.6000 F1500.00
G1 X18.2196 Y16.1000 Z9.6000 F1500.00
G2 X22.0248 Y17.7150 Z9.6000 I2.0318 J0.5030 F1500.00
G0 X22.0248 Y17.7150 Z15.0000
G0 X22.5301 Y18.0301 Z15.0000
G1 X22.5301 Y18.0301 Z9.6000 F300.00
G2 X22.9355 Y16.7000 Z9.6000 I-2.2800 J-1.4216 F1500.00
G1 X24.0645 Y16.7000 Z9.6000 F1500.00
G2 X28.3000 Y18.8031 Z9.6000 I2.6853 J-0.0915 F1500.00
G1 X28.3000 Y19.8000 Z9.6000 F1500.00
G1 X18.7000 Y19.8000 Z9.6000 F1500.00
G1 X18.7000 Y19.8000 Z9.6000 F1500.00
G1 X18.7000 Y18.8031 Z9.6000 F1500.00
G2 X22.5301 Y18.0301 Z9.6000 I1.5501 J-2.1947 F1500.00
G0 X22.5301 Y18.0301 Z15.0000
G0 X23.2546 Y18.4915 Z15.0000
G1 X23.2546 Y18.4915 Z9.6000 F300.00
G2 X23.5000 Y18.0080 Z9.6000 I-2.3539 J-1.4991 F1500.00
G2 X24.1104 Y18.9500 Z9.6000 I2.7954 J-1.1427 F1500.00
G1 X22.8896 Y18.9500 Z9.6000 F1500.00
G2 X23.2546 Y18.4915 Z9.6000 I-1.9889 J-1.9576 F1500.00
G0 X23.2546 Y18.4915 Z15.0000
G0 X23.4556 Y18.6209 Z15.0000
G1 X23.4556 Y18.6209 Z9.6000 F300.00
G1 X23.4961 Y18.5580 Z9.6000 F1500.00
G2 X23.5901 Y18.7000 Z9.6000 I0.5863 J-0.2862 F1500.00
G1 X23.4047 Y18.7000 Z9.6000 F1500.00
G1 X23.4556 Y18.6209 Z9.6000 F1500.00
G0 X23.4556 Y18.6209 Z15.0000
G0 X23.0354 Y18.3576 Z15.0000
G1 X23.0354 Y18.3576 Z9.6000 F300.00
G2 X23.4585 Y17.3000 Z9.6000 I-2.7106 J-1.6978 F1500.00
G1 X23.5415 Y17.3000 Z9.6000 F1500.00
G2 X24.7316 Y19.2000 Z9.6000 I3.1337 J-0.6401 F1500.00
G1 X22.2684 Y19.2000 Z9.6000 F1500.00
G2 X23.0354 Y18.3576 Z9.6000 I-1.9437 J-2.5401 F1500.00
G0 X23.0354 Y18.3576 Z15.0000
G0 X25.3967 Y17.2403 Z15.0000
G1 X25.3967 Y17.2403 Z9.6000 F300.00
G3 X26.2998 Y15.1721 Z9.6000 I1.3533 J-0.6403 F1500.00
G3 X28.1779 Y16.1498 Z9.6000 I0.4502 J1.4279 F1500.00
G3 X27.2002 Y18.0279 Z9.6000 I-1.4279 J0.4502 F1500.00
G3 X25.3967 Y17.2403 Z9.6000 I-0.4502 J-1.4279 F1500.00
G0 X25.3967 Y17.2403 Z15.0000
G0 X25.3899 Y15.5000 Z15.0000
G1 X25.3899 Y15.5000 Z9.6000 F300.00
G2 X25.9443 Y15.2199 Z9.6000 I-0.1626 J-1.0108 F1500.00
G3 X27.3014 Y15.1001 Z9.6000 I0.8057 J1.3801 F1500.00
G3 X27.8211 Y15.4080 Z9.6000 I-0.6051 J1.6139 F1500.00
G2 X28.1101 Y15.5000 Z9.6000 I0.2891 J-0.4080 F1500.00
G1 X29.5000 Y15.5000 Z9.6000 F1500.00
G1 X29.6464 Y15.3536 Z9.6000 F1500.00
G1 X29.5000 Y15.5000 Z9.6000 F1500.00
G1 X29.5000 Y21.0000 Z9.6000 F1500.00
G1 X29.5000 Y21.0000 Z9.6000 F1500.00
G1 X29.6464 Y21.1464 Z9.6000 F1500.00
G1 X29.5000 Y21.0000 Z9.6000 F1500.00
G1 X17.5000 Y21.0000 Z9.6000 F1500.00
G1 X17.5000 Y21.0000 Z9.6000 F1500.00
G1 X17.3536 Y21.1464 Z9.6000 F1500.00
G1 X17.5000 Y21.0000 Z9.6000 F1500.00
G1 X17.5000 Y15.5000 Z9.6000 F1500.00
G1 X17.5000 Y15.5000 Z9.6000 F1500.00
G1 X17.3536 Y15.3536 Z9.6000 F1500.00
G1 X17.5000 Y15.5000 Z9.6000 F1500.00
G1 X18.8899 Y15.5000 Z9.6000 F1500.00
G2 X19.4443 Y15.2199 Z9.6000 I-0.1626 J-1.0108 F1500.00
G3 X21.3211 Y15.4080 Z9.6000 I0.8081 J1.3938 F1500.00
G2 X21.6101 Y15.5000 Z9.6000 I0.2891 J-0.4080 F1500.00
G1 X25.3899 Y15.5000 Z9.6000 F1500.00
G1 X25.3899 Y15.5000 Z9.4000 F300.00
G2 X25.9443 Y15.2199 Z9.4000 I-0.1626 J-1.0108 F1500.00
G3 X27.3014 Y15.1001 Z9.4000 I0.8057 J1.3801 F1500.00
G3 X27.8211 Y15.4080 Z9.4000 I-0.6051 J1.6139 F1500.00
G2 X28.1101 Y15.5000 Z9.4000 I0.2891 J-0.4080 F1500.00
G1 X29.5000 Y15.5000 Z9.4000 F1500.00
G1 X29.6464 Y15.3536 Z9.4000 F1500.00
G1 X29.5000 Y15.5000 Z9.4000 F1500.00
G1 X29.5000 Y21.0000 Z9.4000 F1500.00
G1 X29.5000 Y21.0000 Z9.4000 F1500.00
G1 X29.6464 Y21.1464 Z9.4000 F1500.00
G1 X29.5000 Y21.0000 Z9.4000 F1500.00
G1 X17.5000 Y21.0000 Z9.4000 F1500.00
G1 X17.5000 Y21.0000 Z9.4000 F1500.00
G1 X17.3536 Y21.1464 Z9.4000 F1500.00
G1 X17.5000 Y21.0000 Z9.4000 F1500.00
G1 X17.5000 Y15.5000 Z9.4000 F1500.00
G1 X17.5000 Y15.5000 Z9.4000 F1500.00
G1 X17.3536 Y15.3536 Z9.4000 F1500.00
G1 X17.5000 Y15.5000 Z9.4000 F1500.00
G1 X18.8899 Y15.5000 Z9.4000 F1500.00
G2 X19.4443 Y15.2199 Z9.4000 I-0.1626 J-1.0108 F1500.00
G3 X21.3211 Y15.4080 Z9.4000 I0.8081 J1.3938 F1500.00
G2 X21.6101 Y15.5000 Z9.4000 I0.2891 J-0.4080 F1500.00
G1 X25.3899 Y15.5000 Z9.4000 F1500.00
G0 X25.3899 Y15.5000 Z15.0000
G0 X25.5859 Y15.6586 Z15.0000
G1 X25.5859 Y15.6586 Z9.4000 F300.00
G3 X26.2998 Y15.1721 Z9.4000 I1.1641 J0.9414 F1500.00
G3 X28.1779 Y16.1498 Z9.4000 I0.4502 J1.4279 F1500.00
G3 X27.2002 Y18.0279 Z9.4000 I-1.4279 J0.4502 F1500.00
G3 X25.5859 Y15.6586 Z9.4000 I-0.4502 J-1.4279 F1500.00
G0 X25.5859 Y15.6586 Z15.0000
G0 X24.7196 Y16.1000 Z15.0000
G1 X24.7196 Y16.1000 Z9.4000 F300.00
G2 X28.7322 Y17.2798 Z9.4000 I2.0318 J0.5030 F1500.00
G2 X28.7804 Y16.1000 Z9.4000 I-1.8944 J-0.6682 F1500.00
G1 X28.9000 Y16.1000 Z9.4000 F1500.00
G1 X28.9000 Y20.4000 Z9.4000 F1500.00
G1 X28.9000 Y20.4000 Z9.4000 F1500.00
G1 X18.1000 Y20.4000 Z9.4000 F1500.00
G1 X18.1000 Y20.4000 Z9.4000 F1500.00
G1 X18.1000 Y16.1000 Z9.4000 F1500.00
G1 X18.1000 Y16.1000 Z9.4000 F1500.00
G1 X18.2196 Y16.1000 Z9.4000 F1500.00
G2 X22.2322 Y17.2798 Z9.4000 I2.0318 J0.5030 F1500.00
G2 X22.2804 Y16.1000 Z9.4000 I-1.8944 J-0.6682 F1500.00
G1 X24.7196 Y16.1000 Z9.4000 F1500.00
G0 X24.7196 Y16.1000 Z15.0000
G0 X24.0645 Y16.7000 Z15.0000
G1 X24.0645 Y16.7000 Z9.4000 F300.00
G2 X28.3000 Y18.8031 Z9.4000 I2.6853 J-0.0915 F1500.00
G1 X28.3000 Y19.8000 Z9.4000 F1500.00
G1 X18.7000 Y19.8000 Z9.4000 F1500.00
G1 X18.7000 Y19.8000 Z9.4000 F1500.00
G1 X18.7000 Y18.8031 Z9.4000 F1500.00
G2 X22.9355 Y16.7000 Z9.4000 I1.5501 J-2.1947 F1500.00
G1 X24.0645 Y16.7000 Z9.4000 F1500.00
G0 X24.0645 Y16.7000 Z15.0000
G0 X23.5415 Y17.3000 Z15.0000
G1 X23.5415 Y17.3000 Z9.4000 F300.00
G2 X24.7316 Y19.2000 Z9.4000 I3.1337 J-0.6401 F1500.00
G1 X22.2684 Y19.2000 Z9.4000 F1500.00
G2 X23.4585 Y17.3000 Z9.4000 I-1.9437 J-2.5401 F1500.00
G1 X23.5415 Y17.3000 Z9.4000 F1500.00
G0 X23.5415 Y17.3000 Z15.0000
G0 X23.5000 Y18.0080 Z15.0000
G1 X23.5000 Y18.0080 Z9.4000 F300.00
G2 X24.1104 Y18.9500 Z9.4000 I2.7954 J-1.1427 F1500.00
G1 X22.8896 Y18.9500 Z9.4000 F1500.00
G2 X23.5000 Y18.0080 Z9.4000 I-1.9889 J-1.9576 F1500.00
G0 X23.5000 Y18.0080 Z15.0000
G0 X23.4961 Y18.5580 Z15.0000
G1 X23.4961 Y18.5580 Z9.4000 F300.00
G2 X23.5901 Y18.7000 Z9.4000 I0.5863 J-0.2862 F1500.00
G1 X23.4047 Y18.7000 Z9.4000 F1500.00
G1 X23.4961 Y18.5580 Z9.4000 F1500.00
G0 X23.4961 Y18.5580 Z15.0000
G0 X21.5320 Y17.3733 Z15.0000
G1 X21.5320 Y17.3733 Z9.4000 F300.00
G3 X20.5741 Y18.0616 Z9.4000 I-1.2820 J-0.7733 F1500.00
G3 X18.7884 Y16.9241 Z9.4000 I-0.3241 J-1.4616 F1500.00
G3 X19.9259 Y15.1384 Z9.4000 I1.4616 J-0.3241 F1500.00
G3 X21.5320 Y17.3733 Z9.4000 I0.3241 J1.4616 F1500.00
G1 X21.5320 Y17.3733 Z9.2000 F300.00
G3 X20.5741 Y18.0616 Z9.2000 I-1.2820 J-0.7733 F1500.00
G3 X18.7884 Y16.9241 Z9.2000 I-0.3241 J-1.4616 F1500.00
G3 X19.9259 Y15.1384 Z9.2000 I1.4616 J-0.3241 F1500.00
G3 X21.5320 Y17.3733 Z9.2000 I0.3241 J1.4616 F1500.00
G0 X21.5320 Y17.3733 Z15.0000
G0 X22.0451 Y17.6820 Z15.0000
G1 X22.0451 Y17.6820 Z9.2000 F300.00
G2 X22.2322 Y17.2798 Z9.2000 I-1.7936 J-1.0790 F1500.00
G2 X22.2804 Y16.1000 Z9.2000 I-1.8944 J-0.6682 F1500.00
G1 X24.7196 Y16.1000 Z9.2000 F1500.00
G2 X28.7322 Y17.2798 Z9.2000 I2.0318 J0.5030 F1500.00
G2 X28.7804 Y16.1000 Z9.2000 I-1.8944 J-0.6682 F1500.00
G1 X28.9000 Y16.1000 Z9.2000 F1500.00
G1 X28.9000 Y20.4000 Z9.2000 F1500.00
G1 X28.9000 Y20.4000 Z9.2000 F1500.00
G1 X18.1000 Y20.4000 Z9.2000 F1500.00
G1 X18.1000 Y20.4000 Z9.2000 F1500.00
G1 X18.1000 Y16.1000 Z9.2000 F1500.00
G1 X18.1000 Y16.1000 Z9.2000 F1500.00
G1 X18.2196 Y16.1000 Z9.2000 F1500.00
G2 X22.0451 Y17.6820 Z9.2000 I2.0318 J0.5030 F1500.00
G0 X22.0451 Y17.6820 Z15.0000
G0 X22.5561 Y17.9876 Z15.0000
G1 X22.5561 Y17.9876 Z9.2000 F300.00
G2 X22.9355 Y16.7000 Z9.2000 I-2.3060 J-1.3791 F1500.00
G1 X24.0645 Y16.7000 Z9.2000 F1500.00
G2 X28.3000 Y18.8031 Z9.2000 I2.6853 J-0.0915 F1500.00
G1 X28.3000 Y19.8000 Z9.2000 F1500.00
G1 X18.7000 Y19.8000 Z9.2000 F1500.00
G1 X18.7000 Y19.8000 Z9.2000 F1500.00
G1 X18.7000 Y18.8031 Z9.2000 F1500.00
G2 X22.5561 Y17.9876 Z9.2000 I1.5501 J-2.1947 F1500.00
G0 X22.5561 Y17.9876 Z15.0000
G0 X23.2925 Y18.4302 Z15.0000
G1 X23.2925 Y18.4302 Z9.2000 F300.00
G2 X23.5000 Y18.0080 Z9.2000 I-2.3918 J-1.4378 F1500.00
G2 X24.1104 Y18.9500 Z9.2000 I2.7954 J-1.1427 F1500.00
G1 X22.8896 Y18.9500 Z9.2000 F1500.00
G2 X23.2925 Y18.4302 Z9.2000 I-1.9889 J-1.9576 F1500.00
G0 X23.2925 Y18.4302 Z15.0000
G0 X23.4961 Y18.5580 Z15.0000
G1 X23.4961 Y18.5580 Z9.2000 F300.00
G2 X23.5901 Y18.7000 Z9.2000 I0.5863 J-0.2862 F1500.00
G1 X23.4047 Y18.7000 Z9.2000 F1500.00
G1 X23.4961 Y18.5580 Z9.2000 F1500.00
G0 X23.4961 Y18.5580 Z15.0000
G0 X23.0692 Y18.3025 Z15.0000
G1 X23.0692 Y18.3025 Z9.2000 F300.00
G2 X23.4585 Y17.3000 Z9.2000 I-2.7444 J-1.6426 F1500.00
G1 X23.5415 Y17.3000 Z9.2000 F1500.00
G2 X24.7316 Y19.2000 Z9.2000 I3.1337 J-0.6401 F1500.00
G1 X22.2684 Y19.2000 Z9.2000 F1500.00
G2 X23.0692 Y18.3025 Z9.2000 I-1.9437 J-2.5401 F1500.00
G0 X23.0692 Y18.3025 Z15.0000
G0 X25.3912 Y17.2285 Z15.0000
G1 X25.3912 Y17.2285 Z9.2000 F300.00
G3 X26.2998 Y15.1721 Z9.2000 I1.3588 J-0.6285 F1500.00
G3 X28.1779 Y16.1498 Z9.2000 I0.4502 J1.4279 F1500.00
G3 X27.2002 Y18.0279 Z9.2000 I-1.4279 J0.4502 F1500.00
G3 X25.3912 Y17.2285 Z9.2000 I-0.4502 J-1.4279 F1500.00
G0 X25.3912 Y17.2285 Z15.0000
G0 X25.3899 Y15.5000 Z15.0000
G1 X25.3899 Y15.5000 Z9.2000 F300.00
G2 X25.9443 Y15.2199 Z9.2000 I-0.1626 J-1.0108 F1500.00
G3 X27.3014 Y15.1001 Z9.2000 I0.8057 J1.3801 F1500.00
G3 X27.8211 Y15.4080 Z9.2000 I-0.6051 J1.6139 F1500.00
G2 X28.1101 Y15.5000 Z9.2000 I0.2891 J-0.4080 F1500.00
G1 X29.5000 Y15.5000 Z9.2000 F1500.00
G1 X29.6464 Y15.3536 Z9.2000 F1500.00
G1 X29.5000 Y15.5000 Z9.2000 F1500.00
G1 X29.5000 Y21.0000 Z9.2000 F1500.00
G1 X29.5000 Y21.0000 Z9.2000 F1500.00
G1 X29.6464 Y21.1464 Z9.2000 F1500.00
G1 X29.5000 Y21.0000 Z9.2000 F1500.00
G1 X17.5000 Y21.0000 Z9.2000 F1500.00
G1 X17.5000 Y21.0000 Z9.2000 F1500.00
G1 X17.3536 Y21.1464 Z9.2000 F1500.00
G1 X17.5000 Y21.0000 Z9.2000 F1500.00
G1 X17.5000 Y15.5000 Z9.2000 F1500.00
G1 X17.5000 Y15.5000 Z9.2000 F1500.00
G1 X17.3536 Y15.3536 Z9.2000 F1500.00
G1 X17.5000 Y15.5000 Z9.2000 F1500.00
G1 X18.8899 Y15.5000 Z9.2000 F1500.00
G2 X19.4443 Y15.2199 Z9.2000 I-0.1626 J-1.0108 F1500.00
G3 X21.3211 Y15.4080 Z9.2000 I0.8081 J1.3938 F1500.00
G2 X21.6101 Y15.5000 Z9.2000 I0.2891 J-0.4080 F1500.00
G1 X25.3899 Y15.5000 Z9.2000 F1500.00
G1 X25.3899 Y15.5000 Z9.0000 F300.00
G2 X25.9443 Y15.2199 Z9.0000 I-0.1626 J-1.0108 F1500.00
G3 X27.3014 Y15.1001 Z9.0000 I0.8057 J1.3801 F1500.00
G3 X27.8211 Y15.4080 Z9.0000 I-0.6051 J1.6139 F1500.00
G2 X28.1101 Y15.5000 Z9.0000 I0.2891 J-0.4080 F1500.00
G1 X29.5000 Y15.5000 Z9.0000 F1500.00
G1 X29.6464 Y15.3536 Z9.0000 F1500.00
G1 X29.5000 Y15.5000 Z9.0000 F1500.00
G1 X29.5000 Y21.0000 Z9.0000 F1500.00
G1 X29.5000 Y21.0000 Z9.0000 F1500.00
G1 X29.6464 Y21.1464 Z9.0000 F1500.00
G1 X29.5000 Y21.0000 Z9.0000 F1500.00
G1 X17.5000 Y21.0000 Z9.0000 F1500.00
G1 X17.5000 Y21.0000 Z9.0000 F1500.00
G1 X17.3536 Y21.1464 Z9.0000 F1500.00
G1 X17.5000 Y21.0000 Z9.0000 F1500.00
G1 X17.5000 Y15.5000 Z9.0000 F1500.00
G1 X17.5000 Y15.5000 Z9.0000 F1500.00
G1 X17.3536 Y15.3536 Z9.0000 F1500.00
G1 X17.5000 Y15.5000 Z9.0000 F1500.00
G1 X18.8899 Y15.5000 Z9.0000 F1500.00
G2 X19.4443 Y15.2199 Z9.0000 I-0.1626 J-1.0108 F1500.00
G3 X21.3211 Y15.4080 Z9.0000 I0.8081 J1.3938 F1500.00
G2 X21.6101 Y15.5000 Z9.0000 I0.2891 J-0.4080 F1500.00
G1 X25.3899 Y15.5000 Z9.0000 F1500.00
G0 X25.3899 Y15.5000 Z15.0000
G0 X25.5859 Y15.6586 Z15.0000
G1 X25.5859 Y15.6586 Z9.0000 F300.00
G3 X26.2998 Y15.1721 Z9.0000 I1.1641 J0.9414 F1500.00
G3 X28.1779 Y16.1498 Z9.0000 I0.4502 J1.4279 F1500.00
G3 X27.2002 Y18.0279 Z9.0000 I-1.4279 J0.4502 F1500.00
G3 X25.5859 Y15.6586 Z9.0000 I-0.4502 J-1.4279 F1500.00
G0 X25.5859 Y15.6586 Z15.0000
G0 X24.7196 Y16.1000 Z15.0000
G1 X24.7196 Y16.1000 Z9.0000 F300.00
G2 X28.7322 Y17.2798 Z9.0000 I2.0318 J0.5030 F1500.00
G2 X28.7804 Y16.1000 Z9.0000 I-1.8944 J-0.6682 F1500.00
G1 X28.9000 Y16.1000 Z9.0000 F1500.00
G1 X28.9000 Y20.4000 Z9.0000 F1500.00
G1 X28.9000 Y20.4000 Z9.0000 F1500.00
G1 X18.1000 Y20.4000 Z9.0000 F1500.00
G1 X18.1000 Y20.4000 Z9.0000 F1500.00
G1 X18.1000 Y16.1000 Z9.0000 F1500.00
G1 X18.1000 Y16.1000 Z9.0000 F1500.00
G1 X18.2196 Y16.1000 Z9.0000 F1500.00
G2 X22.2322 Y17.2798 Z9.0000 I2.0318 J0.5030 F1500.00
G2 X22.2804 Y16.1000 Z9.0000 I-1.8944 J-0.6682 F1500.00
G1 X24.7196 Y16.1000 Z9.0000 F1500.00
G0 X24.7196 Y16.1000 Z15.0000
G0 X24.0645 Y16.7000 Z15.0000
G1 X24.0645 Y16.7000 Z9.0000 F300.00
G2 X28.3000 Y18.8031 Z9.0000 I2.6853 J-0.0915 F1500.00
G1 X28.3000 Y19.8000 Z9.0000 F1500.00
G1 X18.7000 Y19.8000 Z9.0000 F1500.00
G1 X18.7000 Y19.8000 Z9.0000 F1500.00
G1 X18.7000 Y18.8031 Z9.0000 F1500.00
G2 X22.9355 Y16.7000 Z9.0000 I1.5501 J-2.1947 F1500.00
G1 X24.0645 Y16.7000 Z9.0000 F1500.00
G0 X24.0645 Y16.7000 Z15.0000
G0 X23.5415 Y17.3000 Z15.0000
G1 X23.5415 Y17.3000 Z9.0000 F300.00
G2 X24.7316 Y19.2000 Z9.0000 I3.1337 J-0.6401 F1500.00
G1 X22.2684 Y19.2000 Z9.0000 F1500.00
G2 X23.4585 Y17.3000 Z9.0000 I-1.9437 J-2.5401 F1500.00
G1 X23.5415 Y17.3000 Z9.0000 F1500.00
G0 X23.5415 Y17.3000 Z15.0000
G0 X23.5000 Y18.0080 Z15.0000
G1 X23.5000 Y18.0080 Z9.0000 F300.00
G2 X24.1104 Y18.9500 Z9.0000 I2.7954 J-1.1427 F1500.00
G1 X22.8896 Y18.9500 Z9.0000 F1500.00
G2 X23.5000 Y18.0080 Z9.0000 I-1.9889 J-1.9576 F1500.00
G0 X23.5000 Y18.0080 Z15.0000
G0 X23.4961 Y18.5580 Z15.0000
G1 X23.4961 Y18.5580 Z9.0000 F300.00
G2 X23.5901 Y18.7000 Z9.0000 I0.5863 J-0.2862 F1500.00
G1 X23.4047 Y18.7000 Z9.0000 F1500.00
G1 X23.4961 Y18.5580 Z9.0000 F1500.00
G0 X23.4961 Y18.5580 Z15.0000
G0 X21.5320 Y17.3733 Z15.0000
G1 X21.5320 Y17.3733 Z9.0000 F300.00
G3 X20.5741 Y18.0616 Z9.0000 I-1.2820 J-0.7733 F1500.00
G3 X18.7884 Y16.9241 Z9.0000 I-0.3241 J-1.4616 F1500.00
G3 X19.9259 Y15.1384 Z9.0000 I1.4616 J-0.3241 F1500.00
G3 X21.5320 Y17.3733 Z9.0000 I0.3241 J1.4616 F1500.00
G1 X21.5320 Y17.3733 Z8.8000 F300.00
G3 X20.5741 Y18.0616 Z8.8000 I-1.2820 J-0.7733 F1500.00
G3 X18.7884 Y16.9241 Z8.8000 I-0.3241 J-1.4616 F1500.00
G3 X19.9259 Y15.1384 Z8.8000 I1.4616 J-0.3241 F1500.00
G3 X21.5320 Y17.3733 Z8.8000 I0.3241 J1.4616 F1500.00
G0 X21.5320 Y17.3733 Z15.0000
G0 X22.0451 Y17.6820 Z15.0000
G1 X22.0451 Y17.6820 Z8.8000 F300.00
G2 X22.2322 Y17.2798 Z8.8000 I-1.7936 J-1.0790 F1500.00
G2 X22.2804 Y16.1000 Z8.8000 I-1.8944 J-0.6682 F1500.00
G1 X24.7196 Y16.1000 Z8.8000 F1500.00
G2 X28.7322 Y17.2798 Z8.8000 I2.0318 J0.5030 F1500.00
G2 X28.7804 Y16.1000 Z8.8000 I-1.8944 J-0.6682 F1500.00
G1 X28.9000 Y16.1000 Z8.8000 F1500.00
G1 X28.9000 Y20.4000 Z8.8000 F1500.00
G1 X28.9000 Y20.4000 Z8.8000 F1500.00
G1 X18.1000 Y20.4000 Z8.8000 F1500.00
G1 X18.1000 Y20.4000 Z8.8000 F1500.00
G1 X18.1000 Y16.1000 Z8.8000 F1500.00
G1 X18.1000 Y16.1000 Z8.8000 F1500.00
G1 X18.2196 Y16.1000 Z8.8000 F1500.00
G2 X22.0451 Y17.6820 Z8.8000 I2.0318 J0.5030 F1500.00
G0 X22.0451 Y17.6820 Z15.0000
G0 X22.5561 Y17.9876 Z15.0000
G1 X22.5561 Y17.9876 Z8.8000 F300.00
G2 X22.9355 Y16.7000 Z8.8000 I-2.3060 J-1.3791 F1500.00
G1 X24.0645 Y16.7000 Z8.8000 F1500.00
G2 X28.3000 Y18.8031 Z8.8000 I2.6853 J-0.0915 F1500.00
G1 X28.3000 Y19.8000 Z8.8000 F1500.00
G1 X18.7000 Y19.8000 Z8.8000 F1500.00
G1 X18.7000 Y19.8000 Z8.8000 F1500.00
G1 X18.7000 Y18.8031 Z8.8000 F1500.00
G2 X22.5561 Y17.9876 Z8.8000 I1.5501 J-2.1947 F1500.00
G0 X22.5561 Y17.9876 Z15.0000
G0 X23.2925 Y18.4302 Z15.0000
G1 X23.2925 Y18.4302 Z8.8000 F300.00
G2 X23.5000 Y18.0080 Z8.8000 I-2.3918 J-1.4378 F1500.00
G2 X24.1104 Y18.9500 Z8.8000 I2.7954 J-1.1427 F1500.00
G1 X22.8896 Y18.9500 Z8.8000 F1500.00
G2 X23.2925 Y18.4302 Z8.8000 I-1.9889 J-1.9576 F1500.00
G0 X23.2925 Y18.4302 Z15.0000
G0 X23.4961 Y18.5580 Z15.0000
G1 X23.4961 Y18.5580 Z8.8000 F300.00
G2 X23.5901 Y18.7000 Z8.8000 I0.5863 J-0.2862 F1500.00
G1 X23.4047 Y18.7000 Z8.8000 F1500.00
G1 X23.4961 Y18.5580 Z8.8000 F1500.00
G0 X23.4961 Y18.5580 Z15.0000
G0 X23.0692 Y18.3025 Z15.0000
G1 X23.0692 Y18.3025 Z8.8000 F300.00
G2 X23.4585 Y17.3000 Z8.8000 I-2.7444 J-1.6426 F1500.00
G1 X23.5415 Y17.3000 Z8.8000 F1500.00
G2 X24.7316 Y19.2000 Z8.8000 I3.1337 J-0.6401 F1500.00
G1 X22.2684 Y19.2000 Z8.8000 F1500.00
G2 X23.0692 Y18.3025 Z8.8000 I-1.9437 J-2.5401 F1500.00
G0 X23.0692 Y18.3025 Z15.0000
G0 X25.3912 Y17.2285 Z15.0000
G1 X25.3912 Y17.2285 Z8.8000 F300.00
G3 X26.2998 Y15.1721 Z8.8000 I1.3588 J-0.6285 F1500.00
G3 X28.1779 Y16.1498 Z8.8000 I0.4502 J1.4279 F1500.00
G3 X27.2002 Y18.0279 Z8.8000 I-1.4279 J0.4502 F1500.00
G3 X25.3912 Y17.2285 Z8.8000 I-0.4502 J-1.4279 F1500.00
G0 X25.3912 Y17.2285 Z15.0000
G0 X25.3899 Y15.5000 Z15.0000
G1 X25.3899 Y15.5000 Z8.8000 F300.00
G2 X25.9443 Y15.2199 Z8.8000 I-0.1626 J-1.0108 F1500.00
G3 X27.3014 Y15.1001 Z8.8000 I0.8057 J1.3801 F1500.00
G3 X27.8211 Y15.4080 Z8.8000 I-0.6051 J1.6139 F1500.00
G2 X28.1101 Y15.5000 Z8.8000 I0.2891 J-0.4080 F1500.00
G1 X29.5000 Y15.5000 Z8.8000 F1500.00
G1 X29.6464 Y15.3536 Z8.8000 F1500.00
G1 X29.5000 Y15.5000 Z8.8000 F1500.00
G1 X29.5000 Y21.0000 Z8.8000 F1500.00
G1 X29.5000 Y21.0000 Z8.8000 F1500.00
G1 X29.6464 Y21.1464 Z8.8000 F1500.00
G1 X29.5000 Y21.0000 Z8.8000 F1500.00
G1 X17.5000 Y21.0000 Z8.8000 F1500.00
G1 X17.5000 Y21.0000 Z8.8000 F1500.00
G1 X17.3536 Y21.1464 Z8.8000 F1500.00
G1 X17.5000 Y21.0000 Z8.8000 F1500.00
G1 X17.5000 Y15.5000 Z8.8000 F1500.00
G1 X17.5000 Y15.5000 Z8.8000 F1500.00
G1 X17.3536 Y15.3536 Z8.8000 F1500.00
G1 X17.5000 Y15.5000 Z8.8000 F1500.00
G1 X18.8899 Y15.5000 Z8.8000 F1500.00
G2 X19.4443 Y15.2199 Z8.8000 I-0.1626 J-1.0108 F1500.00
G3 X21.3211 Y15.4080 Z8.8000 I0.8081 J1.3938 F1500.00
G2 X21.6101 Y15.5000 Z8.8000 I0.2891 J-0.4080 F1500.00
G1 X25.3899 Y15.5000 Z8.8000 F1500.00
G1 X25.3899 Y15.5000 Z8.6000 F300.00
G2 X25.9443 Y15.2199 Z8.6000 I-0.1626 J-1.0108 F1500.00
G3 X27.3014 Y15.1001 Z8.6000 I0.8057 J1.3801 F1500.00
G3 X27.8211 Y15.4080 Z8.6000 I-0.6051 J1.6139 F1500.00
G2 X28.1101 Y15.5000 Z8.6000 I0.2891 J-0.4080 F1500.00
G1 X29.5000 Y15.5000 Z8.6000 F1500.00
G1 X29.6464 Y15.3536 Z8.6000 F1500.00
G1 X29.5000 Y15.5000 Z8.6000 F1500.00
G1 X29.5000 Y21.0000 Z8.6000 F1500.00
G1 X29.5000 Y21.0000 Z8.6000 F1500.00
G1 X29.6464 Y21.1464 Z8.6000 F1500.00
G1 X29.5000 Y21.0000 Z8.6000 F1500.00
G1 X17.5000 Y21.0000 Z8.6000 F1500.00
G1 X17.5000 Y21.0000 Z8.6000 F1500.00
G1 X17.3536 Y21.1464 Z8.6000 F1500.00
G1 X17.5000 Y21.0000 Z8.6000 F1500.00
G1 X17.5000 Y15.5000 Z8.6000 F1500.00
G1 X17.5000 Y15.5000 Z8.6000 F1500.00
G1 X17.3536 Y15.3536 Z8.6000 F1500.00
G1 X17.5000 Y15.5000 Z8.6000 F1500.00
G1 X18.8899 Y15.5000 Z8.6000 F1500.00
G2 X19.4443 Y15.2199 Z8.6000 I-0.1626 J-1.0108 F1500.00
G3 X21.3211 Y15.4080 Z8.6000 I0.8081 J1.3938 F1500.00
G2 X21.6101 Y15.5000 Z8.6000 I0.2891 J-0.4080 F1500.00
G1 X25.3899 Y15.5000 Z8.6000 F1500.00
G0 X25.3899 Y15.5000 Z15.0000
G0 X25.5859 Y15.6586 Z15.0000
G1 X25.5859 Y15.6586 Z8.6000 F300.00
G3 X26.2998 Y15.1721 Z8.6000 I1.1641 J0.9414 F1500.00
G3 X28.1779 Y16.1498 Z8.6000 I0.4502 J1.4279 F1500.00
G3 X27.2002 Y18.0279 Z8.6000 I-1.4279 J0.4502 F1500.00
G3 X25.5859 Y15.6586 Z8.6000 I-0.4502 J-1.4279 F1500.00
G0 X25.5859 Y15.6586 Z15.0000
G0 X24.7196 Y16.1000 Z15.0000
G1 X24.7196 Y16.1000 Z8.6000 F300.00
G2 X28.7322 Y17.2798 Z8.6000 I2.0318 J0.5030 F1500.00
G2 X28.7804 Y16.1000 Z8.6000 I-1.8944 J-0.6682 F1500.00
G1 X28.9000 Y16.1000 Z8.6000 F1500.00
G1 X28.9000 Y20.4000 Z8.6000 F1500.00
G1 X28.9000 Y20.4000 Z8.6000 F1500.00
G1 X18.1000 Y20.4000 Z8.6000 F1500.00
G1 X18.1000 Y20.4000 Z8.6000 F1500.00
G1 X18.1000 Y16.1000 Z8.6000 F1500.00
G1 X18.1000 Y16.1000 Z8.6000 F1500.00
G1 X18.2196 Y16.1000 Z8.6000 F1500.00
G2 X22.2322 Y17.2798 Z8.6000 I2.0318 J0.5030 F1500.00
G2 X22.2804 Y16.1000 Z8.6000 I-1.8944 J-0.6682 F1500.00
G1 X24.7196 Y16.1000 Z8.6000 F1500.00
G0 X24.7196 Y16.1000 Z15.0000
G0 X24.0645 Y16.7000 Z15.0000
G1 X24.0645 Y16.7000 Z8.6000 F300.00
G2 X28.3000 Y18.8031 Z8.6000 I2.6853 J-0.0915 F1500.00
G1 X28.3000 Y19.8000 Z8.6000 F1500.00
G1 X18.7000 Y19.8000 Z8.6000 F1500.00
G1 X18.7000 Y19.8000 Z8.6000 F1500.00
G1 X18.7000 Y18.8031 Z8.6000 F1500.00
G2 X22.9355 Y16.7000 Z8.6000 I1.5501 J-2.1947 F1500.00
G1 X24.0645 Y16.7000 Z8.6000 F1500.00
G0 X24.0645 Y16.7000 Z15.0000
G0 X23.5415 Y17.3000 Z15.0000
G1 X23.5415 Y17.3000 Z8.6000 F300.00
G2 X24.7316 Y19.2000 Z8.6000 I3.1337 J-0.6401 F1500.00
G1 X22.2684 Y19.2000 Z8.6000 F1500.00
G2 X23.4585 Y17.3000 Z8.6000 I-1.9437 J-2.5401 F1500.00
G1 X23.5415 Y17.3000 Z8.6000 F1500.00
G0 X23.5415 Y17.3000 Z15.0000
G0 X23.5000 Y18.0080 Z15.0000
G1 X23.5000 Y18.0080 Z8.6000 F300.00
G2 X24.1104 Y18.9500 Z8.6000 I2.7954 J-1.1427 F1500.00
G1 X22.8896 Y18.9500 Z8.6000 F1500.00
G2 X23.5000 Y18.0080 Z8.6000 I-1.9889 J-1.9576 F1500.00
G0 X23.5000 Y18.0080 Z15.0000
G0 X23.4961 Y18.5580 Z15.0000
G1 X23.4961 Y18.5580 Z8.6000 F300.00
G2 X23.5901 Y18.7000 Z8.6000 I0.5863 J-0.2862 F1500.00
G1 X23.4047 Y18.7000 Z8.6000 F1500.00
G1 X23.4961 Y18.5580 Z8.6000 F1500.00
G0 X23.4961 Y18.5580 Z15.0000
G0 X21.5320 Y17.3733 Z15.0000
G1 X21.5320 Y17.3733 Z8.6000 F300.00
G3 X20.5741 Y18.0616 Z8.6000 I-1.2820 J-0.7733 F1500.00
G3 X18.7884 Y16.9241 Z8.6000 I-0.3241 J-1.4616 F1500.00
G3 X19.9259 Y15.1384 Z8.6000 I1.4616 J-0.3241 F1500.00
G3 X21.5320 Y17.3733 Z8.6000 I0.3241 J1.4616 F1500.00
G1 X21.5320 Y17.3733 Z8.4000 F300.00
G3 X20.5741 Y18.0616 Z8.4000 I-1.2820 J-0.7733 F1500.00
G3 X18.7884 Y16.9241 Z8.4000 I-0.3241 J-1.4616 F1500.00
G3 X19.9259 Y15.1384 Z8.4000 I1.4616 J-0.3241 F1500.00
G3 X21.5320 Y17.3733 Z8.4000 I0.3241 J1.4616 F1500.00
G0 X21.5320 Y17.3733 Z15.0000
G0 X22.0451 Y17.6820 Z15.0000
G1 X22.0451 Y17.6820 Z8.4000 F300.00
G2 X22.2322 Y17.2798 Z8.4000 I-1.7936 J-1.0790 F1500.00
G2 X22.2804 Y16.1000 Z8.4000 I-1.8944 J-0.6682 F1500.00
G1 X24.7196 Y16.1000 Z8.4000 F1500.00
G2 X28.7322 Y17.2798 Z8.4000 I2.0318 J0.5030 F1500.00
G2 X28.7804 Y16.1000 Z8.4000 I-1.8944 J-0.6682 F1500.00
G1 X28.9000 Y16.1000 Z8.4000 F1500.00
G1 X28.9000 Y20.4000 Z8.4000 F1500.00
G1 X28.9000 Y20.4000 Z8.4000 F1500.00
G1 X18.1000 Y20.4000 Z8.4000 F1500.00
G1 X18.1000 Y20.4000 Z8.4000 F1500.00
G1 X18.1000 Y16.1000 Z8.4000 F1500.00
G1 X18.1000 Y16.1000 Z8.4000 F1500.00
G1 X18.2196 Y16.1000 Z8.4000 F1500.00
G2 X22.0451 Y17.6820 Z8.4000 I2.0318 J0.5030 F1500.00
G0 X22.0451 Y17.6820 Z15.0000
G0 X22.5561 Y17.9876 Z15.0000
G1 X22.5561 Y17.9876 Z8.4000 F300.00
G2 X22.9355 Y16.7000 Z8.4000 I-2.3060 J-1.3791 F1500.00
G1 X24.0645 Y16.7000 Z8.4000 F1500.00
G2 X28.3000 Y18.8031 Z8.4000 I2.6853 J-0.0915 F1500.00
G1 X28.3000 Y19.8000 Z8.4000 F1500.00
G1 X18.7000 Y19.8000 Z8.4000 F1500.00
G1 X18.7000 Y19.8000 Z8.4000 F1500.00
G1 X18.7000 Y18.8031 Z8.4000 F1500.00
G2 X22.5561 Y17.9876 Z8.4000 I1.5501 J-2.1947 F1500.00
G0 X22.5561 Y17.9876 Z15.0000
G0 X23.2925 Y18.4302 Z15.0000
G1 X23.2925 Y18.4302 Z8.4000 F300.00
G2 X23.5000 Y18.0080 Z8.4000 I-2.3918 J-1.4378 F1500.00
G2 X24.1104 Y18.9500 Z8.4000 I2.7954 J-1.1427 F1500.00
G1 X22.8896 Y18.9500 Z8.4000 F1500.00
G2 X23.2925 Y18.4302 Z8.4000 I-1.9889 J-1.9576 F1500.00
G0 X23.2925 Y18.4302 Z15.0000
G0 X23.4961 Y18.5580 Z15.0000
G1 X23.4961 Y18.5580 Z8.4000 F300.00
G2 X23.5901 Y18.7000 Z8.4000 I0.5863 J-0.2862 F1500.00
G1 X23.4047 Y18.7000 Z8.4000 F1500.00
G1 X23.4961 Y18.5580 Z8.4000 F1500.00
G0 X23.4961 Y18.5580 Z15.0000
G0 X23.0692 Y18.3025 Z15.0000
G1 X23.0692 Y18.3025 Z8.4000 F300.00
G2 X23.4585 Y17.3000 Z8.4000 I-2.7444 J-1.6426 F1500.00
G1 X23.5415 Y17.3000 Z8.4000 F1500.00
G2 X24.7316 Y19.2000 Z8.4000 I3.1337 J-0.6401 F1500.00
G1 X22.2684 Y19.2000 Z8.4000 F1500.00
G2 X23.0692 Y18.3025 Z8.4000 I-1.9437 J-2.5401 F1500.00
G0 X23.0692 Y18.3025 Z15.0000
G0 X25.3912 Y17.2285 Z15.0000
G1 X25.3912 Y17.2285 Z8.4000 F300.00
G3 X26.2998 Y15.1721 Z8.4000 I1.3588 J-0.6285 F1500.00
G3 X28.1779 Y16.1498 Z8.4000 I0.4502 J1.4279 F1500.00
G3 X27.2002 Y18.0279 Z8.4000 I-1.4279 J0.4502 F1500.00
G3 X25.3912 Y17.2285 Z8.4000 I-0.4502 J-1.4279 F1500.00
G0 X25.3912 Y17.2285 Z15.0000
G0 X25.3899 Y15.5000 Z15.0000
G1 X25.3899 Y15.5000 Z8.4000 F300.00
G2 X25.9443 Y15.2199 Z8.4000 I-0.1626 J-1.0108 F1500.00
G3 X27.3014 Y15.1001 Z8.4000 I0.8057 J1.3801 F1500.00
G3 X27.8211 Y15.4080 Z8.4000 I-0.6051 J1.6139 F1500.00
G2 X28.1101 Y15.5000 Z8.4000 I0.2891 J-0.4080 F1500.00
G1 X29.5000 Y15.5000 Z8.4000 F1500.00
G1 X29.6464 Y15.3536 Z8.4000 F1500.00
G1 X29.5000 Y15.5000 Z8.4000 F1500.00
G1 X29.5000 Y21.0000 Z8.4000 F1500.00
G1 X29.5000 Y21.0000 Z8.4000 F1500.00
G1 X29.6464 Y21.1464 Z8.4000 F1500.00
G1 X29.5000 Y21.0000 Z8.4000 F1500.00
G1 X17.5000 Y21.0000 Z8.4000 F1500.00
G1 X17.5000 Y21.0000 Z8.4000 F1500.00
G1 X17.3536 Y21.1464 Z8.4000 F1500.00
G1 X17.5000 Y21.0000 Z8.4000 F1500.00
G1 X17.5000 Y15.5000 Z8.4000 F1500.00
G1 X17.5000 Y15.5000 Z8.4000 F1500.00
G1 X17.3536 Y15.3536 Z8.4000 F1500.00
G1 X17.5000 Y15.5000 Z8.4000 F1500.00
G1 X18.8899 Y15.5000 Z8.4000 F1500.00
G2 X19.4443 Y15.2199 Z8.4000 I-0.1626 J-1.0108 F1500.00
G3 X21.3211 Y15.4080 Z8.4000 I0.8081 J1.3938 F1500.00
G2 X21.6101 Y15.5000 Z8.4000 I0.2891 J-0.4080 F1500.00
G1 X25.3899 Y15.5000 Z8.4000 F1500.00
G1 X25.3899 Y15.5000 Z8.2000 F300.00
G2 X25.9443 Y15.2199 Z8.2000 I-0.1626 J-1.0108 F1500.00
G3 X27.3014 Y15.1001 Z8.2000 I0.8057 J1.3801 F1500.00
G3 X27.8211 Y15.4080 Z8.2000 I-0.6051 J1.6139 F1500.00
G2 X28.1101 Y15.5000 Z8.2000 I0.2891 J-0.4080 F1500.00
G1 X29.5000 Y15.5000 Z8.2000 F1500.00
G1 X29.6464 Y15.3536 Z8.2000 F1500.00
G1 X29.5000 Y15.5000 Z8.2000 F1500.00
G1 X29.5000 Y21.0000 Z8.2000 F1500.00
G1 X29.5000 Y21.0000 Z8.2000 F1500.00
G1 X29.6464 Y21.1464 Z8.2000 F1500.00
G1 X29.5000 Y21.0000 Z8.2000 F1500.00
G1 X17.5000 Y21.0000 Z8.2000 F1500.00
G1 X17.5000 Y21.0000 Z8.2000 F1500.00
G1 X17.3536 Y21.1464 Z8.2000 F1500.00
G1 X17.5000 Y21.0000 Z8.2000 F1500.00
G1 X17.5000 Y15.5000 Z8.2000 F1500.00
G1 X17.5000 Y15.5000 Z8.2000 F1500.00
G1 X17.3536 Y15.3536 Z8.2000 F1500.00
G1 X17.5000 Y15.5000 Z8.2000 F1500.00
G1 X18.8899 Y15.5000 Z8.2000 F1500.00
G2 X19.4443 Y15.2199 Z8.2000 I-0.1626 J-1.0108 F1500.00
G3 X21.3211 Y15.4080 Z8.2000 I0.8081 J1.3938 F1500.00
G2 X21.6101 Y15.5000 Z8.2000 I0.2891 J-0.4080 F1500.00
G1 X25.3899 Y15.5000 Z8.2000 F1500.00
G0 X25.3899 Y15.5000 Z15.0000
G0 X25.5859 Y15.6586 Z15.0000
G1 X25.5859 Y15.6586 Z8.2000 F300.00
G3 X26.2998 Y15.1721 Z8.2000 I1.1641 J0.9414 F1500.00
G3 X28.1779 Y16.1498 Z8.2000 I0.4502 J1.4279 F1500.00
G3 X27.2002 Y18.0279 Z8.2000 I-1.4279 J0.4502 F1500.00
G3 X25.5859 Y15.6586 Z8.2000 I-0.4502 J-1.4279 F1500.00
G0 X25.5859 Y15.6586 Z15.0000
G0 X24.7196 Y16.1000 Z15.0000
G1 X24.7196 Y16.1000 Z8.2000 F300.00
G2 X28.7322 Y17.2798 Z8.2000 I2.0318 J0.5030 F1500.00
G2 X28.7804 Y16.1000 Z8.2000 I-1.8944 J-0.6682 F1500.00
G1 X28.9000 Y16.1000 Z8.2000 F1500.00
G1 X28.9000 Y20.4000 Z8.2000 F1500.00
G1 X28.9000 Y20.4000 Z8.2000 F1500.00
G1 X18.1000 Y20.4000 Z8.2000 F1500.00
G1 X18.1000 Y20.4000 Z8.2000 F1500.00
G1 X18.1000 Y16.1000 Z8.2000 F1500.00
G1 X18.1000 Y16.1000 Z8.2000 F1500.00
G1 X18.2196 Y16.1000 Z8.2000 F1500.00
G2 X22.2322 Y17.2798 Z8.2000 I2.0318 J0.5030 F1500.00
G2 X22.2804 Y16.1000 Z8.2000 I-1.8944 J-0.6682 F1500.00
G1 X24.7196 Y16.1000 Z8.2000 F1500.00
G0 X24.7196 Y16.1000 Z15.0000
G0 X24.0645 Y16.7000 Z15.0000
G1 X24.0645 Y16.7000 Z8.2000 F300.00
G2 X28.3000 Y18.8031 Z8.2000 I2.6853 J-0.0915 F1500.00
G1 X28.3000 Y19.8000 Z8.2000 F1500.00
G1 X18.7000 Y19.8000 Z8.2000 F1500.00
G1 X18.7000 Y19.8000 Z8.2000 F1500.00
G1 X18.7000 Y18.8031 Z8.2000 F1500.00
G2 X22.9355 Y16.7000 Z8.2000 I1.5501 J-2.1947 F1500.00
G1 X24.0645 Y16.7000 Z8.2000 F1500.00
G0 X24.0645 Y16.7000 Z15.0000
G0 X23.5415 Y17.3000 Z15.0000
G1 X23.5415 Y17.3000 Z8.2000 F300.00
G2 X24.7316 Y19.2000 Z8.2000 I3.1337 J-0.6401 F1500.00
G1 X22.2684 Y19.2000 Z8.2000 F1500.00
G2 X23.4585 Y17.3000 Z8.2000 I-1.9437 J-2.5401 F1500.00
G1 X23.5415 Y17.3000 Z8.2000 F1500.00
G0 X23.5415 Y17.3000 Z15.0000
G0 X23.5000 Y18.0080 Z15.0000
G1 X23.5000 Y18.0080 Z8.2000 F300.00
G2 X24.1104 Y18.9500 Z8.2000 I2.7954 J-1.1427 F1500.00
G1 X22.8896 Y18.9500 Z8.2000 F1500.00
G2 X23.5000 Y18.0080 Z8.2000 I-1.9889 J-1.9576 F1500.00
G0 X23.5000 Y18.0080 Z15.0000
G0 X23.4961 Y18.5580 Z15.0000
G1 X23.4961 Y18.5580 Z8.2000 F300.00
G2 X23.5901 Y18.7000 Z8.2000 I0.5863 J-0.2862 F1500.00
G1 X23.4047 Y18.7000 Z8.2000 F1500.00
G1 X23.4961 Y18.5580 Z8.2000 F1500.00
G0 X23.4961 Y18.5580 Z15.0000
G0 X21.5320 Y17.3733 Z15.0000
G1 X21.5320 Y17.3733 Z8.2000 F300.00
G3 X20.5741 Y18.0616 Z8.2000 I-1.2820 J-0.7733 F1500.00
G3 X18.7884 Y16.9241 Z8.2000 I-0.3241 J-1.4616 F1500.00
G3 X19.9259 Y15.1384 Z8.2000 I1.4616 J-0.3241 F1500.00
G3 X21.5320 Y17.3733 Z8.2000 I0.3241 J1.4616 F1500.00
G1 X21.5320 Y17.3733 Z8.0000 F300.00
G3 X20.5741 Y18.0616 Z8.0000 I-1.2820 J-0.7733 F1500.00
G3 X18.7884 Y16.9241 Z8.0000 I-0.3241 J-1.4616 F1500.00
G3 X19.9259 Y15.1384 Z8.0000 I1.4616 J-0.3241 F1500.00
G3 X21.5320 Y17.3733 Z8.0000 I0.3241 J1.4616 F1500.00
G0 X21.5320 Y17.3733 Z15.0000
G0 X22.0451 Y17.6820 Z15.0000
G1 X22.0451 Y17.6820 Z8.0000 F300.00
G2 X22.2322 Y17.2798 Z8.0000 I-1.7936 J-1.0790 F1500.00
G2 X22.2804 Y16.1000 Z8.0000 I-1.8944 J-0.6682 F1500.00
G1 X24.7196 Y16.1000 Z8.0000 F1500.00
G2 X28.7322 Y17.2798 Z8.0000 I2.0318 J0.5030 F1500.00
G2 X28.7804 Y16.1000 Z8.0000 I-1.8944 J-0.6682 F1500.00
G1 X28.9000 Y16.1000 Z8.0000 F1500.00
G1 X28.9000 Y20.4000 Z8.0000 F1500.00
G1 X28.9000 Y20.4000 Z8.0000 F1500.00
G1 X18.1000 Y20.4000 Z8.0000 F1500.00
G1 X18.1000 Y20.4000 Z8.0000 F1500.00
G1 X18.1000 Y16.1000 Z8.0000 F1500.00
G1 X18.1000 Y16.1000 Z8.0000 F1500.00
G1 X18.2196 Y16.1000 Z8.0000 F1500.00
G2 X22.0451 Y17.6820 Z8.0000 I2.0318 J0.5030 F1500.00
G0 X22.0451 Y17.6820 Z15.0000
G0 X22.5561 Y17.9876 Z15.0000
G1 X22.5561 Y17.9876 Z8.0000 F300.00
G2 X22.9355 Y16.7000 Z8.0000 I-2.3060 J-1.3791 F1500.00
G1 X24.0645 Y16.7000 Z8.0000 F1500.00
G2 X28.3000 Y18.8031 Z8.0000 I2.6853 J-0.0915 F1500.00
G1 X28.3000 Y19.8000 Z8.0000 F1500.00
G1 X18.7000 Y19.8000 Z8.0000 F1500.00
G1 X18.7000 Y19.8000 Z8.0000 F1500.00
G1 X18.7000 Y18.8031 Z8.0000 F1500.00
G2 X22.5561 Y17.9876 Z8.0000 I1.5501 J-2.1947 F1500.00
G0 X22.5561 Y17.9876 Z15.0000
G0 X23.2925 Y18.4302 Z15.0000
G1 X23.2925 Y18.4302 Z8.0000 F300.00
G2 X23.5000 Y18.0080 Z8.0000 I-2.3918 J-1.4378 F1500.00
G2 X24.1104 Y18.9500 Z8.0000 I2.7954 J-1.1427 F1500.00
G1 X22.8896 Y18.9500 Z8.0000 F1500.00
G2 X23.2925 Y18.4302 Z8.0000 I-1.9889 J-1.9576 F1500.00
G0 X23.2925 Y18.4302 Z15.0000
G0 X23.4961 Y18.5580 Z15.0000
G1 X23.4961 Y18.5580 Z8.0000 F300.00
G2 X23.5901 Y18.7000 Z8.0000 I0.5863 J-0.2862 F1500.00
G1 X23.4047 Y18.7000 Z8.0000 F1500.00
G1 X23.4961 Y18.5580 Z8.0000 F1500.00
G0 X23.4961 Y18.5580 Z15.0000
G0 X23.0692 Y18.3025 Z15.0000
G1 X23.0692 Y18.3025 Z8.0000 F300.00
G2 X23.4585 Y17.3000 Z8.0000 I-2.7444 J-1.6426 F1500.00
G1 X23.5415 Y17.3000 Z8.0000 F1500.00
G2 X24.7316 Y19.2000 Z8.0000 I3.1337 J-0.6401 F1500.00
G1 X22.2684 Y19.2000 Z8.0000 F1500.00
G2 X23.0692 Y18.3025 Z8.0000 I-1.9437 J-2.5401 F1500.00
G0 X23.0692 Y18.3025 Z15.0000
G0 X25.3912 Y17.2285 Z15.0000
G1 X25.3912 Y17.2285 Z8.0000 F300.00
G3 X26.2998 Y15.1721 Z8.0000 I1.3588 J-0.6285 F1500.00
G3 X28.1779 Y16.1498 Z8.0000 I0.4502 J1.4279 F1500.00
G3 X27.2002 Y18.0279 Z8.0000 I-1.4279 J0.4502 F1500.00
G3 X25.3912 Y17.2285 Z8.0000 I-0.4502 J-1.4279 F1500.00
G0 X25.3912 Y17.2285 Z15.0000
G0 X25.3899 Y15.5000 Z15.0000
G1 X25.3899 Y15.5000 Z8.0000 F300.00
G2 X25.9443 Y15.2199 Z8.0000 I-0.1626 J-1.0108 F1500.00
G3 X27.3014 Y15.1001 Z8.0000 I0.8057 J1.3801 F1500.00
G3 X27.8211 Y15.4080 Z8.0000 I-0.6051 J1.6139 F1500.00
G2 X28.1101 Y15.5000 Z8.0000 I0.2891 J-0.4080 F1500.00
G1 X29.5000 Y15.5000 Z8.0000 F1500.00
G1 X29.6464 Y15.3536 Z8.0000 F1500.00
G1 X29.5000 Y15.5000 Z8.0000 F1500.00
G1 X29.5000 Y21.0000 Z8.0000 F1500.00
G1 X29.5000 Y21.0000 Z8.0000 F1500.00
G1 X29.6464 Y21.1464 Z8.0000 F1500.00
G1 X29.5000 Y21.0000 Z8.0000 F1500.00
G1 X17.5000 Y21.0000 Z8.0000 F1500.00
G1 X17.5000 Y21.0000 Z8.0000 F1500.00
G1 X17.3536 Y21.1464 Z8.0000 F1500.00
G1 X17.5000 Y21.0000 Z8.0000 F1500.00
G1 X17.5000 Y15.5000 Z8.0000 F1500.00
G1 X17.5000 Y15.5000 Z8.0000 F1500.00
G1 X17.3536 Y15.3536 Z8.0000 F1500.00
G1 X17.5000 Y15.5000 Z8.0000 F1500.00
G1 X18.8899 Y15.5000 Z8.0000 F1500.00
G2 X19.4443 Y15.2199 Z8.0000 I-0.1626 J-1.0108 F1500.00
G3 X21.3211 Y15.4080 Z8.0000 I0.8081 J1.3938 F1500.00
G2 X21.6101 Y15.5000 Z8.0000 I0.2891 J-0.4080 F1500.00
G1 X25.3899 Y15.5000 Z8.0000 F1500.00
G1 X25.3899 Y15.5000 Z7.8000 F300.00
G2 X25.9443 Y15.2199 Z7.8000 I-0.1626 J-1.0108 F1500.00
G3 X27.3014 Y15.1001 Z7.8000 I0.8057 J1.3801 F1500.00
G3 X27.8211 Y15.4080 Z7.8000 I-0.6051 J1.6139 F1500.00
G2 X28.1101 Y15.5000 Z7.8000 I0.2891 J-0.4080 F1500.00
G1 X29.5000 Y15.5000 Z7.8000 F1500.00
G1 X29.6464 Y15.3536 Z7.8000 F1500.00
G1 X29.5000 Y15.5000 Z7.8000 F1500.00
G1 X29.5000 Y21.0000 Z7.8000 F1500.00
G1 X29.5000 Y21.0000 Z7.8000 F1500.00
G1 X29.6464 Y21.1464 Z7.8000 F1500.00
G1 X29.5000 Y21.0000 Z7.8000 F1500.00
G1 X17.5000 Y21.0000 Z7.8000 F1500.00
G1 X17.5000 Y21.0000 Z7.8000 F1500.00
G1 X17.3536 Y21.1464 Z7.8000 F1500.00
G1 X17.5000 Y21.0000 Z7.8000 F1500.00
G1 X17.5000 Y15.5000 Z7.8000 F1500.00
G1 X17.5000 Y15.5000 Z7.8000 F1500.00
G1 X17.3536 Y15.3536 Z7.8000 F1500.00
G1 X17.5000 Y15.5000 Z7.8000 F1500.00
G1 X18.8899 Y15.5000 Z7.8000 F1500.00
G2 X19.4443 Y15.2199 Z7.8000 I-0.1626 J-1.0108 F1500.00
G3 X21.3211 Y15.4080 Z7.8000 I0.8081 J1.3938 F1500.00
G2 X21.6101 Y15.5000 Z7.8000 I0.2891 J-0.4080 F1500.00
G1 X25.3899 Y15.5000 Z7.8000 F1500.00
G0 X25.3899 Y15.5000 Z15.0000
G0 X25.5859 Y15.6586 Z15.0000
G1 X25.5859 Y15.6586 Z7.8000 F300.00
G3 X26.2998 Y15.1721 Z7.8000 I1.1641 J0.9414 F1500.00
G3 X28.1779 Y16.1498 Z7.8000 I0.4502 J1.4279 F1500.00
G3 X27.2002 Y18.0279 Z7.8000 I-1.4279 J0.4502 F1500.00
G3 X25.5859 Y15.6586 Z7.8000 I-0.4502 J-1.4279 F1500.00
G0 X25.5859 Y15.6586 Z15.0000
G0 X24.7196 Y16.1000 Z15.0000
G1 X24.7196 Y16.1000 Z7.8000 F300.00
G2 X28.7322 Y17.2798 Z7.8000 I2.0318 J0.5030 F1500.00
G2 X28.7804 Y16.1000 Z7.8000 I-1.8944 J-0.6682 F1500.00
G1 X28.9000 Y16.1000 Z7.8000 F1500.00
G1 X28.9000 Y20.4000 Z7.8000 F1500.00
G1 X28.9000 Y20.4000 Z7.8000 F1500.00
G1 X18.1000 Y20.4000 Z7.8000 F1500.00
G1 X18.1000 Y20.4000 Z7.8000 F1500.00
G1 X18.1000 Y16.1000 Z7.8000 F1500.00
G1 X18.1000 Y16.1000 Z7.8000 F1500.00
G1 X18.2196 Y16.1000 Z7.8000 F1500.00
G2 X22.2322 Y17.2798 Z7.8000 I2.0318 J0.5030 F1500.00
G2 X22.2804 Y16.1000 Z7.8000 I-1.8944 J-0.6682 F1500.00
G1 X24.7196 Y16.1000 Z7.8000 F1500.00
G0 X24.7196 Y16.1000 Z15.0000
G0 X24.0645 Y16.7000 Z15.0000
G1 X24.0645 Y16.7000 Z7.8000 F300.00
G2 X28.3000 Y18.8031 Z7.8000 I2.6853 J-0.0915 F1500.00
G1 X28.3000 Y19.8000 Z7.8000 F1500.00
G1 X18.7000 Y19.8000 Z7.8000 F1500.00
G1 X18.7000 Y19.8000 Z7.8000 F1500.00
G1 X18.7000 Y18.8031 Z7.8000 F1500.00
G2 X22.9355 Y16.7000 Z7.8000 I1.5501 J-2.1947 F1500.00
G1 X24.0645 Y16.7000 Z7.8000 F1500.00
G0 X24.0645 Y16.7000 Z15.0000
G0 X23.5415 Y17.3000 Z15.0000
G1 X23.5415 Y17.3000 Z7.8000 F300.00
G2 X24.7316 Y19.2000 Z7.8000 I3.1337 J-0.6401 F1500.00
G1 X22.2684 Y19.2000 Z7.8000 F1500.00
G2 X23.4585 Y17.3000 Z7.8000 I-1.9437 J-2.5401 F1500.00
G1 X23.5415 Y17.3000 Z7.8000 F1500.00
G0 X23.5415 Y17.3000 Z15.0000
G0 X23.5000 Y18.0080 Z15.0000
G1 X23.5000 Y18.0080 Z7.8000 F300.00
G2 X24.1104 Y18.9500 Z7.8000 I2.7954 J-1.1427 F1500.00
G1 X22.8896 Y18.9500 Z7.8000 F1500.00
G2 X23.5000 Y18.0080 Z7.8000 I-1.9889 J-1.9576 F1500.00
G0 X23.5000 Y18.0080 Z15.0000
G0 X23.4961 Y18.5580 Z15.0000
G1 X23.4961 Y18.5580 Z7.8000 F300.00
G2 X23.5901 Y18.7000 Z7.8000 I0.5863 J-0.2862 F1500.00
G1 X23.4047 Y18.7000 Z7.8000 F1500.00
G1 X23.4961 Y18.5580 Z7.8000 F1500.00
G0 X23.4961 Y18.5580 Z15.0000
G0 X21.5320 Y17.3733 Z15.0000
G1 X21.5320 Y17.3733 Z7.8000 F300.00
G3 X20.5741 Y18.0616 Z7.8000 I-1.2820 J-0.7733 F1500.00
G3 X18.7884 Y16.9241 Z7.8000 I-0.3241 J-1.4616 F1500.00
G3 X19.9259 Y15.1384 Z7.8000 I1.4616 J-0.3241 F1500.00
G3 X21.5320 Y17.3733 Z7.8000 I0.3241 J1.4616 F1500.00
G1 X21.5320 Y17.3733 Z7.6000 F300.00
G3 X20.5741 Y18.0616 Z7.6000 I-1.2820 J-0.7733 F1500.00
G3 X18.7884 Y16.9241 Z7.6000 I-0.3241 J-1.4616 F1500.00
G3 X19.9259 Y15.1384 Z7.6000 I1.4616 J-0.3241 F1500.00
G3 X21.5320 Y17.3733 Z7.6000 I0.3241 J1.4616 F1500.00
G0 X21.5320 Y17.3733 Z15.0000
G0 X22.0451 Y17.6820 Z15.0000
G1 X22.0451 Y17.6820 Z7.6000 F300.00
G2 X22.2322 Y17.2798 Z7.6000 I-1.7936 J-1.0790 F1500.00
G2 X22.2804 Y16.1000 Z7.6000 I-1.8944 J-0.6682 F1500.00
G1 X24.7196 Y16.1000 Z7.6000 F1500.00
G2 X28.7322 Y17.2798 Z7.6000 I2.0318 J0.5030 F1500.00
G2 X28.7804 Y16.1000 Z7.6000 I-1.8944 J-0.6682 F1500.00
G1 X28.9000 Y16.1000 Z7.6000 F1500.00
G1 X28.9000 Y20.4000 Z7.6000 F1500.00
G1 X28.9000 Y20.4000 Z7.6000 F1500.00
G1 X18.1000 Y20.4000 Z7.6000 F1500.00
G1 X18.1000 Y20.4000 Z7.6000 F1500.00
G1 X18.1000 Y16.1000 Z7.6000 F1500.00
G1 X18.1000 Y16.1000 Z7.6000 F1500.00
G1 X18.2196 Y16.1000 Z7.6000 F1500.00
G2 X22.0451 Y17.6820 Z7.6000 I2.0318 J0.5030 F1500.00
G0 X22.0451 Y17.6820 Z15.0000
G0 X22.5561 Y17.9876 Z15.0000
G1 X22.5561 Y17.9876 Z7.6000 F300.00
G2 X22.9355 Y16.7000 Z7.6000 I-2.3060 J-1.3791 F1500.00
G1 X24.0645 Y16.7000 Z7.6000 F1500.00
G2 X28.3000 Y18.8031 Z7.6000 I2.6853 J-0.0915 F1500.00
G1 X28.3000 Y19.8000 Z7.6000 F1500.00
G1 X18.7000 Y19.8000 Z7.6000 F1500.00
G1 X18.7000 Y19.8000 Z7.6000 F1500.00
G1 X18.7000 Y18.8031 Z7.6000 F1500.00
G2 X22.5561 Y17.9876 Z7.6000 I1.5501 J-2.1947 F1500.00
G0 X22.5561 Y17.9876 Z15.0000
G0 X23.2925 Y18.4302 Z15.0000
G1 X23.2925 Y18.4302 Z7.6000 F300.00
G2 X23.5000 Y18.0080 Z7.6000 I-2.3918 J-1.4378 F1500.00
G2 X24.1104 Y18.9500 Z7.6000 I2.7954 J-1.1427 F1500.00
G1 X22.8896 Y18.9500 Z7.6000 F1500.00
G2 X23.2925 Y18.4302 Z7.6000 I-1.9889 J-1.9576 F1500.00
G0 X23.2925 Y18.4302 Z15.0000
G0 X23.4961 Y18.5580 Z15.0000
G1 X23.4961 Y18.5580 Z7.6000 F300.00
G2 X23.5901 Y18.7000 Z7.6000 I0.5863 J-0.2862 F1500.00
G1 X23.4047 Y18.7000 Z7.6000 F1500.00
G1 X23.4961 Y18.5580 Z7.6000 F1500.00
G0 X23.4961 Y18.5580 Z15.0000
G0 X23.0692 Y18.3025 Z15.0000
G1 X23.0692 Y18.3025 Z7.6000 F300.00
G2 X23.4585 Y17.3000 Z7.6000 I-2.7444 J-1.6426 F1500.00
G1 X23.5415 Y17.3000 Z7.6000 F1500.00
G2 X24.7316 Y19.2000 Z7.6000 I3.1337 J-0.6401 F1500.00
G1 X22.2684 Y19.2000 Z7.6000 F1500.00
G2 X23.0692 Y18.3025 Z7.6000 I-1.9437 J-2.5401 F1500.00
G0 X23.0692 Y18.3025 Z15.0000
G0 X25.3912 Y17.2285 Z15.0000
G1 X25.3912 Y17.2285 Z7.6000 F300.00
G3 X26.2998 Y15.1721 Z7.6000 I1.3588 J-0.6285 F1500.00
G3 X28.1779 Y16.1498 Z7.6000 I0.4502 J1.4279 F1500.00
G3 X27.2002 Y18.0279 Z7.6000 I-1.4279 J0.4502 F1500.00
G3 X25.3912 Y17.2285 Z7.6000 I-0.4502 J-1.4279 F1500.00
G0 X25.3912 Y17.2285 Z15.0000
G0 X25.3899 Y15.5000 Z15.0000
G1 X25.3899 Y15.5000 Z7.6000 F300.00
G2 X25.9443 Y15.2199 Z7.6000 I-0.1626 J-1.0108 F1500.00
G3 X27.3014 Y15.1001 Z7.6000 I0.8057 J1.3801 F1500.00
G3 X27.8211 Y15.4080 Z7.6000 I-0.6051 J1.6139 F1500.00
G2 X28.1101 Y15.5000 Z7.6000 I0.2891 J-0.4080 F1500.00
G1 X29.5000 Y15.5000 Z7.6000 F1500.00
G1 X29.6464 Y15.3536 Z7.6000 F1500.00
G1 X29.5000 Y15.5000 Z7.6000 F1500.00
G1 X29.5000 Y21.0000 Z7.6000 F1500.00
G1 X29.5000 Y21.0000 Z7.6000 F1500.00
G1 X29.6464 Y21.1464 Z7.6000 F1500.00
G1 X29.5000 Y21.0000 Z7.6000 F1500.00
G1 X17.5000 Y21.0000 Z7.6000 F1500.00
G1 X17.5000 Y21.0000 Z7.6000 F1500.00
G1 X17.3536 Y21.1464 Z7.6000 F1500.00
G1 X17.5000 Y21.0000 Z7.6000 F1500.00
G1 X17.5000 Y15.5000 Z7.6000 F1500.00
G1 X17.5000 Y15.5000 Z7.6000 F1500.00
G1 X17.3536 Y15.3536 Z7.6000 F1500.00
G1 X17.5000 Y15.5000 Z7.6000 F1500.00
G1 X18.8899 Y15.5000 Z7.6000 F1500.00
G2 X19.4443 Y15.2199 Z7.6000 I-0.1626 J-1.0108 F1500.00
G3 X21.3211 Y15.4080 Z7.6000 I0.8081 J1.3938 F1500.00
G2 X21.6101 Y15.5000 Z7.6000 I0.2891 J-0.4080 F1500.00
G1 X25.3899 Y15.5000 Z7.6000 F1500.00
G1 X25.3899 Y15.5000 Z7.4000 F300.00
G2 X25.9443 Y15.2199 Z7.4000 I-0.1626 J-1.0108 F1500.00
G3 X27.3014 Y15.1001 Z7.4000 I0.8057 J1.3801 F1500.00
G3 X27.8211 Y15.4080 Z7.4000 I-0.6051 J1.6139 F1500.00
G2 X28.1101 Y15.5000 Z7.4000 I0.2891 J-0.4080 F1500.00
G1 X29.5000 Y15.5000 Z7.4000 F1500.00
G1 X29.6464 Y15.3536 Z7.4000 F1500.00
G1 X29.5000 Y15.5000 Z7.4000 F1500.00
G1 X29.5000 Y21.0000 Z7.4000 F1500.00
G1 X29.5000 Y21.0000 Z7.4000 F1500.00
G1 X29.6464 Y21.1464 Z7.4000 F1500.00
G1 X29.5000 Y21.0000 Z7.4000 F1500.00
G1 X17.5000 Y21.0000 Z7.4000 F1500.00
G1 X17.5000 Y21.0000 Z7.4000 F1500.00
G1 X17.3536 Y21.1464 Z7.4000 F1500.00
G1 X17.5000 Y21.0000 Z7.4000 F1500.00
G1 X17.5000 Y15.5000 Z7.4000 F1500.00
G1 X17.5000 Y15.5000 Z7.4000 F1500.00
G1 X17.3536 Y15.3536 Z7.4000 F1500.00
G1 X17.5000 Y15.5000 Z7.4000 F1500.00
G1 X18.8899 Y15.5000 Z7.4000 F1500.00
G2 X19.4443 Y15.2199 Z7.4000 I-0.1626 J-1.0108 F1500.00
G3 X21.3211 Y15.4080 Z7.4000 I0.8081 J1.3938 F1500.00
G2 X21.6101 Y15.5000 Z7.4000 I0.2891 J-0.4080 F1500.00
G1 X25.3899 Y15.5000 Z7.4000 F1500.00
G0 X25.3899 Y15.5000 Z15.0000
G0 X25.5859 Y15.6586 Z15.0000
G1 X25.5859 Y15.6586 Z7.4000 F300.00
G3 X26.2998 Y15.1721 Z7.4000 I1.1641 J0.9414 F1500.00
G3 X28.1779 Y16.1498 Z7.4000 I0.4502 J1.4279 F1500.00
G3 X27.2002 Y18.0279 Z7.4000 I-1.4279 J0.4502 F1500.00
G3 X25.5859 Y15.6586 Z7.4000 I-0.4502 J-1.4279 F1500.00
G0 X25.5859 Y15.6586 Z15.0000
G0 X24.7196 Y16.1000 Z15.0000
G1 X24.7196 Y16.1000 Z7.4000 F300.00
G2 X28.7322 Y17.2798 Z7.4000 I2.0318 J0.5030 F1500.00
G2 X28.7804 Y16.1000 Z7.4000 I-1.8944 J-0.6682 F1500.00
G1 X28.9000 Y16.1000 Z7.4000 F1500.00
G1 X28.9000 Y20.4000 Z7.4000 F1500.00
G1 X28.9000 Y20.4000 Z7.4000 F1500.00
G1 X18.1000 Y20.4000 Z7.4000 F1500.00
G1 X18.1000 Y20.4000 Z7.4000 F1500.00
G1 X18.1000 Y16.1000 Z7.4000 F1500.00
G1 X18.1000 Y16.1000 Z7.4000 F1500.00
G1 X18.2196 Y16.1000 Z7.4000 F1500.00
G2 X22.2322 Y17.2798 Z7.4000 I2.0318 J0.5030 F1500.00
G2 X22.2804 Y16.1000 Z7.4000 I-1.8944 J-0.6682 F1500.00
G1 X24.7196 Y16.1000 Z7.4000 F1500.00
G0 X24.7196 Y16.1000 Z15.0000
G0 X24.0645 Y16.7000 Z15.0000
G1 X24.0645 Y16.7000 Z7.4000 F300.00
G2 X28.3000 Y18.8031 Z7.4000 I2.6853 J-0.0915 F1500.00
G1 X28.3000 Y19.8000 Z7.4000 F1500.00
G1 X18.7000 Y19.8000 Z7.4000 F1500.00
G1 X18.7000 Y19.8000 Z7.4000 F1500.00
G1 X18.7000 Y18.8031 Z7.4000 F1500.00
G2 X22.9355 Y16.7000 Z7.4000 I1.5501 J-2.1947 F1500.00
G1 X24.0645 Y16.7000 Z7.4000 F1500.00
G0 X24.0645 Y16.7000 Z15.0000
G0 X23.5415 Y17.3000 Z15.0000
G1 X23.5415 Y17.3000 Z7.4000 F300.00
G2 X24.7316 Y19.2000 Z7.4000 I3.1337 J-0.6401 F1500.00
G1 X22.2684 Y19.2000 Z7.4000 F1500.00
G2 X23.4585 Y17.3000 Z7.4000 I-1.9437 J-2.5401 F1500.00
G1 X23.5415 Y17.3000 Z7.4000 F1500.00
G0 X23.5415 Y17.3000 Z15.0000
G0 X23.5000 Y18.0080 Z15.0000
G1 X23.5000 Y18.0080 Z7.4000 F300.00
G2 X24.1104 Y18.9500 Z7.4000 I2.7954 J-1.1427 F1500.00
G1 X22.8896 Y18.9500 Z7.4000 F1500.00
G2 X23.5000 Y18.0080 Z7.4000 I-1.9889 J-1.9576 F1500.00
G0 X23.5000 Y18.0080 Z15.0000
G0 X23.4961 Y18.5580 Z15.0000
G1 X23.4961 Y18.5580 Z7.4000 F300.00
G2 X23.5901 Y18.7000 Z7.4000 I0.5863 J-0.2862 F1500.00
G1 X23.4047 Y18.7000 Z7.4000 F1500.00
G1 X23.4961 Y18.5580 Z7.4000 F1500.00
G0 X23.4961 Y18.5580 Z15.0000
G0 X21.5320 Y17.3733 Z15.0000
G1 X21.5320 Y17.3733 Z7.4000 F300.00
G3 X20.5741 Y18.0616 Z7.4000 I-1.2820 J-0.7733 F1500.00
G3 X18.7884 Y16.9241 Z7.4000 I-0.3241 J-1.4616 F1500.00
G3 X19.9259 Y15.1384 Z7.4000 I1.4616 J-0.3241 F1500.00
G3 X21.5320 Y17.3733 Z7.4000 I0.3241 J1.4616 F1500.00
G1 X21.5320 Y17.3733 Z7.2000 F300.00
G3 X20.5741 Y18.0616 Z7.2000 I-1.2820 J-0.7733 F1500.00
G3 X18.7884 Y16.9241 Z7.2000 I-0.3241 J-1.4616 F1500.00
G3 X19.9259 Y15.1384 Z7.2000 I1.4616 J-0.3241 F1500.00
G3 X21.5320 Y17.3733 Z7.2000 I0.3241 J1.4616 F1500.00
G0 X21.5320 Y17.3733 Z15.0000
G0 X22.0451 Y17.6820 Z15.0000
G1 X22.0451 Y17.6820 Z7.2000 F300.00
G2 X22.2322 Y17.2798 Z7.2000 I-1.7936 J-1.0790 F1500.00
G2 X22.2804 Y16.1000 Z7.2000 I-1.8944 J-0.6682 F1500.00
G1 X24.7196 Y16.1000 Z7.2000 F1500.00
G2 X28.7322 Y17.2798 Z7.2000 I2.0318 J0.5030 F1500.00
G2 X28.7804 Y16.1000 Z7.2000 I-1.8944 J-0.6682 F1500.00
G1 X28.9000 Y16.1000 Z7.2000 F1500.00
G1 X28.9000 Y20.4000 Z7.2000 F1500.00
G1 X28.9000 Y20.4000 Z7.2000 F1500.00
G1 X18.1000 Y20.4000 Z7.2000 F1500.00
G1 X18.1000 Y20.4000 Z7.2000 F1500.00
G1 X18.1000 Y16.1000 Z7.2000 F1500.00
G1 X18.1000 Y16.1000 Z7.2000 F1500.00
G1 X18.2196 Y16.1000 Z7.2000 F1500.00
G2 X22.0451 Y17.6820 Z7.2000 I2.0318 J0.5030 F1500.00
G0 X22.0451 Y17.6820 Z15.0000
G0 X22.5561 Y17.9876 Z15.0000
G1 X22.5561 Y17.9876 Z7.2000 F300.00
G2 X22.9355 Y16.7000 Z7.2000 I-2.3060 J-1.3791 F1500.00
G1 X24.0645 Y16.7000 Z7.2000 F1500.00
G2 X28.3000 Y18.8031 Z7.2000 I2.6853 J-0.0915 F1500.00
G1 X28.3000 Y19.8000 Z7.2000 F1500.00
G1 X18.7000 Y19.8000 Z7.2000 F1500.00
G1 X18.7000 Y19.8000 Z7.2000 F1500.00
G1 X18.7000 Y18.8031 Z7.2000 F1500.00
G2 X22.5561 Y17.9876 Z7.2000 I1.5501 J-2.1947 F1500.00
G0 X22.5561 Y17.9876 Z15.0000
G0 X23.2925 Y18.4302 Z15.0000
G1 X23.2925 Y18.4302 Z7.2000 F300.00
G2 X23.5000 Y18.0080 Z7.2000 I-2.3918 J-1.4378 F1500.00
G2 X24.1104 Y18.9500 Z7.2000 I2.7954 J-1.1427 F1500.00
G1 X22.8896 Y18.9500 Z7.2000 F1500.00
G2 X23.2925 Y18.4302 Z7.2000 I-1.9889 J-1.9576 F1500.00
G0 X23.2925 Y18.4302 Z15.0000
G0 X23.4961 Y18.5580 Z15.0000
G1 X23.4961 Y18.5580 Z7.2000 F300.00
G2 X23.5901 Y18.7000 Z7.2000 I0.5863 J-0.2862 F1500.00
G1 X23.4047 Y18.7000 Z7.2000 F1500.00
G1 X23.4961 Y18.5580 Z7.2000 F1500.00
G0 X23.4961 Y18.5580 Z15.0000
G0 X23.0692 Y18.3025 Z15.0000
G1 X23.0692 Y18.3025 Z7.2000 F300.00
G2 X23.4585 Y17.3000 Z7.2000 I-2.7444 J-1.6426 F1500.00
G1 X23.5415 Y17.3000 Z7.2000 F1500.00
G2 X24.7316 Y19.2000 Z7.2000 I3.1337 J-0.6401 F1500.00
G1 X22.2684 Y19.2000 Z7.2000 F1500.00
G2 X23.0692 Y18.3025 Z7.2000 I-1.9437 J-2.5401 F1500.00
G0 X23.0692 Y18.3025 Z15.0000
G0 X25.3912 Y17.2285 Z15.0000
G1 X25.3912 Y17.2285 Z7.2000 F300.00
G3 X26.2998 Y15.1721 Z7.2000 I1.3588 J-0.6285 F1500.00
G3 X28.1779 Y16.1498 Z7.2000 I0.4502 J1.4279 F1500.00
G3 X27.2002 Y18.0279 Z7.2000 I-1.4279 J0.4502 F1500.00
G3 X25.3912 Y17.2285 Z7.2000 I-0.4502 J-1.4279 F1500.00
G0 X25.3912 Y17.2285 Z15.0000
G0 X25.3899 Y15.5000 Z15.0000
G1 X25.3899 Y15.5000 Z7.2000 F300.00
G2 X25.9443 Y15.2199 Z7.2000 I-0.1626 J-1.0108 F1500.00
G3 X27.3014 Y15.1001 Z7.2000 I0.8057 J1.3801 F1500.00
G3 X27.8211 Y15.4080 Z7.2000 I-0.6051 J1.6139 F1500.00
G2 X28.1101 Y15.5000 Z7.2000 I0.2891 J-0.4080 F1500.00
G1 X29.5000 Y15.5000 Z7.2000 F1500.00
G1 X29.6464 Y15.3536 Z7.2000 F1500.00
G1 X29.5000 Y15.5000 Z7.2000 F1500.00
G1 X29.5000 Y21.0000 Z7.2000 F1500.00
G1 X29.5000 Y21.0000 Z7.2000 F1500.00
G1 X29.6464 Y21.1464 Z7.2000 F1500.00
G1 X29.5000 Y21.0000 Z7.2000 F1500.00
G1 X17.5000 Y21.0000 Z7.2000 F1500.00
G1 X17.5000 Y21.0000 Z7.2000 F1500.00
G1 X17.3536 Y21.1464 Z7.2000 F1500.00
G1 X17.5000 Y21.0000 Z7.2000 F1500.00
G1 X17.5000 Y15.5000 Z7.2000 F1500.00
G1 X17.5000 Y15.5000 Z7.2000 F1500.00
G1 X17.3536 Y15.3536 Z7.2000 F1500.00
G1 X17.5000 Y15.5000 Z7.2000 F1500.00
G1 X18.8899 Y15.5000 Z7.2000 F1500.00
G2 X19.4443 Y15.2199 Z7.2000 I-0.1626 J-1.0108 F1500.00
G3 X21.3211 Y15.4080 Z7.2000 I0.8081 J1.3938 F1500.00
G2 X21.6101 Y15.5000 Z7.2000 I0.2891 J-0.4080 F1500.00
G1 X25.3899 Y15.5000 Z7.2000 F1500.00
G1 X25.3899 Y15.5000 Z7.0000 F300.00
G2 X25.9443 Y15.2199 Z7.0000 I-0.1626 J-1.0108 F1500.00
G3 X27.3014 Y15.1001 Z7.0000 I0.8057 J1.3801 F1500.00
G3 X27.8211 Y15.4080 Z7.0000 I-0.6051 J1.6139 F1500.00
G2 X28.1101 Y15.5000 Z7.0000 I0.2891 J-0.4080 F1500.00
G1 X29.5000 Y15.5000 Z7.0000 F1500.00
G1 X29.6464 Y15.3536 Z7.0000 F1500.00
G1 X29.5000 Y15.5000 Z7.0000 F1500.00
G1 X29.5000 Y21.0000 Z7.0000 F1500.00
G1 X29.5000 Y21.0000 Z7.0000 F1500.00
G1 X29.6464 Y21.1464 Z7.0000 F1500.00
G1 X29.5000 Y21.0000 Z7.0000 F1500.00
G1 X17.5000 Y21.0000 Z7.0000 F1500.00
G1 X17.5000 Y21.0000 Z7.0000 F1500.00
G1 X17.3536 Y21.1464 Z7.0000 F1500.00
G1 X17.5000 Y21.0000 Z7.0000 F1500.00
G1 X17.5000 Y15.5000 Z7.0000 F1500.00
G1 X17.5000 Y15.5000 Z7.0000 F1500.00
G1 X17.3536 Y15.3536 Z7.0000 F1500.00
G1 X17.5000 Y15.5000 Z7.0000 F1500.00
G1 X18.8899 Y15.5000 Z7.0000 F1500.00
G2 X19.4443 Y15.2199 Z7.0000 I-0.1626 J-1.0108 F1500.00
G3 X21.3211 Y15.4080 Z7.0000 I0.8081 J1.3938 F1500.00
G2 X21.6101 Y15.5000 Z7.0000 I0.2891 J-0.4080 F1500.00
G1 X25.3899 Y15.5000 Z7.0000 F1500.00
G0 X25.3899 Y15.5000 Z15.0000
G0 X25.5859 Y15.6586 Z15.0000
G1 X25.5859 Y15.6586 Z7.0000 F300.00
G3 X26.2998 Y15.1721 Z7.0000 I1.1641 J0.9414 F1500.00
G3 X28.1779 Y16.1498 Z7.0000 I0.4502 J1.4279 F1500.00
G3 X27.2002 Y18.0279 Z7.0000 I-1.4279 J0.4502 F1500.00
G3 X25.5859 Y15.6586 Z7.0000 I-0.4502 J-1.4279 F1500.00
G0 X25.5859 Y15.6586 Z15.0000
G0 X24.7196 Y16.1000 Z15.0000
G1 X24.7196 Y16.1000 Z7.0000 F300.00
G2 X28.7322 Y17.2798 Z7.0000 I2.0318 J0.5030 F1500.00
G2 X28.7804 Y16.1000 Z7.0000 I-1.8944 J-0.6682 F1500.00
G1 X28.9000 Y16.1000 Z7.0000 F1500.00
G1 X28.9000 Y20.4000 Z7.0000 F1500.00
G1 X28.9000 Y20.4000 Z7.0000 F1500.00
G1 X18.1000 Y20.4000 Z7.0000 F1500.00
G1 X18.1000 Y20.4000 Z7.0000 F1500.00
G1 X18.1000 Y16.1000 Z7.0000 F1500.00
G1 X18.1000 Y16.1000 Z7.0000 F1500.00
G1 X18.2196 Y16.1000 Z7.0000 F1500.00
G2 X22.2322 Y17.2798 Z7.0000 I2.0318 J0.5030 F1500.00
G2 X22.2804 Y16.1000 Z7.0000 I-1.8944 J-0.6682 F1500.00
G1 X24.7196 Y16.1000 Z7.0000 F1500.00
G0 X24.7196 Y16.1000 Z15.0000
G0 X24.0645 Y16.7000 Z15.0000
G1 X24.0645 Y16.7000 Z7.0000 F300.00
G2 X28.3000 Y18.8031 Z7.0000 I2.6853 J-0.0915 F1500.00
G1 X28.3000 Y19.8000 Z7.0000 F1500.00
G1 X18.7000 Y19.8000 Z7.0000 F1500.00
G1 X18.7000 Y19.8000 Z7.0000 F1500.00
G1 X18.7000 Y18.8031 Z7.0000 F1500.00
G2 X22.9355 Y16.7000 Z7.0000 I1.5501 J-2.1947 F1500.00
G1 X24.0645 Y16.7000 Z7.0000 F1500.00
G0 X24.0645 Y16.7000 Z15.0000
G0 X23.5415 Y17.3000 Z15.0000
G1 X23.5415 Y17.3000 Z7.0000 F300.00
G2 X24.7316 Y19.2000 Z7.0000 I3.1337 J-0.6401 F1500.00
G1 X22.2684 Y19.2000 Z7.0000 F1500.00
G2 X23.4585 Y17.3000 Z7.0000 I-1.9437 J-2.5401 F1500.00
G1 X23.5415 Y17.3000 Z7.0000 F1500.00
G0 X23.5415 Y17.3000 Z15.0000
G0 X23.5000 Y18.0080 Z15.0000
G1 X23.5000 Y18.0080 Z7.0000 F300.00
G2 X24.1104 Y18.9500 Z7.0000 I2.7954 J-1.1427 F1500.00
G1 X22.8896 Y18.9500 Z7.0000 F1500.00
G2 X23.5000 Y18.0080 Z7.0000 I-1.9889 J-1.9576 F1500.00
G0 X23.5000 Y18.0080 Z15.0000
G0 X23.4961 Y18.5580 Z15.0000
G1 X23.4961 Y18.5580 Z7.0000 F300.00
G2 X23.5901 Y18.7000 Z7.0000 I0.5863 J-0.2862 F1500.00
G1 X23.4047 Y18.7000 Z7.0000 F1500.00
G1 X23.4961 Y18.5580 Z7.0000 F1500.00
G0 X23.4961 Y18.5580 Z15.0000
G0 X21.5320 Y17.3733 Z15.0000
G1 X21.5320 Y17.3733 Z7.0000 F300.00
G3 X20.5741 Y18.0616 Z7.0000 I-1.2820 J-0.7733 F1500.00
G3 X18.7884 Y16.9241 Z7.0000 I-0.3241 J-1.4616 F1500.00
G3 X19.9259 Y15.1384 Z7.0000 I1.4616 J-0.3241 F1500.00
G3 X21.5320 Y17.3733 Z7.0000 I0.3241 J1.4616 F1500.00
G1 X21.5320 Y17.3733 Z6.8000 F300.00
G3 X20.5741 Y18.0616 Z6.8000 I-1.2820 J-0.7733 F1500.00
G3 X18.7884 Y16.9241 Z6.8000 I-0.3241 J-1.4616 F1500.00
G3 X19.9259 Y15.1384 Z6.8000 I1.4616 J-0.3241 F1500.00
G3 X21.5320 Y17.3733 Z6.8000 I0.3241 J1.4616 F1500.00
G0 X21.5320 Y17.3733 Z15.0000
G0 X22.0451 Y17.6820 Z15.0000
G1 X22.0451 Y17.6820 Z6.8000 F300.00
G2 X22.2322 Y17.2798 Z6.8000 I-1.7936 J-1.0790 F1500.00
G2 X22.2804 Y16.1000 Z6.8000 I-1.8944 J-0.6682 F1500.00
G1 X24.7196 Y16.1000 Z6.8000 F1500.00
G2 X28.7322 Y17.2798 Z6.8000 I2.0318 J0.5030 F1500.00
G2 X28.7804 Y16.1000 Z6.8000 I-1.8944 J-0.6682 F1500.00
G1 X28.9000 Y16.1000 Z6.8000 F1500.00
G1 X28.9000 Y20.4000 Z6.8000 F1500.00
G1 X28.9000 Y20.4000 Z6.8000 F1500.00
G1 X18.1000 Y20.4000 Z6.8000 F1500.00
G1 X18.1000 Y20.4000 Z6.8000 F1500.00
G1 X18.1000 Y16.1000 Z6.8000 F1500.00
G1 X18.1000 Y16.1000 Z6.8000 F1500.00
G1 X18.2196 Y16.1000 Z6.8000 F1500.00
G2 X22.0451 Y17.6820 Z6.8000 I2.0318 J0.5030 F1500.00
G0 X22.0451 Y17.6820 Z15.0000
G0 X22.5561 Y17.9876 Z15.0000
G1 X22.5561 Y17.9876 Z6.8000 F300.00
G2 X22.9355 Y16.7000 Z6.8000 I-2.3060 J-1.3791 F1500.00
G1 X24.0645 Y16.7000 Z6.8000 F1500.00
G2 X28.3000 Y18.8031 Z6.8000 I2.6853 J-0.0915 F1500.00
G1 X28.3000 Y19.8000 Z6.8000 F1500.00
G1 X18.7000 Y19.8000 Z6.8000 F1500.00
G1 X18.7000 Y19.8000 Z6.8000 F1500.00
G1 X18.7000 Y18.8031 Z6.8000 F1500.00
G2 X22.5561 Y17.9876 Z6.8000 I1.5501 J-2.1947 F1500.00
