(Exported by FreeCAD)
(Post Processor: grbl_post)
(Output Time:2019-08-31 00:55:22.096608)
(begin preamble)
G17 G90
G21
(begin operation: T4: SingleFlute1mm)
(Path: T4: SingleFlute1mm)
(T4: SingleFlute1mm)
(begin toolchange)
; M6 T4
M3 S8000.0000
(finish operation: T4: SingleFlute1mm)
(begin operation: DogboneDressup002)
(Path: DogboneDressup002)
(Pocket_Shape001)
G0 Z15.0000
G0 X31.5000 Y3.1000
G0 Z13.0000
G1 X31.5000 Y3.1000 Z9.5000 F300.00
G1 X31.5000 Y2.5000 Z9.5000 F1500.00
G1 X32.1000 Y2.5000 Z9.5000 F1500.00
G1 X31.5000 Y2.5000 Z9.5000 F1500.00
G1 X4.8146 Y2.5000 Z9.5000 F1500.00
G2 X3.4900 Y3.8246 Z9.5000 I-0.0184 J1.3062 F1500.00
G1 X3.4900 Y9.2600 Z9.5000 F1500.00
G3 X3.2500 Y9.7071 Z9.5000 I-0.5579 J-0.0115 F1500.00
G1 X3.2500 Y14.5000 Z9.5000 F1500.00
G1 X3.2500 Y15.1000 Z9.5000 F1500.00
G1 X3.2500 Y15.1000 Z9.5000 F1500.00
G1 X3.2500 Y14.5000 Z9.5000 F1500.00
G1 X3.7182 Y14.5000 Z9.5000 F1500.00
G1 X3.7182 Y14.5000 Z9.5000 F1500.00
G1 X3.7182 Y14.5000 Z9.5000 F1500.00
G1 X3.7182 Y15.1000 Z9.5000 F1500.00
G1 X3.7182 Y15.1000 Z9.5000 F1500.00
G1 X3.7182 Y14.5000 Z9.5000 F1500.00
G1 X3.7500 Y14.4770 Z9.5000 F1500.00
G1 X3.7500 Y14.4770 Z9.5000 F1500.00
G1 X3.7500 Y14.4770 Z9.5000 F1500.00
G1 X3.7500 Y15.0770 Z9.5000 F1500.00
G1 X3.7500 Y15.0770 Z9.5000 F1500.00
G1 X3.7500 Y14.4770 Z9.5000 F1500.00
G1 X3.7500 Y14.4770 Z9.5000 F1500.00
G1 X3.7500 Y9.7071 Z9.5000 F1500.00
G3 X3.5100 Y9.2600 Z9.5000 I0.3439 J-0.4725 F1500.00
G1 X3.5100 Y4.6000 Z9.5000 F1500.00
G3 X4.9936 Y3.1003 Z9.5000 I1.5015 J0.0016 F1500.00
G3 X7.9900 Y3.1000 Z9.5000 I1.5064 J91.5214 F1500.00
G3 X8.4900 Y3.6000 Z9.5000 I-0.0000 J0.5000 F1500.00
G1 X8.4900 Y9.2600 Z9.5000 F1500.00
G3 X8.2500 Y9.7071 Z9.5000 I-0.5579 J-0.0115 F1500.00
G1 X8.2500 Y14.5000 Z9.5000 F1500.00
G1 X8.2500 Y15.1000 Z9.5000 F1500.00
G1 X8.2500 Y15.1000 Z9.5000 F1500.00
G1 X8.2500 Y14.5000 Z9.5000 F1500.00
G1 X8.7500 Y14.5000 Z9.5000 F1500.00
G1 X8.7500 Y14.5000 Z9.5000 F1500.00
G1 X8.7500 Y14.5000 Z9.5000 F1500.00
G1 X8.7500 Y15.1000 Z9.5000 F1500.00
G1 X8.7500 Y15.1000 Z9.5000 F1500.00
G1 X8.7500 Y14.5000 Z9.5000 F1500.00
G1 X8.7500 Y14.5000 Z9.5000 F1500.00
G1 X8.7500 Y9.7071 Z9.5000 F1500.00
G3 X8.5100 Y9.2600 Z9.5000 I0.3439 J-0.4725 F1500.00
G1 X8.5100 Y4.6000 Z9.5000 F1500.00
G3 X9.9936 Y3.1003 Z9.5000 I1.5015 J0.0016 F1500.00
G3 X12.9900 Y3.1000 Z9.5000 I1.5064 J91.5214 F1500.00
G3 X13.4900 Y3.6000 Z9.5000 I-0.0000 J0.5000 F1500.00
G1 X13.4900 Y9.2600 Z9.5000 F1500.00
G3 X13.2500 Y9.7071 Z9.5000 I-0.5579 J-0.0115 F1500.00
G1 X13.2500 Y14.4770 Z9.5000 F1500.00
G1 X13.2500 Y15.0770 Z9.5000 F1500.00
G1 X13.2500 Y15.0770 Z9.5000 F1500.00
G1 X13.2500 Y14.4770 Z9.5000 F1500.00
G1 X13.2818 Y14.5000 Z9.5000 F1500.00
G1 X13.2818 Y14.5000 Z9.5000 F1500.00
G1 X13.2818 Y14.5000 Z9.5000 F1500.00
G1 X13.2818 Y15.1000 Z9.5000 F1500.00
G1 X13.2818 Y15.1000 Z9.5000 F1500.00
G1 X13.2818 Y14.5000 Z9.5000 F1500.00
G1 X13.7500 Y14.5000 Z9.5000 F1500.00
G1 X13.7500 Y14.5000 Z9.5000 F1500.00
G1 X13.7500 Y14.5000 Z9.5000 F1500.00
G1 X13.7500 Y15.1000 Z9.5000 F1500.00
G1 X13.7500 Y15.1000 Z9.5000 F1500.00
G1 X13.7500 Y14.5000 Z9.5000 F1500.00
G1 X13.7500 Y14.5000 Z9.5000 F1500.00
G1 X13.7500 Y9.7071 Z9.5000 F1500.00
G3 X13.5100 Y9.2600 Z9.5000 I0.3439 J-0.4725 F1500.00
G1 X13.5100 Y4.6000 Z9.5000 F1500.00
G3 X15.0100 Y3.1000 Z9.5000 I1.5000 J0.0000 F1500.00
G1 X31.5000 Y3.1000 Z9.5000 F1500.00
G1 X31.5000 Y3.1000 Z9.0000 F300.00
G1 X31.5000 Y2.5000 Z9.0000 F1500.00
G1 X4.8146 Y2.5000 Z9.0000 F1500.00
G2 X3.4900 Y3.8246 Z9.0000 I-0.0184 J1.3062 F1500.00
G1 X3.4900 Y9.2600 Z9.0000 F1500.00
G3 X3.2500 Y9.7071 Z9.0000 I-0.5579 J-0.0115 F1500.00
G1 X3.2500 Y14.5000 Z9.0000 F1500.00
G1 X3.2500 Y15.1000 Z9.0000 F1500.00
G1 X3.2500 Y15.1000 Z9.0000 F1500.00
G1 X3.2500 Y14.5000 Z9.0000 F1500.00
G1 X3.7182 Y14.5000 Z9.0000 F1500.00
G1 X3.7182 Y14.5000 Z9.0000 F1500.00
G1 X3.7182 Y14.5000 Z9.0000 F1500.00
G1 X3.7182 Y15.1000 Z9.0000 F1500.00
G1 X3.7182 Y15.1000 Z9.0000 F1500.00
G1 X3.7182 Y14.5000 Z9.0000 F1500.00
G1 X3.7500 Y14.4770 Z9.0000 F1500.00
G1 X3.7500 Y14.4770 Z9.0000 F1500.00
G1 X3.7500 Y14.4770 Z9.0000 F1500.00
G1 X3.7500 Y15.0770 Z9.0000 F1500.00
G1 X3.7500 Y15.0770 Z9.0000 F1500.00
G1 X3.7500 Y14.4770 Z9.0000 F1500.00
G1 X3.7500 Y14.4770 Z9.0000 F1500.00
G1 X3.7500 Y9.7071 Z9.0000 F1500.00
G3 X3.5100 Y9.2600 Z9.0000 I0.3439 J-0.4725 F1500.00
G1 X3.5100 Y4.6000 Z9.0000 F1500.00
G3 X4.9936 Y3.1003 Z9.0000 I1.5015 J0.0016 F1500.00
G3 X7.9900 Y3.1000 Z9.0000 I1.5064 J91.5214 F1500.00
G3 X8.4900 Y3.6000 Z9.0000 I-0.0000 J0.5000 F1500.00
G1 X8.4900 Y9.2600 Z9.0000 F1500.00
G3 X8.2500 Y9.7071 Z9.0000 I-0.5579 J-0.0115 F1500.00
G1 X8.2500 Y14.5000 Z9.0000 F1500.00
G1 X8.2500 Y15.1000 Z9.0000 F1500.00
G1 X8.2500 Y15.1000 Z9.0000 F1500.00
G1 X8.2500 Y14.5000 Z9.0000 F1500.00
G1 X8.7500 Y14.5000 Z9.0000 F1500.00
G1 X8.7500 Y14.5000 Z9.0000 F1500.00
G1 X8.7500 Y14.5000 Z9.0000 F1500.00
G1 X8.7500 Y15.1000 Z9.0000 F1500.00
G1 X8.7500 Y15.1000 Z9.0000 F1500.00
G1 X8.7500 Y14.5000 Z9.0000 F1500.00
G1 X8.7500 Y14.5000 Z9.0000 F1500.00
G1 X8.7500 Y9.7071 Z9.0000 F1500.00
G3 X8.5100 Y9.2600 Z9.0000 I0.3439 J-0.4725 F1500.00
G1 X8.5100 Y4.6000 Z9.0000 F1500.00
G3 X9.9936 Y3.1003 Z9.0000 I1.5015 J0.0016 F1500.00
G3 X12.9900 Y3.1000 Z9.0000 I1.5064 J91.5214 F1500.00
G3 X13.4900 Y3.6000 Z9.0000 I-0.0000 J0.5000 F1500.00
G1 X13.4900 Y9.2600 Z9.0000 F1500.00
G3 X13.2500 Y9.7071 Z9.0000 I-0.5579 J-0.0115 F1500.00
G1 X13.2500 Y14.4770 Z9.0000 F1500.00
G1 X13.2500 Y15.0770 Z9.0000 F1500.00
G1 X13.2500 Y15.0770 Z9.0000 F1500.00
G1 X13.2500 Y14.4770 Z9.0000 F1500.00
G1 X13.2818 Y14.5000 Z9.0000 F1500.00
G1 X13.2818 Y14.5000 Z9.0000 F1500.00
G1 X13.2818 Y14.5000 Z9.0000 F1500.00
G1 X13.2818 Y15.1000 Z9.0000 F1500.00
G1 X13.2818 Y15.1000 Z9.0000 F1500.00
G1 X13.2818 Y14.5000 Z9.0000 F1500.00
G1 X13.7500 Y14.5000 Z9.0000 F1500.00
G1 X13.7500 Y14.5000 Z9.0000 F1500.00
G1 X13.7500 Y14.5000 Z9.0000 F1500.00
G1 X13.7500 Y15.1000 Z9.0000 F1500.00
G1 X13.7500 Y15.1000 Z9.0000 F1500.00
G1 X13.7500 Y14.5000 Z9.0000 F1500.00
G1 X13.7500 Y14.5000 Z9.0000 F1500.00
G1 X13.7500 Y9.7071 Z9.0000 F1500.00
G3 X13.5100 Y9.2600 Z9.0000 I0.3439 J-0.4725 F1500.00
G1 X13.5100 Y4.6000 Z9.0000 F1500.00
G3 X15.0100 Y3.1000 Z9.0000 I1.5000 J0.0000 F1500.00
G1 X31.5000 Y3.1000 Z9.0000 F1500.00
G1 X31.5000 Y3.1000 Z8.5000 F300.00
G1 X31.5000 Y2.5000 Z8.5000 F1500.00
G1 X4.8146 Y2.5000 Z8.5000 F1500.00
G2 X3.4900 Y3.8246 Z8.5000 I-0.0184 J1.3062 F1500.00
G1 X3.4900 Y9.2600 Z8.5000 F1500.00
G3 X3.2500 Y9.7071 Z8.5000 I-0.5579 J-0.0115 F1500.00
G1 X3.2500 Y14.5000 Z8.5000 F1500.00
G1 X3.2500 Y15.1000 Z8.5000 F1500.00
G1 X3.2500 Y15.1000 Z8.5000 F1500.00
G1 X3.2500 Y14.5000 Z8.5000 F1500.00
G1 X3.7182 Y14.5000 Z8.5000 F1500.00
G1 X3.7182 Y14.5000 Z8.5000 F1500.00
G1 X3.7182 Y14.5000 Z8.5000 F1500.00
G1 X3.7182 Y15.1000 Z8.5000 F1500.00
G1 X3.7182 Y15.1000 Z8.5000 F1500.00
G1 X3.7182 Y14.5000 Z8.5000 F1500.00
G1 X3.7500 Y14.4770 Z8.5000 F1500.00
G1 X3.7500 Y14.4770 Z8.5000 F1500.00
G1 X3.7500 Y14.4770 Z8.5000 F1500.00
G1 X3.7500 Y15.0770 Z8.5000 F1500.00
G1 X3.7500 Y15.0770 Z8.5000 F1500.00
G1 X3.7500 Y14.4770 Z8.5000 F1500.00
G1 X3.7500 Y14.4770 Z8.5000 F1500.00
G1 X3.7500 Y9.7071 Z8.5000 F1500.00
G3 X3.5100 Y9.2600 Z8.5000 I0.3439 J-0.4725 F1500.00
G1 X3.5100 Y4.6000 Z8.5000 F1500.00
G3 X4.9936 Y3.1003 Z8.5000 I1.5015 J0.0016 F1500.00
G3 X7.9900 Y3.1000 Z8.5000 I1.5064 J91.5214 F1500.00
G3 X8.4900 Y3.6000 Z8.5000 I-0.0000 J0.5000 F1500.00
G1 X8.4900 Y9.2600 Z8.5000 F1500.00
G3 X8.2500 Y9.7071 Z8.5000 I-0.5579 J-0.0115 F1500.00
G1 X8.2500 Y14.5000 Z8.5000 F1500.00
G1 X8.2500 Y15.1000 Z8.5000 F1500.00
G1 X8.2500 Y15.1000 Z8.5000 F1500.00
G1 X8.2500 Y14.5000 Z8.5000 F1500.00
G1 X8.7500 Y14.5000 Z8.5000 F1500.00
G1 X8.7500 Y14.5000 Z8.5000 F1500.00
G1 X8.7500 Y14.5000 Z8.5000 F1500.00
G1 X8.7500 Y15.1000 Z8.5000 F1500.00
G1 X8.7500 Y15.1000 Z8.5000 F1500.00
G1 X8.7500 Y14.5000 Z8.5000 F1500.00
G1 X8.7500 Y14.5000 Z8.5000 F1500.00
G1 X8.7500 Y9.7071 Z8.5000 F1500.00
G3 X8.5100 Y9.2600 Z8.5000 I0.3439 J-0.4725 F1500.00
G1 X8.5100 Y4.6000 Z8.5000 F1500.00
G3 X9.9936 Y3.1003 Z8.5000 I1.5015 J0.0016 F1500.00
G3 X12.9900 Y3.1000 Z8.5000 I1.5064 J91.5214 F1500.00
G3 X13.4900 Y3.6000 Z8.5000 I-0.0000 J0.5000 F1500.00
G1 X13.4900 Y9.2600 Z8.5000 F1500.00
G3 X13.2500 Y9.7071 Z8.5000 I-0.5579 J-0.0115 F1500.00
G1 X13.2500 Y14.4770 Z8.5000 F1500.00
G1 X13.2500 Y15.0770 Z8.5000 F1500.00
G1 X13.2500 Y15.0770 Z8.5000 F1500.00
G1 X13.2500 Y14.4770 Z8.5000 F1500.00
G1 X13.2818 Y14.5000 Z8.5000 F1500.00
G1 X13.2818 Y14.5000 Z8.5000 F1500.00
G1 X13.2818 Y14.5000 Z8.5000 F1500.00
G1 X13.2818 Y15.1000 Z8.5000 F1500.00
G1 X13.2818 Y15.1000 Z8.5000 F1500.00
G1 X13.2818 Y14.5000 Z8.5000 F1500.00
G1 X13.7500 Y14.5000 Z8.5000 F1500.00
G1 X13.7500 Y14.5000 Z8.5000 F1500.00
G1 X13.7500 Y14.5000 Z8.5000 F1500.00
G1 X13.7500 Y15.1000 Z8.5000 F1500.00
G1 X13.7500 Y15.1000 Z8.5000 F1500.00
G1 X13.7500 Y14.5000 Z8.5000 F1500.00
G1 X13.7500 Y14.5000 Z8.5000 F1500.00
G1 X13.7500 Y9.7071 Z8.5000 F1500.00
G3 X13.5100 Y9.2600 Z8.5000 I0.3439 J-0.4725 F1500.00
G1 X13.5100 Y4.6000 Z8.5000 F1500.00
G3 X15.0100 Y3.1000 Z8.5000 I1.5000 J0.0000 F1500.00
G1 X31.5000 Y3.1000 Z8.5000 F1500.00
G1 X31.5000 Y3.1000 Z8.0000 F300.00
G1 X31.5000 Y2.5000 Z8.0000 F1500.00
G1 X4.8146 Y2.5000 Z8.0000 F1500.00
G2 X3.4900 Y3.8246 Z8.0000 I-0.0184 J1.3062 F1500.00
G1 X3.4900 Y9.2600 Z8.0000 F1500.00
G3 X3.2500 Y9.7071 Z8.0000 I-0.5579 J-0.0115 F1500.00
G1 X3.2500 Y14.5000 Z8.0000 F1500.00
G1 X3.2500 Y15.1000 Z8.0000 F1500.00
G1 X3.2500 Y15.1000 Z8.0000 F1500.00
G1 X3.2500 Y14.5000 Z8.0000 F1500.00
G1 X3.7182 Y14.5000 Z8.0000 F1500.00
G1 X3.7182 Y14.5000 Z8.0000 F1500.00
G1 X3.7182 Y14.5000 Z8.0000 F1500.00
G1 X3.7182 Y15.1000 Z8.0000 F1500.00
G1 X3.7182 Y15.1000 Z8.0000 F1500.00
G1 X3.7182 Y14.5000 Z8.0000 F1500.00
G1 X3.7500 Y14.4770 Z8.0000 F1500.00
G1 X3.7500 Y14.4770 Z8.0000 F1500.00
G1 X3.7500 Y14.4770 Z8.0000 F1500.00
G1 X3.7500 Y15.0770 Z8.0000 F1500.00
G1 X3.7500 Y15.0770 Z8.0000 F1500.00
G1 X3.7500 Y14.4770 Z8.0000 F1500.00
G1 X3.7500 Y14.4770 Z8.0000 F1500.00
G1 X3.7500 Y9.7071 Z8.0000 F1500.00
G3 X3.5100 Y9.2600 Z8.0000 I0.3439 J-0.4725 F1500.00
G1 X3.5100 Y4.6000 Z8.0000 F1500.00
G3 X4.9936 Y3.1003 Z8.0000 I1.5015 J0.0016 F1500.00
G3 X7.9900 Y3.1000 Z8.0000 I1.5064 J91.5214 F1500.00
G3 X8.4900 Y3.6000 Z8.0000 I-0.0000 J0.5000 F1500.00
G1 X8.4900 Y9.2600 Z8.0000 F1500.00
G3 X8.2500 Y9.7071 Z8.0000 I-0.5579 J-0.0115 F1500.00
G1 X8.2500 Y14.5000 Z8.0000 F1500.00
G1 X8.2500 Y15.1000 Z8.0000 F1500.00
G1 X8.2500 Y15.1000 Z8.0000 F1500.00
G1 X8.2500 Y14.5000 Z8.0000 F1500.00
G1 X8.7500 Y14.5000 Z8.0000 F1500.00
G1 X8.7500 Y14.5000 Z8.0000 F1500.00
G1 X8.7500 Y14.5000 Z8.0000 F1500.00
G1 X8.7500 Y15.1000 Z8.0000 F1500.00
G1 X8.7500 Y15.1000 Z8.0000 F1500.00
G1 X8.7500 Y14.5000 Z8.0000 F1500.00
G1 X8.7500 Y14.5000 Z8.0000 F1500.00
G1 X8.7500 Y9.7071 Z8.0000 F1500.00
G3 X8.5100 Y9.2600 Z8.0000 I0.3439 J-0.4725 F1500.00
G1 X8.5100 Y4.6000 Z8.0000 F1500.00
G3 X9.9936 Y3.1003 Z8.0000 I1.5015 J0.0016 F1500.00
G3 X12.9900 Y3.1000 Z8.0000 I1.5064 J91.5214 F1500.00
G3 X13.4900 Y3.6000 Z8.0000 I-0.0000 J0.5000 F1500.00
G1 X13.4900 Y9.2600 Z8.0000 F1500.00
G3 X13.2500 Y9.7071 Z8.0000 I-0.5579 J-0.0115 F1500.00
G1 X13.2500 Y14.4770 Z8.0000 F1500.00
G1 X13.2500 Y15.0770 Z8.0000 F1500.00
G1 X13.2500 Y15.0770 Z8.0000 F1500.00
G1 X13.2500 Y14.4770 Z8.0000 F1500.00
G1 X13.2818 Y14.5000 Z8.0000 F1500.00
G1 X13.2818 Y14.5000 Z8.0000 F1500.00
G1 X13.2818 Y14.5000 Z8.0000 F1500.00
G1 X13.2818 Y15.1000 Z8.0000 F1500.00
G1 X13.2818 Y15.1000 Z8.0000 F1500.00
G1 X13.2818 Y14.5000 Z8.0000 F1500.00
G1 X13.7500 Y14.5000 Z8.0000 F1500.00
G1 X13.7500 Y14.5000 Z8.0000 F1500.00
G1 X13.7500 Y14.5000 Z8.0000 F1500.00
G1 X13.7500 Y15.1000 Z8.0000 F1500.00
G1 X13.7500 Y15.1000 Z8.0000 F1500.00
G1 X13.7500 Y14.5000 Z8.0000 F1500.00
G1 X13.7500 Y14.5000 Z8.0000 F1500.00
G1 X13.7500 Y9.7071 Z8.0000 F1500.00
G3 X13.5100 Y9.2600 Z8.0000 I0.3439 J-0.4725 F1500.00
G1 X13.5100 Y4.6000 Z8.0000 F1500.00
G3 X15.0100 Y3.1000 Z8.0000 I1.5000 J0.0000 F1500.00
G1 X31.5000 Y3.1000 Z8.0000 F1500.00
G1 X31.5000 Y3.1000 Z7.5000 F300.00
G1 X31.5000 Y2.5000 Z7.5000 F1500.00
G1 X4.8146 Y2.5000 Z7.5000 F1500.00
G2 X3.4900 Y3.8246 Z7.5000 I-0.0184 J1.3062 F1500.00
G1 X3.4900 Y9.2600 Z7.5000 F1500.00
G3 X3.2500 Y9.7071 Z7.5000 I-0.5579 J-0.0115 F1500.00
G1 X3.2500 Y14.5000 Z7.5000 F1500.00
G1 X3.2500 Y15.1000 Z7.5000 F1500.00
G1 X3.2500 Y15.1000 Z7.5000 F1500.00
G1 X3.2500 Y14.5000 Z7.5000 F1500.00
G1 X3.7182 Y14.5000 Z7.5000 F1500.00
G1 X3.7182 Y14.5000 Z7.5000 F1500.00
G1 X3.7182 Y14.5000 Z7.5000 F1500.00
G1 X3.7182 Y15.1000 Z7.5000 F1500.00
G1 X3.7182 Y15.1000 Z7.5000 F1500.00
G1 X3.7182 Y14.5000 Z7.5000 F1500.00
G1 X3.7500 Y14.4770 Z7.5000 F1500.00
G1 X3.7500 Y14.4770 Z7.5000 F1500.00
G1 X3.7500 Y14.4770 Z7.5000 F1500.00
G1 X3.7500 Y15.0770 Z7.5000 F1500.00
G1 X3.7500 Y15.0770 Z7.5000 F1500.00
G1 X3.7500 Y14.4770 Z7.5000 F1500.00
G1 X3.7500 Y14.4770 Z7.5000 F1500.00
G1 X3.7500 Y9.7071 Z7.5000 F1500.00
G3 X3.5100 Y9.2600 Z7.5000 I0.3439 J-0.4725 F1500.00
G1 X3.5100 Y4.6000 Z7.5000 F1500.00
G3 X4.9936 Y3.1003 Z7.5000 I1.5015 J0.0016 F1500.00
G3 X7.9900 Y3.1000 Z7.5000 I1.5064 J91.5214 F1500.00
G3 X8.4900 Y3.6000 Z7.5000 I-0.0000 J0.5000 F1500.00
G1 X8.4900 Y9.2600 Z7.5000 F1500.00
G3 X8.2500 Y9.7071 Z7.5000 I-0.5579 J-0.0115 F1500.00
G1 X8.2500 Y14.5000 Z7.5000 F1500.00
G1 X8.2500 Y15.1000 Z7.5000 F1500.00
G1 X8.2500 Y15.1000 Z7.5000 F1500.00
G1 X8.2500 Y14.5000 Z7.5000 F1500.00
G1 X8.7500 Y14.5000 Z7.5000 F1500.00
G1 X8.7500 Y14.5000 Z7.5000 F1500.00
G1 X8.7500 Y14.5000 Z7.5000 F1500.00
G1 X8.7500 Y15.1000 Z7.5000 F1500.00
G1 X8.7500 Y15.1000 Z7.5000 F1500.00
G1 X8.7500 Y14.5000 Z7.5000 F1500.00
G1 X8.7500 Y14.5000 Z7.5000 F1500.00
G1 X8.7500 Y9.7071 Z7.5000 F1500.00
G3 X8.5100 Y9.2600 Z7.5000 I0.3439 J-0.4725 F1500.00
G1 X8.5100 Y4.6000 Z7.5000 F1500.00
G3 X9.9936 Y3.1003 Z7.5000 I1.5015 J0.0016 F1500.00
G3 X12.9900 Y3.1000 Z7.5000 I1.5064 J91.5214 F1500.00
G3 X13.4900 Y3.6000 Z7.5000 I-0.0000 J0.5000 F1500.00
G1 X13.4900 Y9.2600 Z7.5000 F1500.00
G3 X13.2500 Y9.7071 Z7.5000 I-0.5579 J-0.0115 F1500.00
G1 X13.2500 Y14.4770 Z7.5000 F1500.00
G1 X13.2500 Y15.0770 Z7.5000 F1500.00
G1 X13.2500 Y15.0770 Z7.5000 F1500.00
G1 X13.2500 Y14.4770 Z7.5000 F1500.00
G1 X13.2818 Y14.5000 Z7.5000 F1500.00
G1 X13.2818 Y14.5000 Z7.5000 F1500.00
G1 X13.2818 Y14.5000 Z7.5000 F1500.00
G1 X13.2818 Y15.1000 Z7.5000 F1500.00
G1 X13.2818 Y15.1000 Z7.5000 F1500.00
G1 X13.2818 Y14.5000 Z7.5000 F1500.00
G1 X13.7500 Y14.5000 Z7.5000 F1500.00
G1 X13.7500 Y14.5000 Z7.5000 F1500.00
G1 X13.7500 Y14.5000 Z7.5000 F1500.00
G1 X13.7500 Y15.1000 Z7.5000 F1500.00
G1 X13.7500 Y15.1000 Z7.5000 F1500.00
G1 X13.7500 Y14.5000 Z7.5000 F1500.00
G1 X13.7500 Y14.5000 Z7.5000 F1500.00
G1 X13.7500 Y9.7071 Z7.5000 F1500.00
G3 X13.5100 Y9.2600 Z7.5000 I0.3439 J-0.4725 F1500.00
G1 X13.5100 Y4.6000 Z7.5000 F1500.00
G3 X15.0100 Y3.1000 Z7.5000 I1.5000 J0.0000 F1500.00
G1 X31.5000 Y3.1000 Z7.5000 F1500.00
G1 X31.5000 Y3.1000 Z7.0000 F300.00
G1 X31.5000 Y2.5000 Z7.0000 F1500.00
G1 X4.8146 Y2.5000 Z7.0000 F1500.00
G2 X3.4900 Y3.8246 Z7.0000 I-0.0184 J1.3062 F1500.00
G1 X3.4900 Y9.2600 Z7.0000 F1500.00
G3 X3.2500 Y9.7071 Z7.0000 I-0.5579 J-0.0115 F1500.00
G1 X3.2500 Y14.5000 Z7.0000 F1500.00
G1 X3.2500 Y15.1000 Z7.0000 F1500.00
G1 X3.2500 Y15.1000 Z7.0000 F1500.00
G1 X3.2500 Y14.5000 Z7.0000 F1500.00
G1 X3.7182 Y14.5000 Z7.0000 F1500.00
G1 X3.7182 Y14.5000 Z7.0000 F1500.00
G1 X3.7182 Y14.5000 Z7.0000 F1500.00
G1 X3.7182 Y15.1000 Z7.0000 F1500.00
G1 X3.7182 Y15.1000 Z7.0000 F1500.00
G1 X3.7182 Y14.5000 Z7.0000 F1500.00
G1 X3.7500 Y14.4770 Z7.0000 F1500.00
G1 X3.7500 Y14.4770 Z7.0000 F1500.00
G1 X3.7500 Y14.4770 Z7.0000 F1500.00
G1 X3.7500 Y15.0770 Z7.0000 F1500.00
G1 X3.7500 Y15.0770 Z7.0000 F1500.00
G1 X3.7500 Y14.4770 Z7.0000 F1500.00
G1 X3.7500 Y14.4770 Z7.0000 F1500.00
G1 X3.7500 Y9.7071 Z7.0000 F1500.00
G3 X3.5100 Y9.2600 Z7.0000 I0.3439 J-0.4725 F1500.00
G1 X3.5100 Y4.6000 Z7.0000 F1500.00
G3 X4.9936 Y3.1003 Z7.0000 I1.5015 J0.0016 F1500.00
G3 X7.9900 Y3.1000 Z7.0000 I1.5064 J91.5214 F1500.00
G3 X8.4900 Y3.6000 Z7.0000 I-0.0000 J0.5000 F1500.00
G1 X8.4900 Y9.2600 Z7.0000 F1500.00
G3 X8.2500 Y9.7071 Z7.0000 I-0.5579 J-0.0115 F1500.00
G1 X8.2500 Y14.5000 Z7.0000 F1500.00
G1 X8.2500 Y15.1000 Z7.0000 F1500.00
G1 X8.2500 Y15.1000 Z7.0000 F1500.00
G1 X8.2500 Y14.5000 Z7.0000 F1500.00
G1 X8.7500 Y14.5000 Z7.0000 F1500.00
G1 X8.7500 Y14.5000 Z7.0000 F1500.00
G1 X8.7500 Y14.5000 Z7.0000 F1500.00
G1 X8.7500 Y15.1000 Z7.0000 F1500.00
G1 X8.7500 Y15.1000 Z7.0000 F1500.00
G1 X8.7500 Y14.5000 Z7.0000 F1500.00
G1 X8.7500 Y14.5000 Z7.0000 F1500.00
G1 X8.7500 Y9.7071 Z7.0000 F1500.00
G3 X8.5100 Y9.2600 Z7.0000 I0.3439 J-0.4725 F1500.00
G1 X8.5100 Y4.6000 Z7.0000 F1500.00
G3 X9.9936 Y3.1003 Z7.0000 I1.5015 J0.0016 F1500.00
G3 X12.9900 Y3.1000 Z7.0000 I1.5064 J91.5214 F1500.00
G3 X13.4900 Y3.6000 Z7.0000 I-0.0000 J0.5000 F1500.00
G1 X13.4900 Y9.2600 Z7.0000 F1500.00
G3 X13.2500 Y9.7071 Z7.0000 I-0.5579 J-0.0115 F1500.00
G1 X13.2500 Y14.4770 Z7.0000 F1500.00
G1 X13.2500 Y15.0770 Z7.0000 F1500.00
G1 X13.2500 Y15.0770 Z7.0000 F1500.00
G1 X13.2500 Y14.4770 Z7.0000 F1500.00
G1 X13.2818 Y14.5000 Z7.0000 F1500.00
G1 X13.2818 Y14.5000 Z7.0000 F1500.00
G1 X13.2818 Y14.5000 Z7.0000 F1500.00
G1 X13.2818 Y15.1000 Z7.0000 F1500.00
G1 X13.2818 Y15.1000 Z7.0000 F1500.00
G1 X13.2818 Y14.5000 Z7.0000 F1500.00
G1 X13.7500 Y14.5000 Z7.0000 F1500.00
G1 X13.7500 Y14.5000 Z7.0000 F1500.00
G1 X13.7500 Y14.5000 Z7.0000 F1500.00
G1 X13.7500 Y15.1000 Z7.0000 F1500.00
G1 X13.7500 Y15.1000 Z7.0000 F1500.00
G1 X13.7500 Y14.5000 Z7.0000 F1500.00
G1 X13.7500 Y14.5000 Z7.0000 F1500.00
G1 X13.7500 Y9.7071 Z7.0000 F1500.00
G3 X13.5100 Y9.2600 Z7.0000 I0.3439 J-0.4725 F1500.00
G1 X13.5100 Y4.6000 Z7.0000 F1500.00
G3 X15.0100 Y3.1000 Z7.0000 I1.5000 J0.0000 F1500.00
G1 X31.5000 Y3.1000 Z7.0000 F1500.00
G1 X31.5000 Y3.1000 Z6.5000 F300.00
G1 X31.5000 Y2.5000 Z6.5000 F1500.00
G1 X4.8146 Y2.5000 Z6.5000 F1500.00
G2 X3.4900 Y3.8246 Z6.5000 I-0.0184 J1.3062 F1500.00
G1 X3.4900 Y9.2600 Z6.5000 F1500.00
G3 X3.2500 Y9.7071 Z6.5000 I-0.5579 J-0.0115 F1500.00
G1 X3.2500 Y14.5000 Z6.5000 F1500.00
G1 X3.2500 Y15.1000 Z6.5000 F1500.00
G1 X3.2500 Y15.1000 Z6.5000 F1500.00
G1 X3.2500 Y14.5000 Z6.5000 F1500.00
G1 X3.7182 Y14.5000 Z6.5000 F1500.00
G1 X3.7182 Y14.5000 Z6.5000 F1500.00
G1 X3.7182 Y14.5000 Z6.5000 F1500.00
G1 X3.7182 Y15.1000 Z6.5000 F1500.00
G1 X3.7182 Y15.1000 Z6.5000 F1500.00
G1 X3.7182 Y14.5000 Z6.5000 F1500.00
G1 X3.7500 Y14.4770 Z6.5000 F1500.00
G1 X3.7500 Y14.4770 Z6.5000 F1500.00
G1 X3.7500 Y14.4770 Z6.5000 F1500.00
G1 X3.7500 Y15.0770 Z6.5000 F1500.00
G1 X3.7500 Y15.0770 Z6.5000 F1500.00
G1 X3.7500 Y14.4770 Z6.5000 F1500.00
G1 X3.7500 Y14.4770 Z6.5000 F1500.00
G1 X3.7500 Y9.7071 Z6.5000 F1500.00
G3 X3.5100 Y9.2600 Z6.5000 I0.3439 J-0.4725 F1500.00
G1 X3.5100 Y4.6000 Z6.5000 F1500.00
G3 X4.9936 Y3.1003 Z6.5000 I1.5015 J0.0016 F1500.00
G3 X7.9900 Y3.1000 Z6.5000 I1.5064 J91.5214 F1500.00
G3 X8.4900 Y3.6000 Z6.5000 I-0.0000 J0.5000 F1500.00
G1 X8.4900 Y9.2600 Z6.5000 F1500.00
G3 X8.2500 Y9.7071 Z6.5000 I-0.5579 J-0.0115 F1500.00
G1 X8.2500 Y14.5000 Z6.5000 F1500.00
G1 X8.2500 Y15.1000 Z6.5000 F1500.00
G1 X8.2500 Y15.1000 Z6.5000 F1500.00
G1 X8.2500 Y14.5000 Z6.5000 F1500.00
G1 X8.7500 Y14.5000 Z6.5000 F1500.00
G1 X8.7500 Y14.5000 Z6.5000 F1500.00
G1 X8.7500 Y14.5000 Z6.5000 F1500.00
G1 X8.7500 Y15.1000 Z6.5000 F1500.00
G1 X8.7500 Y15.1000 Z6.5000 F1500.00
G1 X8.7500 Y14.5000 Z6.5000 F1500.00
G1 X8.7500 Y14.5000 Z6.5000 F1500.00
G1 X8.7500 Y9.7071 Z6.5000 F1500.00
G3 X8.5100 Y9.2600 Z6.5000 I0.3439 J-0.4725 F1500.00
G1 X8.5100 Y4.6000 Z6.5000 F1500.00
G3 X9.9936 Y3.1003 Z6.5000 I1.5015 J0.0016 F1500.00
G3 X12.9900 Y3.1000 Z6.5000 I1.5064 J91.5214 F1500.00
G3 X13.4900 Y3.6000 Z6.5000 I-0.0000 J0.5000 F1500.00
G1 X13.4900 Y9.2600 Z6.5000 F1500.00
G3 X13.2500 Y9.7071 Z6.5000 I-0.5579 J-0.0115 F1500.00
G1 X13.2500 Y14.4770 Z6.5000 F1500.00
G1 X13.2500 Y15.0770 Z6.5000 F1500.00
G1 X13.2500 Y15.0770 Z6.5000 F1500.00
G1 X13.2500 Y14.4770 Z6.5000 F1500.00
G1 X13.2818 Y14.5000 Z6.5000 F1500.00
G1 X13.2818 Y14.5000 Z6.5000 F1500.00
G1 X13.2818 Y14.5000 Z6.5000 F1500.00
G1 X13.2818 Y15.1000 Z6.5000 F1500.00
G1 X13.2818 Y15.1000 Z6.5000 F1500.00
G1 X13.2818 Y14.5000 Z6.5000 F1500.00
G1 X13.7500 Y14.5000 Z6.5000 F1500.00
G1 X13.7500 Y14.5000 Z6.5000 F1500.00
G1 X13.7500 Y14.5000 Z6.5000 F1500.00
G1 X13.7500 Y15.1000 Z6.5000 F1500.00
G1 X13.7500 Y15.1000 Z6.5000 F1500.00
G1 X13.7500 Y14.5000 Z6.5000 F1500.00
G1 X13.7500 Y14.5000 Z6.5000 F1500.00
G1 X13.7500 Y9.7071 Z6.5000 F1500.00
G3 X13.5100 Y9.2600 Z6.5000 I0.3439 J-0.4725 F1500.00
G1 X13.5100 Y4.6000 Z6.5000 F1500.00
G3 X15.0100 Y3.1000 Z6.5000 I1.5000 J0.0000 F1500.00
G1 X31.5000 Y3.1000 Z6.5000 F1500.00
G1 X31.5000 Y3.1000 Z6.0000 F300.00
G1 X31.5000 Y2.5000 Z6.0000 F1500.00
G1 X4.8146 Y2.5000 Z6.0000 F1500.00
G2 X3.4900 Y3.8246 Z6.0000 I-0.0184 J1.3062 F1500.00
G1 X3.4900 Y9.2600 Z6.0000 F1500.00
G3 X3.2500 Y9.7071 Z6.0000 I-0.5579 J-0.0115 F1500.00
G1 X3.2500 Y14.5000 Z6.0000 F1500.00
G1 X3.2500 Y15.1000 Z6.0000 F1500.00
G1 X3.2500 Y15.1000 Z6.0000 F1500.00
G1 X3.2500 Y14.5000 Z6.0000 F1500.00
G1 X3.7182 Y14.5000 Z6.0000 F1500.00
G1 X3.7182 Y14.5000 Z6.0000 F1500.00
G1 X3.7182 Y14.5000 Z6.0000 F1500.00
G1 X3.7182 Y15.1000 Z6.0000 F1500.00
G1 X3.7182 Y15.1000 Z6.0000 F1500.00
G1 X3.7182 Y14.5000 Z6.0000 F1500.00
G1 X3.7500 Y14.4770 Z6.0000 F1500.00
G1 X3.7500 Y14.4770 Z6.0000 F1500.00
G1 X3.7500 Y14.4770 Z6.0000 F1500.00
G1 X3.7500 Y15.0770 Z6.0000 F1500.00
G1 X3.7500 Y15.0770 Z6.0000 F1500.00
G1 X3.7500 Y14.4770 Z6.0000 F1500.00
G1 X3.7500 Y14.4770 Z6.0000 F1500.00
G1 X3.7500 Y9.7071 Z6.0000 F1500.00
G3 X3.5100 Y9.2600 Z6.0000 I0.3439 J-0.4725 F1500.00
G1 X3.5100 Y4.6000 Z6.0000 F1500.00
G3 X4.9936 Y3.1003 Z6.0000 I1.5015 J0.0016 F1500.00
G3 X7.9900 Y3.1000 Z6.0000 I1.5064 J91.5214 F1500.00
G3 X8.4900 Y3.6000 Z6.0000 I-0.0000 J0.5000 F1500.00
G1 X8.4900 Y9.2600 Z6.0000 F1500.00
G3 X8.2500 Y9.7071 Z6.0000 I-0.5579 J-0.0115 F1500.00
G1 X8.2500 Y14.5000 Z6.0000 F1500.00
G1 X8.2500 Y15.1000 Z6.0000 F1500.00
G1 X8.2500 Y15.1000 Z6.0000 F1500.00
G1 X8.2500 Y14.5000 Z6.0000 F1500.00
G1 X8.7500 Y14.5000 Z6.0000 F1500.00
G1 X8.7500 Y14.5000 Z6.0000 F1500.00
G1 X8.7500 Y14.5000 Z6.0000 F1500.00
G1 X8.7500 Y15.1000 Z6.0000 F1500.00
G1 X8.7500 Y15.1000 Z6.0000 F1500.00
G1 X8.7500 Y14.5000 Z6.0000 F1500.00
G1 X8.7500 Y14.5000 Z6.0000 F1500.00
G1 X8.7500 Y9.7071 Z6.0000 F1500.00
G3 X8.5100 Y9.2600 Z6.0000 I0.3439 J-0.4725 F1500.00
G1 X8.5100 Y4.6000 Z6.0000 F1500.00
G3 X9.9936 Y3.1003 Z6.0000 I1.5015 J0.0016 F1500.00
G3 X12.9900 Y3.1000 Z6.0000 I1.5064 J91.5214 F1500.00
G3 X13.4900 Y3.6000 Z6.0000 I-0.0000 J0.5000 F1500.00
G1 X13.4900 Y9.2600 Z6.0000 F1500.00
G3 X13.2500 Y9.7071 Z6.0000 I-0.5579 J-0.0115 F1500.00
G1 X13.2500 Y14.4770 Z6.0000 F1500.00
G1 X13.2500 Y15.0770 Z6.0000 F1500.00
G1 X13.2500 Y15.0770 Z6.0000 F1500.00
G1 X13.2500 Y14.4770 Z6.0000 F1500.00
G1 X13.2818 Y14.5000 Z6.0000 F1500.00
G1 X13.2818 Y14.5000 Z6.0000 F1500.00
G1 X13.2818 Y14.5000 Z6.0000 F1500.00
G1 X13.2818 Y15.1000 Z6.0000 F1500.00
G1 X13.2818 Y15.1000 Z6.0000 F1500.00
G1 X13.2818 Y14.5000 Z6.0000 F1500.00
G1 X13.7500 Y14.5000 Z6.0000 F1500.00
G1 X13.7500 Y14.5000 Z6.0000 F1500.00
G1 X13.7500 Y14.5000 Z6.0000 F1500.00
G1 X13.7500 Y15.1000 Z6.0000 F1500.00
G1 X13.7500 Y15.1000 Z6.0000 F1500.00
G1 X13.7500 Y14.5000 Z6.0000 F1500.00
G1 X13.7500 Y14.5000 Z6.0000 F1500.00
G1 X13.7500 Y9.7071 Z6.0000 F1500.00
G3 X13.5100 Y9.2600 Z6.0000 I0.3439 J-0.4725 F1500.00
G1 X13.5100 Y4.6000 Z6.0000 F1500.00
G3 X15.0100 Y3.1000 Z6.0000 I1.5000 J0.0000 F1500.00
G1 X31.5000 Y3.1000 Z6.0000 F1500.00
G0 Z15.0000
(finish operation: DogboneDressup002)
(begin operation: SwitchBed)
(Path: SwitchBed)
(Pocket_Shape)
G0 Z15.0000
G0 X14.5000 Y21.0000
G0 Z13.0000
G1 X14.5000 Y21.0000 Z9.0000 F300.00
G1 X2.5000 Y21.0000 Z9.0000 F1500.00
G1 X2.3536 Y21.1464 Z9.0000 F1500.00
G1 X2.5000 Y21.0000 Z9.0000 F1500.00
G1 X2.5000 Y15.5000 Z9.0000 F1500.00
G1 X2.5000 Y15.5000 Z9.0000 F1500.00
G1 X2.3536 Y15.3536 Z9.0000 F1500.00
G1 X2.5000 Y15.5000 Z9.0000 F1500.00
G1 X3.8899 Y15.5000 Z9.0000 F1500.00
G2 X4.4443 Y15.2199 Z9.0000 I-0.1626 J-1.0108 F1500.00
G3 X6.3211 Y15.4080 Z9.0000 I0.8081 J1.3938 F1500.00
G2 X6.6101 Y15.5000 Z9.0000 I0.2891 J-0.4080 F1500.00
G1 X10.3899 Y15.5000 Z9.0000 F1500.00
G2 X10.9443 Y15.2199 Z9.0000 I-0.1626 J-1.0108 F1500.00
G3 X12.3014 Y15.1001 Z9.0000 I0.8057 J1.3801 F1500.00
G3 X12.8211 Y15.4080 Z9.0000 I-0.6051 J1.6139 F1500.00
G2 X13.1101 Y15.5000 Z9.0000 I0.2891 J-0.4080 F1500.00
G1 X14.5000 Y15.5000 Z9.0000 F1500.00
G1 X14.6464 Y15.3536 Z9.0000 F1500.00
G1 X14.5000 Y15.5000 Z9.0000 F1500.00
G1 X14.5000 Y21.0000 Z9.0000 F1500.00
G1 X14.5000 Y21.0000 Z9.0000 F1500.00
G1 X14.6464 Y21.1464 Z9.0000 F1500.00
G1 X14.5000 Y21.0000 Z9.0000 F1500.00
G0 X14.5000 Y21.0000 Z15.0000
G0 X14.0000 Y20.5000 Z15.0000
G1 X14.0000 Y20.5000 Z9.0000 F300.00
G1 X3.0000 Y20.5000 Z9.0000 F1500.00
G1 X3.0000 Y16.0000 Z9.0000 F1500.00
G1 X3.0000 Y16.0000 Z9.0000 F1500.00
G1 X3.3491 Y16.0000 Z9.0000 F1500.00
G2 X7.1398 Y17.2415 Z9.0000 I1.9017 J0.6015 F1500.00
G2 X7.1509 Y16.0000 Z9.0000 I-1.8590 J-0.6375 F1500.00
G1 X9.8491 Y16.0000 Z9.0000 F1500.00
G2 X13.6398 Y17.2415 Z9.0000 I1.9017 J0.6015 F1500.00
G2 X13.6509 Y16.0000 Z9.0000 I-1.8590 J-0.6375 F1500.00
G1 X14.0000 Y16.0000 Z9.0000 F1500.00
G1 X14.0000 Y20.5000 Z9.0000 F1500.00
G1 X14.0000 Y20.5000 Z9.0000 F1500.00
G0 X14.0000 Y20.5000 Z15.0000
G0 X13.5000 Y20.0000 Z15.0000
G1 X13.5000 Y20.0000 Z9.0000 F300.00
G1 X3.5000 Y20.0000 Z9.0000 F1500.00
G1 X3.5000 Y18.3674 Z9.0000 F1500.00
G2 X7.7372 Y16.5000 Z9.0000 I1.7552 J-1.7582 F1500.00
G1 X9.2628 Y16.5000 Z9.0000 F1500.00
G2 X13.5000 Y18.3674 Z9.0000 I2.4819 J0.1093 F1500.00
G1 X13.5000 Y20.0000 Z9.0000 F1500.00
G0 X13.5000 Y20.0000 Z15.0000
G0 X13.0000 Y19.5000 Z15.0000
G1 X13.0000 Y19.5000 Z9.0000 F300.00
G1 X12.4521 Y19.5000 Z9.0000 F1500.00
G2 X13.0000 Y19.3201 Z9.0000 I-0.4091 J-2.1710 F1500.00
G1 X13.0000 Y19.5000 Z9.0000 F1500.00
G0 X13.0000 Y19.5000 Z15.0000
G0 X12.3426 Y17.9749 Z15.0000
G1 X12.3426 Y17.9749 Z9.0000 F300.00
G3 X12.2002 Y18.0279 Z9.0000 I-0.5926 J-1.3749 F1500.00
G3 X11.2998 Y15.1721 Z9.0000 I-0.4502 J-1.4279 F1500.00
G3 X12.3426 Y17.9749 Z9.0000 I0.4502 J1.4279 F1500.00
G0 X12.3426 Y17.9749 Z15.0000
G0 X11.0479 Y19.5000 Z15.0000
G1 X11.0479 Y19.5000 Z9.0000 F300.00
G1 X5.9521 Y19.5000 Z9.0000 F1500.00
G2 X8.2146 Y17.0000 Z9.0000 I-0.6703 J-2.8805 F1500.00
G1 X8.7854 Y17.0000 Z9.0000 F1500.00
G2 X11.0479 Y19.5000 Z9.0000 I2.9329 J-0.3805 F1500.00
G0 X11.0479 Y19.5000 Z15.0000
G0 X9.2305 Y19.0000 Z15.0000
G1 X9.2305 Y19.0000 Z9.0000 F300.00
G1 X7.7695 Y19.0000 Z9.0000 F1500.00
G2 X8.5000 Y17.8774 Z9.0000 I-2.0122 J-2.1084 F1500.00
G2 X9.2305 Y19.0000 Z9.0000 I2.8312 J-1.0433 F1500.00
G0 X9.2305 Y19.0000 Z15.0000
G0 X8.6855 Y18.7500 Z15.0000
G1 X8.6855 Y18.7500 Z9.0000 F300.00
G1 X8.3132 Y18.7500 Z9.0000 F1500.00
G1 X8.5009 Y18.4569 Z9.0000 F1500.00
G2 X8.6855 Y18.7500 Z9.0000 I1.2056 J-0.5544 F1500.00
G0 X8.6855 Y18.7500 Z15.0000
G0 X6.5191 Y17.3942 Z15.0000
G1 X6.5191 Y17.3942 Z9.0000 F300.00
G3 X5.5741 Y18.0616 Z9.0000 I-1.2691 J-0.7942 F1500.00
G3 X3.7884 Y16.9241 Z9.0000 I-0.3241 J-1.4616 F1500.00
G3 X4.9259 Y15.1384 Z9.0000 I1.4616 J-0.3241 F1500.00
G3 X6.5191 Y17.3942 Z9.0000 I0.3241 J1.4616 F1500.00
G0 X6.5191 Y17.3942 Z15.0000
G0 X4.5479 Y19.5000 Z15.0000
G1 X4.5479 Y19.5000 Z9.0000 F300.00
G1 X4.0000 Y19.5000 Z9.0000 F1500.00
G1 X4.0000 Y19.3201 Z9.0000 F1500.00
G2 X4.5479 Y19.5000 Z9.0000 I0.9570 J-1.9911 F1500.00
G1 X4.5479 Y19.5000 Z8.0000 F300.00
G1 X4.0000 Y19.5000 Z8.0000 F1500.00
G1 X4.0000 Y19.3201 Z8.0000 F1500.00
G2 X4.5479 Y19.5000 Z8.0000 I0.9570 J-1.9911 F1500.00
G0 X4.5479 Y19.5000 Z15.0000
G0 X4.6648 Y19.0223 Z15.0000
G1 X4.6648 Y19.0223 Z8.0000 F300.00
G2 X7.7372 Y16.5000 Z8.0000 I0.5904 J-2.4132 F1500.00
G1 X9.2628 Y16.5000 Z8.0000 F1500.00
G2 X13.5000 Y18.3674 Z8.0000 I2.4819 J0.1093 F1500.00
G1 X13.5000 Y20.0000 Z8.0000 F1500.00
G1 X3.5000 Y20.0000 Z8.0000 F1500.00
G1 X3.5000 Y20.0000 Z8.0000 F1500.00
G1 X3.5000 Y18.3674 Z8.0000 F1500.00
G2 X4.6648 Y19.0223 Z8.0000 I1.7552 J-1.7582 F1500.00
G0 X4.6648 Y19.0223 Z15.0000
G0 X4.7815 Y18.5401 Z15.0000
G1 X4.7815 Y18.5401 Z8.0000 F300.00
G2 X7.1398 Y17.2415 Z8.0000 I0.4692 J-1.9386 F1500.00
G2 X7.1509 Y16.0000 Z8.0000 I-1.8590 J-0.6375 F1500.00
G1 X9.8491 Y16.0000 Z8.0000 F1500.00
G2 X13.6398 Y17.2415 Z8.0000 I1.9017 J0.6015 F1500.00
G2 X13.6509 Y16.0000 Z8.0000 I-1.8590 J-0.6375 F1500.00
G1 X14.0000 Y16.0000 Z8.0000 F1500.00
G1 X14.0000 Y20.5000 Z8.0000 F1500.00
G1 X14.0000 Y20.5000 Z8.0000 F1500.00
G1 X3.0000 Y20.5000 Z8.0000 F1500.00
G1 X3.0000 Y20.5000 Z8.0000 F1500.00
G1 X3.0000 Y16.0000 Z8.0000 F1500.00
G1 X3.0000 Y16.0000 Z8.0000 F1500.00
G1 X3.3491 Y16.0000 Z8.0000 F1500.00
G2 X4.7815 Y18.5401 Z8.0000 I1.9017 J0.6015 F1500.00
G0 X4.7815 Y18.5401 Z15.0000
G0 X4.8986 Y18.0553 Z15.0000
G1 X4.8986 Y18.0553 Z8.0000 F300.00
G3 X4.9259 Y15.1384 Z8.0000 I0.3514 J-1.4553 F1500.00
G3 X5.5741 Y18.0616 Z8.0000 I0.3241 J1.4616 F1500.00
G3 X4.8986 Y18.0553 Z8.0000 I-0.3241 J-1.4616 F1500.00
G0 X4.8986 Y18.0553 Z15.0000
G0 X5.9521 Y19.5000 Z15.0000
G1 X5.9521 Y19.5000 Z8.0000 F300.00
G2 X8.2146 Y17.0000 Z8.0000 I-0.6703 J-2.8805 F1500.00
G1 X8.7854 Y17.0000 Z8.0000 F1500.00
G2 X11.0479 Y19.5000 Z8.0000 I2.9329 J-0.3805 F1500.00
G1 X5.9521 Y19.5000 Z8.0000 F1500.00
G0 X5.9521 Y19.5000 Z15.0000
G0 X5.9521 Y21.0000 Z15.0000
G1 X5.9521 Y21.0000 Z8.0000 F300.00
G1 X2.5000 Y21.0000 Z8.0000 F1500.00
G1 X2.3536 Y21.1464 Z8.0000 F1500.00
G1 X2.5000 Y21.0000 Z8.0000 F1500.00
G1 X2.5000 Y15.5000 Z8.0000 F1500.00
G1 X2.5000 Y15.5000 Z8.0000 F1500.00
G1 X2.3536 Y15.3536 Z8.0000 F1500.00
G1 X2.5000 Y15.5000 Z8.0000 F1500.00
G1 X3.8899 Y15.5000 Z8.0000 F1500.00
G2 X4.4443 Y15.2199 Z8.0000 I-0.1626 J-1.0108 F1500.00
G3 X6.3211 Y15.4080 Z8.0000 I0.8081 J1.3938 F1500.00
G2 X6.6101 Y15.5000 Z8.0000 I0.2891 J-0.4080 F1500.00
G1 X10.3899 Y15.5000 Z8.0000 F1500.00
G2 X10.9443 Y15.2199 Z8.0000 I-0.1626 J-1.0108 F1500.00
G3 X12.3014 Y15.1001 Z8.0000 I0.8057 J1.3801 F1500.00
G3 X12.8211 Y15.4080 Z8.0000 I-0.6051 J1.6139 F1500.00
G2 X13.1101 Y15.5000 Z8.0000 I0.2891 J-0.4080 F1500.00
G1 X14.5000 Y15.5000 Z8.0000 F1500.00
G1 X14.6464 Y15.3536 Z8.0000 F1500.00
G1 X14.5000 Y15.5000 Z8.0000 F1500.00
G1 X14.5000 Y21.0000 Z8.0000 F1500.00
G1 X14.5000 Y21.0000 Z8.0000 F1500.00
G1 X14.6464 Y21.1464 Z8.0000 F1500.00
G1 X14.5000 Y21.0000 Z8.0000 F1500.00
G1 X5.9521 Y21.0000 Z8.0000 F1500.00
G1 X5.9521 Y21.0000 Z8.0000 F1500.00
G0 X5.9521 Y21.0000 Z15.0000
G0 X7.7695 Y19.0000 Z15.0000
G1 X7.7695 Y19.0000 Z8.0000 F300.00
G2 X8.5000 Y17.8774 Z8.0000 I-2.0122 J-2.1084 F1500.00
G2 X9.2305 Y19.0000 Z8.0000 I2.8312 J-1.0433 F1500.00
G1 X7.7695 Y19.0000 Z8.0000 F1500.00
G0 X7.7695 Y19.0000 Z15.0000
G0 X8.3132 Y18.7500 Z15.0000
G1 X8.3132 Y18.7500 Z8.0000 F300.00
G1 X8.5009 Y18.4569 Z8.0000 F1500.00
G2 X8.6855 Y18.7500 Z8.0000 I1.2056 J-0.5544 F1500.00
G1 X8.3132 Y18.7500 Z8.0000 F1500.00
G0 X8.3132 Y18.7500 Z15.0000
G0 X10.4808 Y17.3940 Z15.0000
G1 X10.4808 Y17.3940 Z8.0000 F300.00
G3 X11.2998 Y15.1721 Z8.0000 I1.2692 J-0.7940 F1500.00
G3 X13.1779 Y16.1498 Z8.0000 I0.4502 J1.4279 F1500.00
G3 X12.2002 Y18.0279 Z8.0000 I-1.4279 J0.4502 F1500.00
G3 X10.4808 Y17.3940 Z8.0000 I-0.4502 J-1.4279 F1500.00
G0 X10.4808 Y17.3940 Z15.0000
G0 X12.4521 Y19.5000 Z15.0000
G1 X12.4521 Y19.5000 Z8.0000 F300.00
G2 X13.0000 Y19.3201 Z8.0000 I-0.4091 J-2.1710 F1500.00
G1 X13.0000 Y19.5000 Z8.0000 F1500.00
G1 X12.4521 Y19.5000 Z8.0000 F1500.00
G1 X12.4521 Y19.5000 Z7.0000 F300.00
G2 X13.0000 Y19.3201 Z7.0000 I-0.4091 J-2.1710 F1500.00
G1 X13.0000 Y19.5000 Z7.0000 F1500.00
G1 X12.4521 Y19.5000 Z7.0000 F1500.00
G0 X12.4521 Y19.5000 Z15.0000
G0 X12.3352 Y19.0224 Z15.0000
G1 X12.3352 Y19.0224 Z7.0000 F300.00
G2 X13.5000 Y18.3674 Z7.0000 I-0.5905 J-2.4131 F1500.00
G1 X13.5000 Y20.0000 Z7.0000 F1500.00
G1 X3.5000 Y20.0000 Z7.0000 F1500.00
G1 X3.5000 Y20.0000 Z7.0000 F1500.00
G1 X3.5000 Y18.3674 Z7.0000 F1500.00
G2 X7.7372 Y16.5000 Z7.0000 I1.7552 J-1.7582 F1500.00
G1 X9.2628 Y16.5000 Z7.0000 F1500.00
G2 X12.3352 Y19.0224 Z7.0000 I2.4819 J0.1093 F1500.00
G0 X12.3352 Y19.0224 Z15.0000
G0 X12.2188 Y18.5403 Z15.0000
G1 X12.2188 Y18.5403 Z7.0000 F300.00
G2 X13.6398 Y17.2415 Z7.0000 I-0.4681 J-1.9388 F1500.00
G2 X13.6509 Y16.0000 Z7.0000 I-1.8590 J-0.6375 F1500.00
G1 X14.0000 Y16.0000 Z7.0000 F1500.00
G1 X14.0000 Y20.5000 Z7.0000 F1500.00
G1 X14.0000 Y20.5000 Z7.0000 F1500.00
G1 X3.0000 Y20.5000 Z7.0000 F1500.00
G1 X3.0000 Y20.5000 Z7.0000 F1500.00
G1 X3.0000 Y16.0000 Z7.0000 F1500.00
G1 X3.0000 Y16.0000 Z7.0000 F1500.00
G1 X3.3491 Y16.0000 Z7.0000 F1500.00
G2 X7.1398 Y17.2415 Z7.0000 I1.9017 J0.6015 F1500.00
G2 X7.1509 Y16.0000 Z7.0000 I-1.8590 J-0.6375 F1500.00
G1 X9.8491 Y16.0000 Z7.0000 F1500.00
G2 X12.2188 Y18.5403 Z7.0000 I1.9017 J0.6015 F1500.00
G0 X12.2188 Y18.5403 Z15.0000
G0 X12.1016 Y18.0553 Z15.0000
G1 X12.1016 Y18.0553 Z7.0000 F300.00
G3 X11.2998 Y15.1721 Z7.0000 I-0.3516 J-1.4553 F1500.00
G3 X13.1779 Y16.1498 Z7.0000 I0.4502 J1.4279 F1500.00
G3 X12.2002 Y18.0279 Z7.0000 I-1.4279 J0.4502 F1500.00
G3 X12.1016 Y18.0553 Z7.0000 I-0.4502 J-1.4279 F1500.00
G0 X12.1016 Y18.0553 Z15.0000
G0 X11.0479 Y19.5000 Z15.0000
G1 X11.0479 Y19.5000 Z7.0000 F300.00
G1 X5.9521 Y19.5000 Z7.0000 F1500.00
G2 X8.2146 Y17.0000 Z7.0000 I-0.6703 J-2.8805 F1500.00
G1 X8.7854 Y17.0000 Z7.0000 F1500.00
G2 X11.0479 Y19.5000 Z7.0000 I2.9329 J-0.3805 F1500.00
G0 X11.0479 Y19.5000 Z15.0000
G0 X11.0479 Y21.0000 Z15.0000
G1 X11.0479 Y21.0000 Z7.0000 F300.00
G1 X2.5000 Y21.0000 Z7.0000 F1500.00
G1 X2.3536 Y21.1464 Z7.0000 F1500.00
G1 X2.5000 Y21.0000 Z7.0000 F1500.00
G1 X2.5000 Y15.5000 Z7.0000 F1500.00
G1 X2.5000 Y15.5000 Z7.0000 F1500.00
G1 X2.3536 Y15.3536 Z7.0000 F1500.00
G1 X2.5000 Y15.5000 Z7.0000 F1500.00
G1 X3.8899 Y15.5000 Z7.0000 F1500.00
G2 X4.4443 Y15.2199 Z7.0000 I-0.1626 J-1.0108 F1500.00
G3 X6.3211 Y15.4080 Z7.0000 I0.8081 J1.3938 F1500.00
G2 X6.6101 Y15.5000 Z7.0000 I0.2891 J-0.4080 F1500.00
G1 X10.3899 Y15.5000 Z7.0000 F1500.00
G2 X10.9443 Y15.2199 Z7.0000 I-0.1626 J-1.0108 F1500.00
G3 X12.3014 Y15.1001 Z7.0000 I0.8057 J1.3801 F1500.00
G3 X12.8211 Y15.4080 Z7.0000 I-0.6051 J1.6139 F1500.00
G2 X13.1101 Y15.5000 Z7.0000 I0.2891 J-0.4080 F1500.00
G1 X14.5000 Y15.5000 Z7.0000 F1500.00
G1 X14.6464 Y15.3536 Z7.0000 F1500.00
G1 X14.5000 Y15.5000 Z7.0000 F1500.00
G1 X14.5000 Y21.0000 Z7.0000 F1500.00
G1 X14.5000 Y21.0000 Z7.0000 F1500.00
G1 X14.6464 Y21.1464 Z7.0000 F1500.00
G1 X14.5000 Y21.0000 Z7.0000 F1500.00
G1 X11.0479 Y21.0000 Z7.0000 F1500.00
G1 X11.0479 Y21.0000 Z7.0000 F1500.00
G0 X11.0479 Y21.0000 Z15.0000
G0 X9.2305 Y19.0000 Z15.0000
G1 X9.2305 Y19.0000 Z7.0000 F300.00
G1 X7.7695 Y19.0000 Z7.0000 F1500.00
G2 X8.5000 Y17.8774 Z7.0000 I-2.0122 J-2.1084 F1500.00
G2 X9.2305 Y19.0000 Z7.0000 I2.8312 J-1.0433 F1500.00
G0 X9.2305 Y19.0000 Z15.0000
G0 X8.6855 Y18.7500 Z15.0000
G1 X8.6855 Y18.7500 Z7.0000 F300.00
G1 X8.3132 Y18.7500 Z7.0000 F1500.00
G1 X8.5009 Y18.4569 Z7.0000 F1500.00
G2 X8.6855 Y18.7500 Z7.0000 I1.2056 J-0.5544 F1500.00
G0 X8.6855 Y18.7500 Z15.0000
G0 X6.5191 Y17.3942 Z15.0000
G1 X6.5191 Y17.3942 Z7.0000 F300.00
G3 X5.5741 Y18.0616 Z7.0000 I-1.2691 J-0.7942 F1500.00
G3 X3.7884 Y16.9241 Z7.0000 I-0.3241 J-1.4616 F1500.00
G3 X4.9259 Y15.1384 Z7.0000 I1.4616 J-0.3241 F1500.00
G3 X6.5191 Y17.3942 Z7.0000 I0.3241 J1.4616 F1500.00
G0 X6.5191 Y17.3942 Z15.0000
G0 X4.5479 Y19.5000 Z15.0000
G1 X4.5479 Y19.5000 Z7.0000 F300.00
G1 X4.0000 Y19.5000 Z7.0000 F1500.00
G1 X4.0000 Y19.3201 Z7.0000 F1500.00
G2 X4.5479 Y19.5000 Z7.0000 I0.9570 J-1.9911 F1500.00
G1 X4.5479 Y19.5000 Z6.0000 F300.00
G1 X4.0000 Y19.5000 Z6.0000 F1500.00
G1 X4.0000 Y19.3201 Z6.0000 F1500.00
G2 X4.5479 Y19.5000 Z6.0000 I0.9570 J-1.9911 F1500.00
G0 X4.5479 Y19.5000 Z15.0000
G0 X4.6648 Y19.0223 Z15.0000
G1 X4.6648 Y19.0223 Z6.0000 F300.00
G2 X7.7372 Y16.5000 Z6.0000 I0.5904 J-2.4132 F1500.00
G1 X9.2628 Y16.5000 Z6.0000 F1500.00
G2 X13.5000 Y18.3674 Z6.0000 I2.4819 J0.1093 F1500.00
G1 X13.5000 Y20.0000 Z6.0000 F1500.00
G1 X3.5000 Y20.0000 Z6.0000 F1500.00
G1 X3.5000 Y20.0000 Z6.0000 F1500.00
G1 X3.5000 Y18.3674 Z6.0000 F1500.00
G2 X4.6648 Y19.0223 Z6.0000 I1.7552 J-1.7582 F1500.00
G0 X4.6648 Y19.0223 Z15.0000
G0 X4.7815 Y18.5401 Z15.0000
G1 X4.7815 Y18.5401 Z6.0000 F300.00
G2 X7.1398 Y17.2415 Z6.0000 I0.4692 J-1.9386 F1500.00
G2 X7.1509 Y16.0000 Z6.0000 I-1.8590 J-0.6375 F1500.00
G1 X9.8491 Y16.0000 Z6.0000 F1500.00
G2 X13.6398 Y17.2415 Z6.0000 I1.9017 J0.6015 F1500.00
G2 X13.6509 Y16.0000 Z6.0000 I-1.8590 J-0.6375 F1500.00
G1 X14.0000 Y16.0000 Z6.0000 F1500.00
G1 X14.0000 Y20.5000 Z6.0000 F1500.00
G1 X14.0000 Y20.5000 Z6.0000 F1500.00
G1 X3.0000 Y20.5000 Z6.0000 F1500.00
G1 X3.0000 Y20.5000 Z6.0000 F1500.00
G1 X3.0000 Y16.0000 Z6.0000 F1500.00
G1 X3.0000 Y16.0000 Z6.0000 F1500.00
G1 X3.3491 Y16.0000 Z6.0000 F1500.00
G2 X4.7815 Y18.5401 Z6.0000 I1.9017 J0.6015 F1500.00
G0 X4.7815 Y18.5401 Z15.0000
G0 X4.8986 Y18.0553 Z15.0000
G1 X4.8986 Y18.0553 Z6.0000 F300.00
G3 X4.9259 Y15.1384 Z6.0000 I0.3514 J-1.4553 F1500.00
G3 X5.5741 Y18.0616 Z6.0000 I0.3241 J1.4616 F1500.00
G3 X4.8986 Y18.0553 Z6.0000 I-0.3241 J-1.4616 F1500.00
G0 X4.8986 Y18.0553 Z15.0000
G0 X5.9521 Y19.5000 Z15.0000
G1 X5.9521 Y19.5000 Z6.0000 F300.00
G2 X8.2146 Y17.0000 Z6.0000 I-0.6703 J-2.8805 F1500.00
G1 X8.7854 Y17.0000 Z6.0000 F1500.00
G2 X11.0479 Y19.5000 Z6.0000 I2.9329 J-0.3805 F1500.00
G1 X5.9521 Y19.5000 Z6.0000 F1500.00
G0 X5.9521 Y19.5000 Z15.0000
G0 X5.9521 Y21.0000 Z15.0000
G1 X5.9521 Y21.0000 Z6.0000 F300.00
G1 X2.5000 Y21.0000 Z6.0000 F1500.00
G1 X2.3536 Y21.1464 Z6.0000 F1500.00
G1 X2.5000 Y21.0000 Z6.0000 F1500.00
G1 X2.5000 Y15.5000 Z6.0000 F1500.00
G1 X2.5000 Y15.5000 Z6.0000 F1500.00
G1 X2.3536 Y15.3536 Z6.0000 F1500.00
G1 X2.5000 Y15.5000 Z6.0000 F1500.00
G1 X3.8899 Y15.5000 Z6.0000 F1500.00
G2 X4.4443 Y15.2199 Z6.0000 I-0.1626 J-1.0108 F1500.00
G3 X6.3211 Y15.4080 Z6.0000 I0.8081 J1.3938 F1500.00
G2 X6.6101 Y15.5000 Z6.0000 I0.2891 J-0.4080 F1500.00
G1 X10.3899 Y15.5000 Z6.0000 F1500.00
G2 X10.9443 Y15.2199 Z6.0000 I-0.1626 J-1.0108 F1500.00
G3 X12.3014 Y15.1001 Z6.0000 I0.8057 J1.3801 F1500.00
G3 X12.8211 Y15.4080 Z6.0000 I-0.6051 J1.6139 F1500.00
G2 X13.1101 Y15.5000 Z6.0000 I0.2891 J-0.4080 F1500.00
G1 X14.5000 Y15.5000 Z6.0000 F1500.00
G1 X14.6464 Y15.3536 Z6.0000 F1500.00
G1 X14.5000 Y15.5000 Z6.0000 F1500.00
G1 X14.5000 Y21.0000 Z6.0000 F1500.00
G1 X14.5000 Y21.0000 Z6.0000 F1500.00
G1 X14.6464 Y21.1464 Z6.0000 F1500.00
G1 X14.5000 Y21.0000 Z6.0000 F1500.00
G1 X5.9521 Y21.0000 Z6.0000 F1500.00
G1 X5.9521 Y21.0000 Z6.0000 F1500.00
G0 X5.9521 Y21.0000 Z15.0000
G0 X7.7695 Y19.0000 Z15.0000
G1 X7.7695 Y19.0000 Z6.0000 F300.00
G2 X8.5000 Y17.8774 Z6.0000 I-2.0122 J-2.1084 F1500.00
G2 X9.2305 Y19.0000 Z6.0000 I2.8312 J-1.0433 F1500.00
G1 X7.7695 Y19.0000 Z6.0000 F1500.00
G0 X7.7695 Y19.0000 Z15.0000
G0 X8.3132 Y18.7500 Z15.0000
G1 X8.3132 Y18.7500 Z6.0000 F300.00
G1 X8.5009 Y18.4569 Z6.0000 F1500.00
G2 X8.6855 Y18.7500 Z6.0000 I1.2056 J-0.5544 F1500.00
G1 X8.3132 Y18.7500 Z6.0000 F1500.00
G0 X8.3132 Y18.7500 Z15.0000
G0 X10.4808 Y17.3940 Z15.0000
G1 X10.4808 Y17.3940 Z6.0000 F300.00
G3 X11.2998 Y15.1721 Z6.0000 I1.2692 J-0.7940 F1500.00
G3 X13.1779 Y16.1498 Z6.0000 I0.4502 J1.4279 F1500.00
G3 X12.2002 Y18.0279 Z6.0000 I-1.4279 J0.4502 F1500.00
G3 X10.4808 Y17.3940 Z6.0000 I-0.4502 J-1.4279 F1500.00
G0 X10.4808 Y17.3940 Z15.0000
G0 X12.4521 Y19.5000 Z15.0000
G1 X12.4521 Y19.5000 Z6.0000 F300.00
G2 X13.0000 Y19.3201 Z6.0000 I-0.4091 J-2.1710 F1500.00
G1 X13.0000 Y19.5000 Z6.0000 F1500.00
G1 X12.4521 Y19.5000 Z6.0000 F1500.00
G1 X12.4521 Y19.5000 Z5.0000 F300.00
G2 X13.0000 Y19.3201 Z5.0000 I-0.4091 J-2.1710 F1500.00
G1 X13.0000 Y19.5000 Z5.0000 F1500.00
G1 X12.4521 Y19.5000 Z5.0000 F1500.00
G0 X12.4521 Y19.5000 Z15.0000
G0 X12.3352 Y19.0224 Z15.0000
G1 X12.3352 Y19.0224 Z5.0000 F300.00
G2 X13.5000 Y18.3674 Z5.0000 I-0.5905 J-2.4131 F1500.00
G1 X13.5000 Y20.0000 Z5.0000 F1500.00
G1 X3.5000 Y20.0000 Z5.0000 F1500.00
G1 X3.5000 Y20.0000 Z5.0000 F1500.00
G1 X3.5000 Y18.3674 Z5.0000 F1500.00
G2 X7.7372 Y16.5000 Z5.0000 I1.7552 J-1.7582 F1500.00
G1 X9.2628 Y16.5000 Z5.0000 F1500.00
G2 X12.3352 Y19.0224 Z5.0000 I2.4819 J0.1093 F1500.00
G0 X12.3352 Y19.0224 Z15.0000
G0 X12.2188 Y18.5403 Z15.0000
G1 X12.2188 Y18.5403 Z5.0000 F300.00
G2 X13.6398 Y17.2415 Z5.0000 I-0.4681 J-1.9388 F1500.00
G2 X13.6509 Y16.0000 Z5.0000 I-1.8590 J-0.6375 F1500.00
G1 X14.0000 Y16.0000 Z5.0000 F1500.00
G1 X14.0000 Y20.5000 Z5.0000 F1500.00
G1 X14.0000 Y20.5000 Z5.0000 F1500.00
G1 X3.0000 Y20.5000 Z5.0000 F1500.00
G1 X3.0000 Y20.5000 Z5.0000 F1500.00
G1 X3.0000 Y16.0000 Z5.0000 F1500.00
G1 X3.0000 Y16.0000 Z5.0000 F1500.00
G1 X3.3491 Y16.0000 Z5.0000 F1500.00
G2 X7.1398 Y17.2415 Z5.0000 I1.9017 J0.6015 F1500.00
G2 X7.1509 Y16.0000 Z5.0000 I-1.8590 J-0.6375 F1500.00
G1 X9.8491 Y16.0000 Z5.0000 F1500.00
G2 X12.2188 Y18.5403 Z5.0000 I1.9017 J0.6015 F1500.00
G0 X12.2188 Y18.5403 Z15.0000
G0 X12.1016 Y18.0553 Z15.0000
G1 X12.1016 Y18.0553 Z5.0000 F300.00
G3 X11.2998 Y15.1721 Z5.0000 I-0.3516 J-1.4553 F1500.00
G3 X13.1779 Y16.1498 Z5.0000 I0.4502 J1.4279 F1500.00
G3 X12.2002 Y18.0279 Z5.0000 I-1.4279 J0.4502 F1500.00
G3 X12.1016 Y18.0553 Z5.0000 I-0.4502 J-1.4279 F1500.00
G0 X12.1016 Y18.0553 Z15.0000
G0 X11.0479 Y19.5000 Z15.0000
G1 X11.0479 Y19.5000 Z5.0000 F300.00
G1 X5.9521 Y19.5000 Z5.0000 F1500.00
G2 X8.2146 Y17.0000 Z5.0000 I-0.6703 J-2.8805 F1500.00
G1 X8.7854 Y17.0000 Z5.0000 F1500.00
G2 X11.0479 Y19.5000 Z5.0000 I2.9329 J-0.3805 F1500.00
G0 X11.0479 Y19.5000 Z15.0000
G0 X11.0479 Y21.0000 Z15.0000
G1 X11.0479 Y21.0000 Z5.0000 F300.00
G1 X2.5000 Y21.0000 Z5.0000 F1500.00
G1 X2.3536 Y21.1464 Z5.0000 F1500.00
G1 X2.5000 Y21.0000 Z5.0000 F1500.00
G1 X2.5000 Y15.5000 Z5.0000 F1500.00
G1 X2.5000 Y15.5000 Z5.0000 F1500.00
G1 X2.3536 Y15.3536 Z5.0000 F1500.00
G1 X2.5000 Y15.5000 Z5.0000 F1500.00
G1 X3.8899 Y15.5000 Z5.0000 F1500.00
G2 X4.4443 Y15.2199 Z5.0000 I-0.1626 J-1.0108 F1500.00
G3 X6.3211 Y15.4080 Z5.0000 I0.8081 J1.3938 F1500.00
G2 X6.6101 Y15.5000 Z5.0000 I0.2891 J-0.4080 F1500.00
G1 X10.3899 Y15.5000 Z5.0000 F1500.00
G2 X10.9443 Y15.2199 Z5.0000 I-0.1626 J-1.0108 F1500.00
G3 X12.3014 Y15.1001 Z5.0000 I0.8057 J1.3801 F1500.00
G3 X12.8211 Y15.4080 Z5.0000 I-0.6051 J1.6139 F1500.00
G2 X13.1101 Y15.5000 Z5.0000 I0.2891 J-0.4080 F1500.00
G1 X14.5000 Y15.5000 Z5.0000 F1500.00
G1 X14.6464 Y15.3536 Z5.0000 F1500.00
G1 X14.5000 Y15.5000 Z5.0000 F1500.00
G1 X14.5000 Y21.0000 Z5.0000 F1500.00
G1 X14.5000 Y21.0000 Z5.0000 F1500.00
G1 X14.6464 Y21.1464 Z5.0000 F1500.00
G1 X14.5000 Y21.0000 Z5.0000 F1500.00
G1 X11.0479 Y21.0000 Z5.0000 F1500.00
G1 X11.0479 Y21.0000 Z5.0000 F1500.00
G0 X11.0479 Y21.0000 Z15.0000
G0 X9.2305 Y19.0000 Z15.0000
G1 X9.2305 Y19.0000 Z5.0000 F300.00
G1 X7.7695 Y19.0000 Z5.0000 F1500.00
G2 X8.5000 Y17.8774 Z5.0000 I-2.0122 J-2.1084 F1500.00
G2 X9.2305 Y19.0000 Z5.0000 I2.8312 J-1.0433 F1500.00
G0 X9.2305 Y19.0000 Z15.0000
G0 X8.6855 Y18.7500 Z15.0000
G1 X8.6855 Y18.7500 Z5.0000 F300.00
G1 X8.3132 Y18.7500 Z5.0000 F1500.00
G1 X8.5009 Y18.4569 Z5.0000 F1500.00
G2 X8.6855 Y18.7500 Z5.0000 I1.2056 J-0.5544 F1500.00
G0 X8.6855 Y18.7500 Z15.0000
G0 X6.5191 Y17.3942 Z15.0000
G1 X6.5191 Y17.3942 Z5.0000 F300.00
G3 X5.5741 Y18.0616 Z5.0000 I-1.2691 J-0.7942 F1500.00
G3 X3.7884 Y16.9241 Z5.0000 I-0.3241 J-1.4616 F1500.00
G3 X4.9259 Y15.1384 Z5.0000 I1.4616 J-0.3241 F1500.00
G3 X6.5191 Y17.3942 Z5.0000 I0.3241 J1.4616 F1500.00
G0 X6.5191 Y17.3942 Z15.0000
G0 X4.5479 Y19.5000 Z15.0000
G1 X4.5479 Y19.5000 Z5.0000 F300.00
G1 X4.0000 Y19.5000 Z5.0000 F1500.00
G1 X4.0000 Y19.3201 Z5.0000 F1500.00
G2 X4.5479 Y19.5000 Z5.0000 I0.9570 J-1.9911 F1500.00
G1 X4.5479 Y19.5000 Z4.0000 F300.00
G1 X4.0000 Y19.5000 Z4.0000 F1500.00
G1 X4.0000 Y19.3201 Z4.0000 F1500.00
G2 X4.5479 Y19.5000 Z4.0000 I0.9570 J-1.9911 F1500.00
G0 X4.5479 Y19.5000 Z15.0000
G0 X4.6648 Y19.0223 Z15.0000
G1 X4.6648 Y19.0223 Z4.0000 F300.00
G2 X7.7372 Y16.5000 Z4.0000 I0.5904 J-2.4132 F1500.00
G1 X9.2628 Y16.5000 Z4.0000 F1500.00
G2 X13.5000 Y18.3674 Z4.0000 I2.4819 J0.1093 F1500.00
G1 X13.5000 Y20.0000 Z4.0000 F1500.00
G1 X3.5000 Y20.0000 Z4.0000 F1500.00
G1 X3.5000 Y20.0000 Z4.0000 F1500.00
G1 X3.5000 Y18.3674 Z4.0000 F1500.00
G2 X4.6648 Y19.0223 Z4.0000 I1.7552 J-1.7582 F1500.00
G0 X4.6648 Y19.0223 Z15.0000
G0 X4.7815 Y18.5401 Z15.0000
G1 X4.7815 Y18.5401 Z4.0000 F300.00
G2 X7.1398 Y17.2415 Z4.0000 I0.4692 J-1.9386 F1500.00
G2 X7.1509 Y16.0000 Z4.0000 I-1.8590 J-0.6375 F1500.00
G1 X9.8491 Y16.0000 Z4.0000 F1500.00
G2 X13.6398 Y17.2415 Z4.0000 I1.9017 J0.6015 F1500.00
G2 X13.6509 Y16.0000 Z4.0000 I-1.8590 J-0.6375 F1500.00
G1 X14.0000 Y16.0000 Z4.0000 F1500.00
G1 X14.0000 Y20.5000 Z4.0000 F1500.00
G1 X14.0000 Y20.5000 Z4.0000 F1500.00
G1 X3.0000 Y20.5000 Z4.0000 F1500.00
G1 X3.0000 Y20.5000 Z4.0000 F1500.00
G1 X3.0000 Y16.0000 Z4.0000 F1500.00
G1 X3.0000 Y16.0000 Z4.0000 F1500.00
G1 X3.3491 Y16.0000 Z4.0000 F1500.00
G2 X4.7815 Y18.5401 Z4.0000 I1.9017 J0.6015 F1500.00
G0 X4.7815 Y18.5401 Z15.0000
G0 X4.8986 Y18.0553 Z15.0000
G1 X4.8986 Y18.0553 Z4.0000 F300.00
G3 X4.9259 Y15.1384 Z4.0000 I0.3514 J-1.4553 F1500.00
G3 X5.5741 Y18.0616 Z4.0000 I0.3241 J1.4616 F1500.00
G3 X4.8986 Y18.0553 Z4.0000 I-0.3241 J-1.4616 F1500.00
G0 X4.8986 Y18.0553 Z15.0000
G0 X5.9521 Y19.5000 Z15.0000
G1 X5.9521 Y19.5000 Z4.0000 F300.00
G2 X8.2146 Y17.0000 Z4.0000 I-0.6703 J-2.8805 F1500.00
G1 X8.7854 Y17.0000 Z4.0000 F1500.00
G2 X11.0479 Y19.5000 Z4.0000 I2.9329 J-0.3805 F1500.00
G1 X5.9521 Y19.5000 Z4.0000 F1500.00
G0 X5.9521 Y19.5000 Z15.0000
G0 X5.9521 Y21.0000 Z15.0000
G1 X5.9521 Y21.0000 Z4.0000 F300.00
G1 X2.5000 Y21.0000 Z4.0000 F1500.00
G1 X2.3536 Y21.1464 Z4.0000 F1500.00
G1 X2.5000 Y21.0000 Z4.0000 F1500.00
G1 X2.5000 Y15.5000 Z4.0000 F1500.00
G1 X2.5000 Y15.5000 Z4.0000 F1500.00
G1 X2.3536 Y15.3536 Z4.0000 F1500.00
G1 X2.5000 Y15.5000 Z4.0000 F1500.00
G1 X3.8899 Y15.5000 Z4.0000 F1500.00
G2 X4.4443 Y15.2199 Z4.0000 I-0.1626 J-1.0108 F1500.00
G3 X6.3211 Y15.4080 Z4.0000 I0.8081 J1.3938 F1500.00
G2 X6.6101 Y15.5000 Z4.0000 I0.2891 J-0.4080 F1500.00
G1 X10.3899 Y15.5000 Z4.0000 F1500.00
G2 X10.9443 Y15.2199 Z4.0000 I-0.1626 J-1.0108 F1500.00
G3 X12.3014 Y15.1001 Z4.0000 I0.8057 J1.3801 F1500.00
G3 X12.8211 Y15.4080 Z4.0000 I-0.6051 J1.6139 F1500.00
G2 X13.1101 Y15.5000 Z4.0000 I0.2891 J-0.4080 F1500.00
G1 X14.5000 Y15.5000 Z4.0000 F1500.00
G1 X14.6464 Y15.3536 Z4.0000 F1500.00
G1 X14.5000 Y15.5000 Z4.0000 F1500.00
G1 X14.5000 Y21.0000 Z4.0000 F1500.00
G1 X14.5000 Y21.0000 Z4.0000 F1500.00
G1 X14.6464 Y21.1464 Z4.0000 F1500.00
G1 X14.5000 Y21.0000 Z4.0000 F1500.00
G1 X5.9521 Y21.0000 Z4.0000 F1500.00
G1 X5.9521 Y21.0000 Z4.0000 F1500.00
G0 X5.9521 Y21.0000 Z15.0000
G0 X7.7695 Y19.0000 Z15.0000
G1 X7.7695 Y19.0000 Z4.0000 F300.00
G2 X8.5000 Y17.8774 Z4.0000 I-2.0122 J-2.1084 F1500.00
G2 X9.2305 Y19.0000 Z4.0000 I2.8312 J-1.0433 F1500.00
G1 X7.7695 Y19.0000 Z4.0000 F1500.00
G0 X7.7695 Y19.0000 Z15.0000
G0 X8.3132 Y18.7500 Z15.0000
G1 X8.3132 Y18.7500 Z4.0000 F300.00
G1 X8.5009 Y18.4569 Z4.0000 F1500.00
G2 X8.6855 Y18.7500 Z4.0000 I1.2056 J-0.5544 F1500.00
G1 X8.3132 Y18.7500 Z4.0000 F1500.00
G0 X8.3132 Y18.7500 Z15.0000
G0 X10.4808 Y17.3940 Z15.0000
G1 X10.4808 Y17.3940 Z4.0000 F300.00
G3 X11.2998 Y15.1721 Z4.0000 I1.2692 J-0.7940 F1500.00
G3 X13.1779 Y16.1498 Z4.0000 I0.4502 J1.4279 F1500.00
G3 X12.2002 Y18.0279 Z4.0000 I-1.4279 J0.4502 F1500.00
G3 X10.4808 Y17.3940 Z4.0000 I-0.4502 J-1.4279 F1500.00
G0 X10.4808 Y17.3940 Z15.0000
G0 X12.4521 Y19.5000 Z15.0000
G1 X12.4521 Y19.5000 Z4.0000 F300.00
G2 X13.0000 Y19.3201 Z4.0000 I-0.4091 J-2.1710 F1500.00
G1 X13.0000 Y19.5000 Z4.0000 F1500.00
G1 X12.4521 Y19.5000 Z4.0000 F1500.00
G0 Z15.0000
(finish operation: SwitchBed)
(begin operation: Interior Contour)
(Path: Interior Contour)
(Interior Contour)
(Compensated Tool Path. Diameter: 1.0)
G0 Z15.0000
G0 X32.1213 Y20.4851
G0 Z13.0000
G1 X32.1213 Y20.4851 Z9.0000 F300.00
G2 X32.5000 Y20.0000 Z9.0000 I-0.1213 J-0.4851 F1500.00
G1 X32.5000 Y0.0000 Z9.0000 F1500.00
G2 X32.0000 Y-0.5000 Z9.0000 I-0.5000 J-0.0000 F1500.00
G1 X0.0000 Y-0.5000 Z9.0000 F1500.00
G2 X-0.5000 Y0.0000 Z9.0000 I-0.0000 J0.5000 F1500.00
G1 X-0.5000 Y21.5000 Z9.0000 F1500.00
G2 X0.0000 Y22.0000 Z9.0000 I0.5000 J0.0000 F1500.00
G1 X17.0000 Y22.0000 Z9.0000 F1500.00
G2 X17.5000 Y21.5000 Z9.0000 I0.0000 J-0.5000 F1500.00
G1 X17.5000 Y20.5000 Z9.0000 F1500.00
G1 X32.0000 Y20.5000 Z9.0000 F1500.00
G2 X32.1213 Y20.4851 Z9.0000 I0.0000 J-0.5000 F1500.00
G1 X32.1213 Y20.4851 Z8.0000 F300.00
G2 X32.5000 Y20.0000 Z8.0000 I-0.1213 J-0.4851 F1500.00
G1 X32.5000 Y0.0000 Z8.0000 F1500.00
G2 X32.0000 Y-0.5000 Z8.0000 I-0.5000 J-0.0000 F1500.00
G1 X0.0000 Y-0.5000 Z8.0000 F1500.00
G2 X-0.5000 Y0.0000 Z8.0000 I-0.0000 J0.5000 F1500.00
G1 X-0.5000 Y21.5000 Z8.0000 F1500.00
G2 X0.0000 Y22.0000 Z8.0000 I0.5000 J0.0000 F1500.00
G1 X17.0000 Y22.0000 Z8.0000 F1500.00
G2 X17.5000 Y21.5000 Z8.0000 I0.0000 J-0.5000 F1500.00
G1 X17.5000 Y20.5000 Z8.0000 F1500.00
G1 X32.0000 Y20.5000 Z8.0000 F1500.00
G2 X32.1213 Y20.4851 Z8.0000 I0.0000 J-0.5000 F1500.00
G1 X32.1213 Y20.4851 Z7.0000 F300.00
G2 X32.5000 Y20.0000 Z7.0000 I-0.1213 J-0.4851 F1500.00
G1 X32.5000 Y0.0000 Z7.0000 F1500.00
G2 X32.0000 Y-0.5000 Z7.0000 I-0.5000 J-0.0000 F1500.00
G1 X0.0000 Y-0.5000 Z7.0000 F1500.00
G2 X-0.5000 Y0.0000 Z7.0000 I-0.0000 J0.5000 F1500.00
G1 X-0.5000 Y21.5000 Z7.0000 F1500.00
G2 X0.0000 Y22.0000 Z7.0000 I0.5000 J0.0000 F1500.00
G1 X17.0000 Y22.0000 Z7.0000 F1500.00
G2 X17.5000 Y21.5000 Z7.0000 I0.0000 J-0.5000 F1500.00
G1 X17.5000 Y20.5000 Z7.0000 F1500.00
G1 X32.0000 Y20.5000 Z7.0000 F1500.00
G2 X32.1213 Y20.4851 Z7.0000 I0.0000 J-0.5000 F1500.00
G1 X32.1213 Y20.4851 Z6.0000 F300.00
G2 X32.5000 Y20.0000 Z6.0000 I-0.1213 J-0.4851 F1500.00
G1 X32.5000 Y0.0000 Z6.0000 F1500.00
G2 X32.0000 Y-0.5000 Z6.0000 I-0.5000 J-0.0000 F1500.00
G1 X0.0000 Y-0.5000 Z6.0000 F1500.00
G2 X-0.5000 Y0.0000 Z6.0000 I-0.0000 J0.5000 F1500.00
G1 X-0.5000 Y21.5000 Z6.0000 F1500.00
G2 X0.0000 Y22.0000 Z6.0000 I0.5000 J0.0000 F1500.00
G1 X17.0000 Y22.0000 Z6.0000 F1500.00
G2 X17.5000 Y21.5000 Z6.0000 I0.0000 J-0.5000 F1500.00
G1 X17.5000 Y20.5000 Z6.0000 F1500.00
G1 X32.0000 Y20.5000 Z6.0000 F1500.00
G2 X32.1213 Y20.4851 Z6.0000 I0.0000 J-0.5000 F1500.00
G1 X32.1213 Y20.4851 Z5.0000 F300.00
G2 X32.5000 Y20.0000 Z5.0000 I-0.1213 J-0.4851 F1500.00
G1 X32.5000 Y0.0000 Z5.0000 F1500.00
G2 X32.0000 Y-0.5000 Z5.0000 I-0.5000 J-0.0000 F1500.00
G1 X0.0000 Y-0.5000 Z5.0000 F1500.00
G2 X-0.5000 Y0.0000 Z5.0000 I-0.0000 J0.5000 F1500.00
G1 X-0.5000 Y21.5000 Z5.0000 F1500.00
G2 X0.0000 Y22.0000 Z5.0000 I0.5000 J0.0000 F1500.00
G1 X17.0000 Y22.0000 Z5.0000 F1500.00
G2 X17.5000 Y21.5000 Z5.0000 I0.0000 J-0.5000 F1500.00
G1 X17.5000 Y20.5000 Z5.0000 F1500.00
G1 X32.0000 Y20.5000 Z5.0000 F1500.00
G2 X32.1213 Y20.4851 Z5.0000 I0.0000 J-0.5000 F1500.00
G1 X32.1213 Y20.4851 Z4.0000 F300.00
G2 X32.5000 Y20.0000 Z4.0000 I-0.1213 J-0.4851 F1500.00
G1 X32.5000 Y0.0000 Z4.0000 F1500.00
G2 X32.0000 Y-0.5000 Z4.0000 I-0.5000 J-0.0000 F1500.00
G1 X0.0000 Y-0.5000 Z4.0000 F1500.00
G2 X-0.5000 Y0.0000 Z4.0000 I-0.0000 J0.5000 F1500.00
G1 X-0.5000 Y21.5000 Z4.0000 F1500.00
G2 X0.0000 Y22.0000 Z4.0000 I0.5000 J0.0000 F1500.00
G1 X17.0000 Y22.0000 Z4.0000 F1500.00
G2 X17.5000 Y21.5000 Z4.0000 I0.0000 J-0.5000 F1500.00
G1 X17.5000 Y20.5000 Z4.0000 F1500.00
G1 X32.0000 Y20.5000 Z4.0000 F1500.00
G2 X32.1213 Y20.4851 Z4.0000 I0.0000 J-0.5000 F1500.00
G1 X32.1213 Y20.4851 Z3.0000 F300.00
G2 X32.5000 Y20.0000 Z3.0000 I-0.1213 J-0.4851 F1500.00
G1 X32.5000 Y0.0000 Z3.0000 F1500.00
G2 X32.0000 Y-0.5000 Z3.0000 I-0.5000 J-0.0000 F1500.00
G1 X0.0000 Y-0.5000 Z3.0000 F1500.00
G2 X-0.5000 Y0.0000 Z3.0000 I-0.0000 J0.5000 F1500.00
G1 X-0.5000 Y21.5000 Z3.0000 F1500.00
G2 X0.0000 Y22.0000 Z3.0000 I0.5000 J0.0000 F1500.00
G1 X17.0000 Y22.0000 Z3.0000 F1500.00
G2 X17.5000 Y21.5000 Z3.0000 I0.0000 J-0.5000 F1500.00
G1 X17.5000 Y20.5000 Z3.0000 F1500.00
G1 X32.0000 Y20.5000 Z3.0000 F1500.00
G2 X32.1213 Y20.4851 Z3.0000 I0.0000 J-0.5000 F1500.00
G0 Z15.0000
(finish operation: Interior Contour)
(begin operation: Exterior Contour)
(Path: Exterior Contour)
(Exterior Contour)
(Compensated Tool Path. Diameter: 1.0)
G0 Z15.0000
G0 X32.2122 Y20.6670
G0 Z13.0000
G1 X32.2122 Y20.6670 Z7.0000 F300.00
G2 X32.7000 Y20.0000 Z7.0000 I-0.2122 J-0.6670 F1500.00
G1 X32.7000 Y0.0000 Z7.0000 F1500.00
G2 X32.0000 Y-0.7000 Z7.0000 I-0.7000 J0.0000 F1500.00
G1 X0.0000 Y-0.7000 Z7.0000 F1500.00
G2 X-0.7000 Y0.0000 Z7.0000 I0.0000 J0.7000 F1500.00
G1 X-0.7000 Y21.5000 Z7.0000 F1500.00
G2 X0.0000 Y22.2000 Z7.0000 I0.7000 J-0.0000 F1500.00
G1 X17.0000 Y22.2000 Z7.0000 F1500.00
G2 X17.7000 Y21.5000 Z7.0000 I-0.0000 J-0.7000 F1500.00
G1 X17.7000 Y20.7000 Z7.0000 F1500.00
G1 X32.0000 Y20.7000 Z7.0000 F1500.00
G2 X32.2122 Y20.6670 Z7.0000 I-0.0000 J-0.7000 F1500.00
G1 X32.2122 Y20.6670 Z4.0000 F300.00
G2 X32.7000 Y20.0000 Z4.0000 I-0.2122 J-0.6670 F1500.00
G1 X32.7000 Y0.0000 Z4.0000 F1500.00
G2 X32.0000 Y-0.7000 Z4.0000 I-0.7000 J0.0000 F1500.00
G1 X0.0000 Y-0.7000 Z4.0000 F1500.00
G2 X-0.7000 Y0.0000 Z4.0000 I0.0000 J0.7000 F1500.00
G1 X-0.7000 Y21.5000 Z4.0000 F1500.00
G2 X0.0000 Y22.2000 Z4.0000 I0.7000 J-0.0000 F1500.00
G1 X17.0000 Y22.2000 Z4.0000 F1500.00
G2 X17.7000 Y21.5000 Z4.0000 I-0.0000 J-0.7000 F1500.00
G1 X17.7000 Y20.7000 Z4.0000 F1500.00
G1 X32.0000 Y20.7000 Z4.0000 F1500.00
G2 X32.2122 Y20.6670 Z4.0000 I-0.0000 J-0.7000 F1500.00
G1 X32.2122 Y20.6670 Z3.0000 F300.00
G2 X32.7000 Y20.0000 Z3.0000 I-0.2122 J-0.6670 F1500.00
G1 X32.7000 Y0.0000 Z3.0000 F1500.00
G2 X32.0000 Y-0.7000 Z3.0000 I-0.7000 J0.0000 F1500.00
G1 X0.0000 Y-0.7000 Z3.0000 F1500.00
G2 X-0.7000 Y0.0000 Z3.0000 I0.0000 J0.7000 F1500.00
G1 X-0.7000 Y21.5000 Z3.0000 F1500.00
G2 X0.0000 Y22.2000 Z3.0000 I0.7000 J-0.0000 F1500.00
G1 X17.0000 Y22.2000 Z3.0000 F1500.00
G2 X17.7000 Y21.5000 Z3.0000 I-0.0000 J-0.7000 F1500.00
G1 X17.7000 Y20.7000 Z3.0000 F1500.00
G1 X32.0000 Y20.7000 Z3.0000 F1500.00
G2 X32.2122 Y20.6670 Z3.0000 I-0.0000 J-0.7000 F1500.00
G0 Z15.0000
(finish operation: Exterior Contour)
(begin operation: Bottom Contourn)
(Path: Bottom Contourn)
G0 Z15.0000
G0 X32.1648 Y20.5769 Z15.0000
G0 X32.1648 Y20.5769 Z13.0000
G1 X32.1648 Y20.5769 Z2.0000 F300.00
G2 X32.6000 Y20.0000 Z2.0000 I-0.1648 J-0.5769 F1500.00
G1 X32.6000 Y0.0000 Z2.0000 F1500.00
G2 X32.0000 Y-0.6000 Z2.0000 I-0.6000 J-0.0000 F1500.00
G1 X0.0000 Y-0.6000 Z2.0000 F1500.00
G2 X-0.6000 Y-0.0000 Z2.0000 I-0.0000 J0.6000 F1500.00
G1 X-0.6000 Y21.5000 Z2.0000 F1500.00
G2 X0.0000 Y22.1000 Z2.0000 I0.6000 J0.0000 F1500.00
G1 X17.0000 Y22.1000 Z2.0000 F1500.00
G2 X17.6000 Y21.5000 Z2.0000 I0.0000 J-0.6000 F1500.00
G1 X17.6000 Y20.6000 Z2.0000 F1500.00
G1 X32.0000 Y20.6000 Z2.0000 F1500.00
G2 X32.1648 Y20.5769 Z2.0000 I-0.0000 J-0.6000 F1500.00
G1 X32.1648 Y20.5769 Z1.0000 F300.00
G2 X32.6000 Y20.0000 Z1.0000 I-0.1648 J-0.5769 F1500.00
G1 X32.6000 Y0.0000 Z1.0000 F1500.00
G2 X32.0000 Y-0.6000 Z1.0000 I-0.6000 J-0.0000 F1500.00
G1 X0.0000 Y-0.6000 Z1.0000 F1500.00
G2 X-0.6000 Y-0.0000 Z1.0000 I-0.0000 J0.6000 F1500.00
G1 X-0.6000 Y21.5000 Z1.0000 F1500.00
G2 X0.0000 Y22.1000 Z1.0000 I0.6000 J0.0000 F1500.00
G1 X17.0000 Y22.1000 Z1.0000 F1500.00
G2 X17.6000 Y21.5000 Z1.0000 I0.0000 J-0.6000 F1500.00
G1 X17.6000 Y20.6000 Z1.0000 F1500.00
G1 X32.0000 Y20.6000 Z1.0000 F1500.00
G2 X32.1648 Y20.5769 Z1.0000 I-0.0000 J-0.6000 F1500.00
G1 X32.1648 Y20.5769 Z0.0000 F300.00
G2 X32.6000 Y20.0000 Z0.0000 I-0.1648 J-0.5769 F1500.00
G1 X32.6000 Y11.2471 Z0.0000 F1500.00
G1 X32.6000 Y10.9584 Z0.5000 F700.00
G1 X32.6000 Y9.0416 Z0.5000 F1500.00
G1 X32.6000 Y8.7529 Z0.0000 F700.00
G1 X32.6000 Y0.0000 Z0.0000 F1500.00
G2 X32.0000 Y-0.6000 Z0.0000 I-0.6000 J-0.0000 F1500.00
G1 X25.2471 Y-0.6000 Z0.0000 F1500.00
G1 X24.9584 Y-0.6000 Z0.5000 F700.00
G1 X23.0416 Y-0.6000 Z0.5000 F1500.00
G1 X22.7529 Y-0.6000 Z0.0000 F700.00
G1 X9.2471 Y-0.6000 Z0.0000 F1500.00
G1 X8.9584 Y-0.6000 Z0.5000 F700.00
G1 X7.0416 Y-0.6000 Z0.5000 F1500.00
G1 X6.7529 Y-0.6000 Z0.0000 F700.00
G1 X0.0000 Y-0.6000 Z0.0000 F1500.00
G2 X-0.6000 Y-0.0000 Z0.0000 I-0.0000 J0.6000 F1500.00
G1 X-0.6000 Y9.5029 Z0.0000 F1500.00
G1 X-0.6000 Y9.7916 Z0.5000 F700.00
G1 X-0.6000 Y11.7084 Z0.5000 F1500.00
G1 X-0.6000 Y11.9971 Z0.0000 F700.00
G1 X-0.6000 Y21.5000 Z0.0000 F1500.00
G2 X0.0000 Y22.1000 Z0.0000 I0.6000 J0.0000 F1500.00
G1 X7.2529 Y22.1000 Z0.0000 F1500.00
G1 X7.5416 Y22.1000 Z0.5000 F700.00
G1 X9.4584 Y22.1000 Z0.5000 F1500.00
G1 X9.7471 Y22.1000 Z0.0000 F700.00
G1 X17.0000 Y22.1000 Z0.0000 F1500.00
G2 X17.6000 Y21.5000 Z0.0000 I0.0000 J-0.6000 F1500.00
G1 X17.6000 Y20.6000 Z0.0000 F1500.00
G1 X32.0000 Y20.6000 Z0.0000 F1500.00
G2 X32.1648 Y20.5769 Z0.0000 I-0.0000 J-0.6000 F1500.00
G0 X32.1648 Y20.5769 Z15.0000
(finish operation: Bottom Contourn)
(begin operation: WashBed)
(Path: WashBed)
(WashBed)
(helix cut operation)
G0 Z15.0000
G0 X24.9500 Y10.0000
G0 Z13.0000
G1 Z10.0000 F300.00
G2 X24.0500 Y10.0000 Z9.5833 I-0.4500 J0.0000 F1500.00
G2 X24.9500 Y10.0000 Z9.1667 I0.4500 J0.0000 F1500.00
G2 X24.0500 Y10.0000 Z8.7500 I-0.4500 J0.0000 F1500.00
G2 X24.9500 Y10.0000 Z8.3333 I0.4500 J0.0000 F1500.00
G2 X24.0500 Y10.0000 Z7.9167 I-0.4500 J0.0000 F1500.00
G2 X24.9500 Y10.0000 Z7.5000 I0.4500 J0.0000 F1500.00
G2 X24.0500 Y10.0000 Z7.5000 I-0.4500 J0.0000 F1500.00
G2 X24.9500 Y10.0000 Z7.5000 I0.4500 J0.0000 F1500.00
G0 Z13.0000
G0 X25.8250 Y10.0000
G0 Z13.0000
G1 Z10.0000 F300.00
G2 X23.1750 Y10.0000 Z9.5833 I-1.3250 J0.0000 F1500.00
G2 X25.8250 Y10.0000 Z9.1667 I1.3250 J0.0000 F1500.00
G2 X23.1750 Y10.0000 Z8.7500 I-1.3250 J0.0000 F1500.00
G2 X25.8250 Y10.0000 Z8.3333 I1.3250 J0.0000 F1500.00
G2 X23.1750 Y10.0000 Z7.9167 I-1.3250 J0.0000 F1500.00
G2 X25.8250 Y10.0000 Z7.5000 I1.3250 J0.0000 F1500.00
G2 X23.1750 Y10.0000 Z7.5000 I-1.3250 J0.0000 F1500.00
G2 X25.8250 Y10.0000 Z7.5000 I1.3250 J0.0000 F1500.00
G0 Z13.0000
G0 X26.7000 Y10.0000
G0 Z13.0000
G1 Z10.0000 F300.00
G2 X22.3000 Y10.0000 Z9.5833 I-2.2000 J0.0000 F1500.00
G2 X26.7000 Y10.0000 Z9.1667 I2.2000 J0.0000 F1500.00
G2 X22.3000 Y10.0000 Z8.7500 I-2.2000 J0.0000 F1500.00
G2 X26.7000 Y10.0000 Z8.3333 I2.2000 J0.0000 F1500.00
G2 X22.3000 Y10.0000 Z7.9167 I-2.2000 J0.0000 F1500.00
G2 X26.7000 Y10.0000 Z7.5000 I2.2000 J0.0000 F1500.00
G2 X22.3000 Y10.0000 Z7.5000 I-2.2000 J0.0000 F1500.00
G2 X26.7000 Y10.0000 Z7.5000 I2.2000 J0.0000 F1500.00
G0 Z13.0000
G0 X27.5750 Y10.0000
G0 Z13.0000
G1 Z10.0000 F300.00
G2 X21.4250 Y10.0000 Z9.5833 I-3.0750 J0.0000 F1500.00
G2 X27.5750 Y10.0000 Z9.1667 I3.0750 J0.0000 F1500.00
G2 X21.4250 Y10.0000 Z8.7500 I-3.0750 J0.0000 F1500.00
G2 X27.5750 Y10.0000 Z8.3333 I3.0750 J0.0000 F1500.00
G2 X21.4250 Y10.0000 Z7.9167 I-3.0750 J0.0000 F1500.00
G2 X27.5750 Y10.0000 Z7.5000 I3.0750 J0.0000 F1500.00
G2 X21.4250 Y10.0000 Z7.5000 I-3.0750 J0.0000 F1500.00
G2 X27.5750 Y10.0000 Z7.5000 I3.0750 J0.0000 F1500.00
G0 Z13.0000
G0 X28.4500 Y10.0000
G0 Z13.0000
G1 Z10.0000 F300.00
G2 X20.5500 Y10.0000 Z9.5833 I-3.9500 J0.0000 F1500.00
G2 X28.4500 Y10.0000 Z9.1667 I3.9500 J0.0000 F1500.00
G2 X20.5500 Y10.0000 Z8.7500 I-3.9500 J0.0000 F1500.00
G2 X28.4500 Y10.0000 Z8.3333 I3.9500 J0.0000 F1500.00
G2 X20.5500 Y10.0000 Z7.9167 I-3.9500 J0.0000 F1500.00
G2 X28.4500 Y10.0000 Z7.5000 I3.9500 J0.0000 F1500.00
G2 X20.5500 Y10.0000 Z7.5000 I-3.9500 J0.0000 F1500.00
G2 X28.4500 Y10.0000 Z7.5000 I3.9500 J0.0000 F1500.00
G0 Z13.0000
G0 X29.3250 Y10.0000
G0 Z13.0000
G1 Z10.0000 F300.00
G2 X19.6750 Y10.0000 Z9.5833 I-4.8250 J0.0000 F1500.00
G2 X29.3250 Y10.0000 Z9.1667 I4.8250 J0.0000 F1500.00
G2 X19.6750 Y10.0000 Z8.7500 I-4.8250 J0.0000 F1500.00
G2 X29.3250 Y10.0000 Z8.3333 I4.8250 J0.0000 F1500.00
G2 X19.6750 Y10.0000 Z7.9167 I-4.8250 J0.0000 F1500.00
G2 X29.3250 Y10.0000 Z7.5000 I4.8250 J0.0000 F1500.00
G2 X19.6750 Y10.0000 Z7.5000 I-4.8250 J0.0000 F1500.00
G2 X29.3250 Y10.0000 Z7.5000 I4.8250 J0.0000 F1500.00
G0 Z13.0000
G0 X30.2000 Y10.0000
G0 Z13.0000
G1 Z10.0000 F300.00
G2 X18.8000 Y10.0000 Z9.5833 I-5.7000 J0.0000 F1500.00
G2 X30.2000 Y10.0000 Z9.1667 I5.7000 J0.0000 F1500.00
G2 X18.8000 Y10.0000 Z8.7500 I-5.7000 J0.0000 F1500.00
G2 X30.2000 Y10.0000 Z8.3333 I5.7000 J0.0000 F1500.00
G2 X18.8000 Y10.0000 Z7.9167 I-5.7000 J0.0000 F1500.00
G2 X30.2000 Y10.0000 Z7.5000 I5.7000 J0.0000 F1500.00
G2 X18.8000 Y10.0000 Z7.5000 I-5.7000 J0.0000 F1500.00
G2 X30.2000 Y10.0000 Z7.5000 I5.7000 J0.0000 F1500.00
G0 Z13.0000
G0 Z15.0000
(finish operation: WashBed)
(begin operation: BoltHole)
(Path: BoltHole)
(BoltHole)
(helix cut operation)
G0 Z15.0000
G0 X25.0000 Y10.0000
G0 Z13.0000
G1 Z7.0000 F300.00
G2 X24.0000 Y10.0000 Z6.5000 I-0.5000 J0.0000 F1500.00
G2 X25.0000 Y10.0000 Z6.0000 I0.5000 J0.0000 F1500.00
G2 X24.0000 Y10.0000 Z5.5000 I-0.5000 J0.0000 F1500.00
G2 X25.0000 Y10.0000 Z5.0000 I0.5000 J0.0000 F1500.00
G2 X24.0000 Y10.0000 Z4.5000 I-0.5000 J0.0000 F1500.00
G2 X25.0000 Y10.0000 Z4.0000 I0.5000 J0.0000 F1500.00
G2 X24.0000 Y10.0000 Z3.5000 I-0.5000 J0.0000 F1500.00
G2 X25.0000 Y10.0000 Z3.0000 I0.5000 J0.0000 F1500.00
G2 X24.0000 Y10.0000 Z2.5000 I-0.5000 J0.0000 F1500.00
G2 X25.0000 Y10.0000 Z2.0000 I0.5000 J0.0000 F1500.00
G2 X24.0000 Y10.0000 Z1.5000 I-0.5000 J0.0000 F1500.00
G2 X25.0000 Y10.0000 Z1.0000 I0.5000 J0.0000 F1500.00
G2 X24.0000 Y10.0000 Z0.5000 I-0.5000 J0.0000 F1500.00
G2 X25.0000 Y10.0000 Z0.0000 I0.5000 J0.0000 F1500.00
G2 X24.0000 Y10.0000 Z0.0000 I-0.5000 J0.0000 F1500.00
G2 X25.0000 Y10.0000 Z0.0000 I0.5000 J0.0000 F1500.00
G0 Z13.0000
G0 X25.7750 Y10.0000
G0 Z13.0000
G1 Z7.0000 F300.00
G2 X23.2250 Y10.0000 Z6.5000 I-1.2750 J0.0000 F1500.00
G2 X25.7750 Y10.0000 Z6.0000 I1.2750 J0.0000 F1500.00
G2 X23.2250 Y10.0000 Z5.5000 I-1.2750 J0.0000 F1500.00
G2 X25.7750 Y10.0000 Z5.0000 I1.2750 J0.0000 F1500.00
G2 X23.2250 Y10.0000 Z4.5000 I-1.2750 J0.0000 F1500.00
G2 X25.7750 Y10.0000 Z4.0000 I1.2750 J0.0000 F1500.00
G2 X23.2250 Y10.0000 Z3.5000 I-1.2750 J0.0000 F1500.00
G2 X25.7750 Y10.0000 Z3.0000 I1.2750 J0.0000 F1500.00
G2 X23.2250 Y10.0000 Z2.5000 I-1.2750 J0.0000 F1500.00
G2 X25.7750 Y10.0000 Z2.0000 I1.2750 J0.0000 F1500.00
G2 X23.2250 Y10.0000 Z1.5000 I-1.2750 J0.0000 F1500.00
G2 X25.7750 Y10.0000 Z1.0000 I1.2750 J0.0000 F1500.00
G2 X23.2250 Y10.0000 Z0.5000 I-1.2750 J0.0000 F1500.00
G2 X25.7750 Y10.0000 Z0.0000 I1.2750 J0.0000 F1500.00
G2 X23.2250 Y10.0000 Z0.0000 I-1.2750 J0.0000 F1500.00
G2 X25.7750 Y10.0000 Z0.0000 I1.2750 J0.0000 F1500.00
G0 Z13.0000
G0 X26.5500 Y10.0000
G0 Z13.0000
G1 Z7.0000 F300.00
G2 X22.4500 Y10.0000 Z6.5000 I-2.0500 J0.0000 F1500.00
G2 X26.5500 Y10.0000 Z6.0000 I2.0500 J0.0000 F1500.00
G2 X22.4500 Y10.0000 Z5.5000 I-2.0500 J0.0000 F1500.00
G2 X26.5500 Y10.0000 Z5.0000 I2.0500 J0.0000 F1500.00
G2 X22.4500 Y10.0000 Z4.5000 I-2.0500 J0.0000 F1500.00
G2 X26.5500 Y10.0000 Z4.0000 I2.0500 J0.0000 F1500.00
G2 X22.4500 Y10.0000 Z3.5000 I-2.0500 J0.0000 F1500.00
G2 X26.5500 Y10.0000 Z3.0000 I2.0500 J0.0000 F1500.00
G2 X22.4500 Y10.0000 Z2.5000 I-2.0500 J0.0000 F1500.00
G2 X26.5500 Y10.0000 Z2.0000 I2.0500 J0.0000 F1500.00
G2 X22.4500 Y10.0000 Z1.5000 I-2.0500 J0.0000 F1500.00
G2 X26.5500 Y10.0000 Z1.0000 I2.0500 J0.0000 F1500.00
G2 X22.4500 Y10.0000 Z0.5000 I-2.0500 J0.0000 F1500.00
G2 X26.5500 Y10.0000 Z0.0000 I2.0500 J0.0000 F1500.00
G2 X22.4500 Y10.0000 Z0.0000 I-2.0500 J0.0000 F1500.00
G2 X26.5500 Y10.0000 Z0.0000 I2.0500 J0.0000 F1500.00
G0 Z13.0000
G0 Z15.0000
(finish operation: BoltHole)
(begin postamble)
M5
G17 G90
; M2
