(Exported by FreeCAD)
(Post Processor: cnc1310_post)
(Output Time:2019-08-31 03:33:26.356713)
(begin preamble)
G17 G90
G21
(begin operation: T3: SingleFlute2mm)
(Path: T3: SingleFlute2mm)
(T3: SingleFlute2mm)
(begin toolchange)
; ; M6 T3
M3 S8000.0000
(finish operation: T3: SingleFlute2mm)
(begin operation: DogboneDressup)
(Path: DogboneDressup)
(Pocket_Shape)
G0 Z15.0000
G0 X31.0000 Y19.0000
G0 Z13.0000
G1 X31.0000 Y19.0000 Z8.0000 F300.00
G1 X17.6000 Y19.0000 Z8.0000 F1500.00
G2 X16.6000 Y20.0000 Z8.0000 I0.0000 J1.0000 F1500.00
G1 X16.6000 Y20.5000 Z8.0000 F1500.00
G1 X1.0000 Y20.5000 Z8.0000 F1500.00
G1 X1.0000 Y20.5000 Z8.0000 F1500.00
G1 X0.7071 Y20.7929 Z8.0000 F1500.00
G1 X1.0000 Y20.5000 Z8.0000 F1500.00
G1 X1.0000 Y1.0000 Z8.0000 F1500.00
G1 X1.0000 Y1.0000 Z8.0000 F1500.00
G1 X0.7071 Y0.7071 Z8.0000 F1500.00
G1 X1.0000 Y1.0000 Z8.0000 F1500.00
G1 X31.0000 Y1.0000 Z8.0000 F1500.00
G1 X31.0000 Y1.0000 Z8.0000 F1500.00
G1 X31.2929 Y0.7071 Z8.0000 F1500.00
G1 X31.0000 Y1.0000 Z8.0000 F1500.00
G1 X31.0000 Y19.0000 Z8.0000 F1500.00
G1 X31.0000 Y19.0000 Z8.0000 F1500.00
G1 X31.2929 Y19.2929 Z8.0000 F1500.00
G1 X31.0000 Y19.0000 Z8.0000 F1500.00
G0 X31.0000 Y19.0000 Z15.0000
G0 X29.8000 Y17.8000 Z15.0000
G1 X29.8000 Y17.8000 Z8.0000 F300.00
G1 X17.6000 Y17.8000 Z8.0000 F1500.00
G2 X15.5248 Y19.3000 Z8.0000 I-0.0130 J2.1675 F1500.00
G1 X2.2000 Y19.3000 Z8.0000 F1500.00
G1 X2.2000 Y2.2000 Z8.0000 F1500.00
G1 X2.2000 Y2.2000 Z8.0000 F1500.00
G1 X29.8000 Y2.2000 Z8.0000 F1500.00
G1 X29.8000 Y2.2000 Z8.0000 F1500.00
G1 X29.8000 Y17.8000 Z8.0000 F1500.00
G1 X29.8000 Y17.8000 Z8.0000 F1500.00
G0 X29.8000 Y17.8000 Z15.0000
G0 X28.6000 Y16.6000 Z15.0000
G1 X28.6000 Y16.6000 Z8.0000 F300.00
G1 X17.6000 Y16.6000 Z8.0000 F1500.00
G2 X14.7916 Y18.1000 Z8.0000 I-0.0163 J3.3484 F1500.00
G1 X3.4000 Y18.1000 Z8.0000 F1500.00
G1 X3.4000 Y3.4000 Z8.0000 F1500.00
G1 X3.4000 Y3.4000 Z8.0000 F1500.00
G1 X28.6000 Y3.4000 Z8.0000 F1500.00
G1 X28.6000 Y3.4000 Z8.0000 F1500.00
G1 X28.6000 Y5.6992 Z8.0000 F1500.00
G2 X20.1424 Y14.0433 Z8.0000 I-4.1018 J4.3008 F1500.00
G2 X28.6000 Y14.3008 Z8.0000 I4.3557 J-4.0387 F1500.00
G1 X28.6000 Y16.6000 Z8.0000 F1500.00
G0 X28.6000 Y16.6000 Z15.0000
G0 X27.0041 Y14.0310 Z15.0000
G1 X27.0041 Y14.0310 Z8.0000 F300.00
G3 X25.1345 Y14.7029 Z8.0000 I-2.5041 J-4.0310 F1500.00
G3 X23.8655 Y5.2971 Z8.0000 I-0.6345 J-4.7029 F1500.00
G3 X27.0041 Y14.0310 Z8.0000 I0.6345 J4.7029 F1500.00
G0 X27.0041 Y14.0310 Z15.0000
G0 X26.3718 Y13.0132 Z15.0000
G1 X26.3718 Y13.0132 Z8.0000 F300.00
G3 X25.0300 Y13.5075 Z8.0000 I-1.8718 J-3.0132 F1500.00
G3 X23.9700 Y6.4925 Z8.0000 I-0.5300 J-3.5075 F1500.00
G3 X26.3718 Y13.0132 Z8.0000 I0.5300 J3.5075 F1500.00
G0 X26.3718 Y13.0132 Z15.0000
G0 X19.8393 Y15.4000 Z15.0000
G1 X19.8393 Y15.4000 Z8.0000 F300.00
G1 X17.6000 Y15.4000 Z8.0000 F1500.00
G2 X14.2134 Y16.9000 Z8.0000 I-0.0183 J4.5317 F1500.00
G1 X4.6000 Y16.9000 Z8.0000 F1500.00
G1 X4.6000 Y4.6000 Z8.0000 F1500.00
G1 X4.6000 Y4.6000 Z8.0000 F1500.00
G1 X19.8393 Y4.6000 Z8.0000 F1500.00
G2 X19.8393 Y15.4000 Z8.0000 I4.6302 J5.4000 F1500.00
G0 X19.8393 Y15.4000 Z15.0000
G0 X17.3181 Y14.2164 Z15.0000
G1 X17.3181 Y14.2164 Z8.0000 F300.00
G2 X13.7202 Y15.7000 Z8.0000 I0.2211 J5.6406 F1500.00
G1 X5.8000 Y15.7000 Z8.0000 F1500.00
G1 X5.8000 Y5.8000 Z8.0000 F1500.00
G1 X5.8000 Y5.8000 Z8.0000 F1500.00
G1 X17.3086 Y5.8000 Z8.0000 F1500.00
G2 X16.2108 Y10.9483 Z8.0000 I6.9509 J4.1734 F1500.00
G2 X17.3181 Y14.2164 Z8.0000 I8.0035 J-0.8900 F1500.00
G0 X17.3181 Y14.2164 Z15.0000
G0 X15.5478 Y13.3143 Z15.0000
G1 X15.5478 Y13.3143 Z8.0000 F300.00
G2 X13.2819 Y14.5000 Z8.0000 I1.8567 J6.3060 F1500.00
G1 X7.0000 Y14.5000 Z8.0000 F1500.00
G1 X7.0000 Y7.0000 Z8.0000 F1500.00
G1 X7.0000 Y7.0000 Z8.0000 F1500.00
G1 X15.4386 Y7.0000 Z8.0000 F1500.00
G2 X15.5478 Y13.3143 Z8.0000 I8.9891 J3.0028 F1500.00
G0 X15.5478 Y13.3143 Z15.0000
G0 X14.0789 Y12.6054 Z15.0000
G1 X14.0789 Y12.6054 Z8.0000 F300.00
G2 X12.8852 Y13.3000 Z8.0000 I2.0658 J4.9233 F1500.00
G1 X8.2000 Y13.3000 Z8.0000 F1500.00
G1 X8.2000 Y8.2000 Z8.0000 F1500.00
G1 X8.2000 Y8.2000 Z8.0000 F1500.00
G1 X13.9029 Y8.2000 Z8.0000 F1500.00
G2 X14.0789 Y12.6054 Z8.0000 I10.7061 J1.7784 F1500.00
G0 X14.0789 Y12.6054 Z15.0000
G0 X12.7159 Y11.9685 Z15.0000
G1 X12.7159 Y11.9685 Z8.0000 F300.00
G1 X12.5203 Y12.1000 Z8.0000 F1500.00
G1 X9.4000 Y12.1000 Z8.0000 F1500.00
G1 X9.4000 Y12.1000 Z8.0000 F1500.00
G1 X9.4000 Y9.4000 Z8.0000 F1500.00
G1 X9.4000 Y9.4000 Z8.0000 F1500.00
G1 X12.5766 Y9.4000 Z8.0000 F1500.00
G2 X12.7159 Y11.9685 Z8.0000 I12.4986 J0.6102 F1500.00
G0 X12.7159 Y11.9685 Z15.0000
G0 X11.3893 Y10.9000 Z15.0000
G1 X11.3893 Y10.9000 Z8.0000 F300.00
G1 X10.6000 Y10.9000 Z8.0000 F1500.00
G1 X10.6000 Y10.6000 Z8.0000 F1500.00
G1 X10.6000 Y10.6000 Z8.0000 F1500.00
G1 X11.3764 Y10.6000 Z8.0000 F1500.00
G1 X11.3764 Y10.6000 Z8.0000 F1500.00
G1 X11.3893 Y10.9000 Z8.0000 F1500.00
G1 X11.3893 Y10.9000 Z8.0000 F1500.00
G1 X11.3893 Y10.9000 Z6.0000 F300.00
G1 X10.6000 Y10.9000 Z6.0000 F1500.00
G1 X10.6000 Y10.6000 Z6.0000 F1500.00
G1 X10.6000 Y10.6000 Z6.0000 F1500.00
G1 X11.3764 Y10.6000 Z6.0000 F1500.00
G1 X11.3764 Y10.6000 Z6.0000 F1500.00
G1 X11.3893 Y10.9000 Z6.0000 F1500.00
G1 X11.3893 Y10.9000 Z6.0000 F1500.00
G0 X11.3893 Y10.9000 Z15.0000
G0 X11.3893 Y12.1000 Z15.0000
G1 X11.3893 Y12.1000 Z6.0000 F300.00
G1 X9.4000 Y12.1000 Z6.0000 F1500.00
G1 X9.4000 Y9.4000 Z6.0000 F1500.00
G1 X9.4000 Y9.4000 Z6.0000 F1500.00
G1 X12.5766 Y9.4000 Z6.0000 F1500.00
G2 X12.7159 Y11.9685 Z6.0000 I12.4986 J0.6102 F1500.00
G1 X12.5203 Y12.1000 Z6.0000 F1500.00
G1 X11.3893 Y12.1000 Z6.0000 F1500.00
G1 X11.3893 Y12.1000 Z6.0000 F1500.00
G0 X11.3893 Y12.1000 Z15.0000
G0 X11.3893 Y13.3000 Z15.0000
G1 X11.3893 Y13.3000 Z6.0000 F300.00
G1 X8.2000 Y13.3000 Z6.0000 F1500.00
G1 X8.2000 Y8.2000 Z6.0000 F1500.00
G1 X8.2000 Y8.2000 Z6.0000 F1500.00
G1 X13.9029 Y8.2000 Z6.0000 F1500.00
G2 X14.0789 Y12.6054 Z6.0000 I10.7061 J1.7784 F1500.00
G2 X12.8852 Y13.3000 Z6.0000 I2.0658 J4.9233 F1500.00
G1 X11.3893 Y13.3000 Z6.0000 F1500.00
G0 X11.3893 Y13.3000 Z15.0000
G0 X11.3893 Y14.5000 Z15.0000
G1 X11.3893 Y14.5000 Z6.0000 F300.00
G1 X7.0000 Y14.5000 Z6.0000 F1500.00
G1 X7.0000 Y7.0000 Z6.0000 F1500.00
G1 X7.0000 Y7.0000 Z6.0000 F1500.00
G1 X15.4386 Y7.0000 Z6.0000 F1500.00
G2 X15.5478 Y13.3143 Z6.0000 I8.9891 J3.0028 F1500.00
G2 X13.2819 Y14.5000 Z6.0000 I1.8567 J6.3060 F1500.00
G1 X11.3893 Y14.5000 Z6.0000 F1500.00
G0 X11.3893 Y14.5000 Z15.0000
G0 X11.3893 Y15.7000 Z15.0000
G1 X11.3893 Y15.7000 Z6.0000 F300.00
G1 X5.8000 Y15.7000 Z6.0000 F1500.00
G1 X5.8000 Y5.8000 Z6.0000 F1500.00
G1 X5.8000 Y5.8000 Z6.0000 F1500.00
G1 X17.3086 Y5.8000 Z6.0000 F1500.00
G2 X16.2108 Y10.9483 Z6.0000 I6.9509 J4.1734 F1500.00
G2 X17.3181 Y14.2164 Z6.0000 I8.0035 J-0.8900 F1500.00
G2 X13.7202 Y15.7000 Z6.0000 I0.2211 J5.6406 F1500.00
G1 X11.3893 Y15.7000 Z6.0000 F1500.00
G0 X11.3893 Y15.7000 Z15.0000
G0 X11.3893 Y16.9000 Z15.0000
G1 X11.3893 Y16.9000 Z6.0000 F300.00
G1 X4.6000 Y16.9000 Z6.0000 F1500.00
G1 X4.6000 Y4.6000 Z6.0000 F1500.00
G1 X4.6000 Y4.6000 Z6.0000 F1500.00
G1 X19.8393 Y4.6000 Z6.0000 F1500.00
G2 X19.8393 Y15.4000 Z6.0000 I4.6302 J5.4000 F1500.00
G1 X17.6000 Y15.4000 Z6.0000 F1500.00
G2 X14.2134 Y16.9000 Z6.0000 I-0.0183 J4.5317 F1500.00
G1 X11.3893 Y16.9000 Z6.0000 F1500.00
G0 X11.3893 Y16.9000 Z15.0000
G0 X11.3893 Y18.1000 Z15.0000
G1 X11.3893 Y18.1000 Z6.0000 F300.00
G1 X3.4000 Y18.1000 Z6.0000 F1500.00
G1 X3.4000 Y3.4000 Z6.0000 F1500.00
G1 X3.4000 Y3.4000 Z6.0000 F1500.00
G1 X28.6000 Y3.4000 Z6.0000 F1500.00
G1 X28.6000 Y3.4000 Z6.0000 F1500.00
G1 X28.6000 Y5.6992 Z6.0000 F1500.00
G2 X20.1424 Y14.0433 Z6.0000 I-4.1018 J4.3008 F1500.00
G2 X28.6000 Y14.3008 Z6.0000 I4.3557 J-4.0387 F1500.00
G1 X28.6000 Y16.6000 Z6.0000 F1500.00
G1 X17.6000 Y16.6000 Z6.0000 F1500.00
G2 X14.7916 Y18.1000 Z6.0000 I-0.0163 J3.3484 F1500.00
G1 X11.3893 Y18.1000 Z6.0000 F1500.00
G0 X11.3893 Y18.1000 Z15.0000
G0 X11.3893 Y19.3000 Z15.0000
G1 X11.3893 Y19.3000 Z6.0000 F300.00
G1 X2.2000 Y19.3000 Z6.0000 F1500.00
G1 X2.2000 Y2.2000 Z6.0000 F1500.00
G1 X2.2000 Y2.2000 Z6.0000 F1500.00
G1 X29.8000 Y2.2000 Z6.0000 F1500.00
G1 X29.8000 Y2.2000 Z6.0000 F1500.00
G1 X29.8000 Y17.8000 Z6.0000 F1500.00
G1 X29.8000 Y17.8000 Z6.0000 F1500.00
G1 X17.6000 Y17.8000 Z6.0000 F1500.00
G2 X15.5248 Y19.3000 Z6.0000 I-0.0130 J2.1675 F1500.00
G1 X11.3893 Y19.3000 Z6.0000 F1500.00
G0 X11.3893 Y19.3000 Z15.0000
G0 X11.3893 Y20.5000 Z15.0000
G1 X11.3893 Y20.5000 Z6.0000 F300.00
G1 X1.0000 Y20.5000 Z6.0000 F1500.00
G1 X0.7071 Y20.7929 Z6.0000 F1500.00
G1 X1.0000 Y20.5000 Z6.0000 F1500.00
G1 X1.0000 Y1.0000 Z6.0000 F1500.00
G1 X1.0000 Y1.0000 Z6.0000 F1500.00
G1 X0.7071 Y0.7071 Z6.0000 F1500.00
G1 X1.0000 Y1.0000 Z6.0000 F1500.00
G1 X31.0000 Y1.0000 Z6.0000 F1500.00
G1 X31.0000 Y1.0000 Z6.0000 F1500.00
G1 X31.2929 Y0.7071 Z6.0000 F1500.00
G1 X31.0000 Y1.0000 Z6.0000 F1500.00
G1 X31.0000 Y19.0000 Z6.0000 F1500.00
G1 X31.0000 Y19.0000 Z6.0000 F1500.00
G1 X31.2929 Y19.2929 Z6.0000 F1500.00
G1 X31.0000 Y19.0000 Z6.0000 F1500.00
G1 X17.6000 Y19.0000 Z6.0000 F1500.00
G2 X16.6000 Y20.0000 Z6.0000 I0.0000 J1.0000 F1500.00
G1 X16.6000 Y20.5000 Z6.0000 F1500.00
G1 X11.3893 Y20.5000 Z6.0000 F1500.00
G1 X11.3893 Y20.5000 Z6.0000 F1500.00
G0 X11.3893 Y20.5000 Z15.0000
G0 X20.7960 Y12.9665 Z15.0000
G1 X20.7960 Y12.9665 Z6.0000 F300.00
G3 X23.8655 Y5.2971 Z6.0000 I3.7040 J-2.9665 F1500.00
G3 X29.2029 Y9.3655 Z6.0000 I0.6345 J4.7029 F1500.00
G3 X25.1345 Y14.7029 Z6.0000 I-4.7029 J0.6345 F1500.00
G3 X20.7960 Y12.9665 Z6.0000 I-0.6345 J-4.7029 F1500.00
G0 X20.7960 Y12.9665 Z15.0000
G0 X21.7312 Y12.2174 Z15.0000
G1 X21.7312 Y12.2174 Z6.0000 F300.00
G3 X23.9700 Y6.4925 Z6.0000 I2.7688 J-2.2174 F1500.00
G3 X28.0075 Y9.4700 Z6.0000 I0.5300 J3.5075 F1500.00
G3 X25.0300 Y13.5075 Z6.0000 I-3.5075 J0.5300 F1500.00
G3 X21.7312 Y12.2174 Z6.0000 I-0.5300 J-3.5075 F1500.00
G1 X21.7312 Y12.2174 Z4.0000 F300.00
G3 X23.9700 Y6.4925 Z4.0000 I2.7688 J-2.2174 F1500.00
G3 X28.0075 Y9.4700 Z4.0000 I0.5300 J3.5075 F1500.00
G3 X25.0300 Y13.5075 Z4.0000 I-3.5075 J0.5300 F1500.00
G3 X21.7312 Y12.2174 Z4.0000 I-0.5300 J-3.5075 F1500.00
G0 X21.7312 Y12.2174 Z15.0000
G0 X20.7960 Y12.9665 Z15.0000
G1 X20.7960 Y12.9665 Z4.0000 F300.00
G3 X23.8655 Y5.2971 Z4.0000 I3.7040 J-2.9665 F1500.00
G3 X29.2029 Y9.3655 Z4.0000 I0.6345 J4.7029 F1500.00
G3 X25.1345 Y14.7029 Z4.0000 I-4.7029 J0.6345 F1500.00
G3 X20.7960 Y12.9665 Z4.0000 I-0.6345 J-4.7029 F1500.00
G0 X20.7960 Y12.9665 Z15.0000
G0 X19.8603 Y13.7162 Z15.0000
G1 X19.8603 Y13.7162 Z4.0000 F300.00
G2 X20.1424 Y14.0433 Z4.0000 I4.6380 J-3.7163 F1500.00
G2 X28.6000 Y14.3008 Z4.0000 I4.3557 J-4.0387 F1500.00
G1 X28.6000 Y16.6000 Z4.0000 F1500.00
G1 X17.6000 Y16.6000 Z4.0000 F1500.00
G2 X14.7916 Y18.1000 Z4.0000 I-0.0163 J3.3484 F1500.00
G1 X3.4000 Y18.1000 Z4.0000 F1500.00
G1 X3.4000 Y3.4000 Z4.0000 F1500.00
G1 X3.4000 Y3.4000 Z4.0000 F1500.00
G1 X28.6000 Y3.4000 Z4.0000 F1500.00
G1 X28.6000 Y3.4000 Z4.0000 F1500.00
G1 X28.6000 Y5.6992 Z4.0000 F1500.00
G2 X19.8603 Y13.7162 Z4.0000 I-4.1018 J4.3008 F1500.00
G0 X19.8603 Y13.7162 Z15.0000
G0 X18.9319 Y14.4647 Z15.0000
G1 X18.9319 Y14.4647 Z4.0000 F300.00
G2 X19.8393 Y15.4000 Z4.0000 I5.5376 J-4.4647 F1500.00
G1 X17.6000 Y15.4000 Z4.0000 F1500.00
G2 X14.2134 Y16.9000 Z4.0000 I-0.0183 J4.5317 F1500.00
G1 X4.6000 Y16.9000 Z4.0000 F1500.00
G1 X4.6000 Y4.6000 Z4.0000 F1500.00
G1 X4.6000 Y4.6000 Z4.0000 F1500.00
G1 X19.8393 Y4.6000 Z4.0000 F1500.00
G2 X18.9319 Y14.4647 Z4.0000 I4.6302 J5.4000 F1500.00
G0 X18.9319 Y14.4647 Z15.0000
G0 X17.3181 Y14.2164 Z15.0000
G1 X17.3181 Y14.2164 Z4.0000 F300.00
G2 X13.7202 Y15.7000 Z4.0000 I0.2211 J5.6406 F1500.00
G1 X5.8000 Y15.7000 Z4.0000 F1500.00
G1 X5.8000 Y5.8000 Z4.0000 F1500.00
G1 X5.8000 Y5.8000 Z4.0000 F1500.00
G1 X17.3086 Y5.8000 Z4.0000 F1500.00
G2 X16.2108 Y10.9483 Z4.0000 I6.9509 J4.1734 F1500.00
G2 X17.3181 Y14.2164 Z4.0000 I8.0035 J-0.8900 F1500.00
G0 X17.3181 Y14.2164 Z15.0000
G0 X15.5478 Y13.3143 Z15.0000
G1 X15.5478 Y13.3143 Z4.0000 F300.00
G2 X13.2819 Y14.5000 Z4.0000 I1.8567 J6.3060 F1500.00
G1 X7.0000 Y14.5000 Z4.0000 F1500.00
G1 X7.0000 Y7.0000 Z4.0000 F1500.00
G1 X7.0000 Y7.0000 Z4.0000 F1500.00
G1 X15.4386 Y7.0000 Z4.0000 F1500.00
G2 X15.5478 Y13.3143 Z4.0000 I8.9891 J3.0028 F1500.00
G0 X15.5478 Y13.3143 Z15.0000
G0 X14.0789 Y12.6054 Z15.0000
G1 X14.0789 Y12.6054 Z4.0000 F300.00
G2 X12.8852 Y13.3000 Z4.0000 I2.0658 J4.9233 F1500.00
G1 X8.2000 Y13.3000 Z4.0000 F1500.00
G1 X8.2000 Y8.2000 Z4.0000 F1500.00
G1 X8.2000 Y8.2000 Z4.0000 F1500.00
G1 X13.9029 Y8.2000 Z4.0000 F1500.00
G2 X14.0789 Y12.6054 Z4.0000 I10.7061 J1.7784 F1500.00
G0 X14.0789 Y12.6054 Z15.0000
G0 X12.7159 Y11.9685 Z15.0000
G1 X12.7159 Y11.9685 Z4.0000 F300.00
G1 X12.5203 Y12.1000 Z4.0000 F1500.00
G1 X9.4000 Y12.1000 Z4.0000 F1500.00
G1 X9.4000 Y12.1000 Z4.0000 F1500.00
G1 X9.4000 Y9.4000 Z4.0000 F1500.00
G1 X9.4000 Y9.4000 Z4.0000 F1500.00
G1 X12.5766 Y9.4000 Z4.0000 F1500.00
G2 X12.7159 Y11.9685 Z4.0000 I12.4986 J0.6102 F1500.00
G0 X12.7159 Y11.9685 Z15.0000
G0 X11.3893 Y10.9000 Z15.0000
G1 X11.3893 Y10.9000 Z4.0000 F300.00
G1 X10.6000 Y10.9000 Z4.0000 F1500.00
G1 X10.6000 Y10.6000 Z4.0000 F1500.00
G1 X10.6000 Y10.6000 Z4.0000 F1500.00
G1 X11.3764 Y10.6000 Z4.0000 F1500.00
G1 X11.3764 Y10.6000 Z4.0000 F1500.00
G1 X11.3893 Y10.9000 Z4.0000 F1500.00
G1 X11.3893 Y10.9000 Z4.0000 F1500.00
G0 X11.3893 Y10.9000 Z15.0000
G0 X11.3893 Y19.3000 Z15.0000
G1 X11.3893 Y19.3000 Z4.0000 F300.00
G1 X2.2000 Y19.3000 Z4.0000 F1500.00
G1 X2.2000 Y2.2000 Z4.0000 F1500.00
G1 X2.2000 Y2.2000 Z4.0000 F1500.00
G1 X29.8000 Y2.2000 Z4.0000 F1500.00
G1 X29.8000 Y2.2000 Z4.0000 F1500.00
G1 X29.8000 Y17.8000 Z4.0000 F1500.00
G1 X29.8000 Y17.8000 Z4.0000 F1500.00
G1 X17.6000 Y17.8000 Z4.0000 F1500.00
G2 X15.5248 Y19.3000 Z4.0000 I-0.0130 J2.1675 F1500.00
G1 X11.3893 Y19.3000 Z4.0000 F1500.00
G0 X11.3893 Y19.3000 Z15.0000
G0 X11.3893 Y20.5000 Z15.0000
G1 X11.3893 Y20.5000 Z4.0000 F300.00
G1 X1.0000 Y20.5000 Z4.0000 F1500.00
G1 X0.7071 Y20.7929 Z4.0000 F1500.00
G1 X1.0000 Y20.5000 Z4.0000 F1500.00
G1 X1.0000 Y1.0000 Z4.0000 F1500.00
G1 X1.0000 Y1.0000 Z4.0000 F1500.00
G1 X0.7071 Y0.7071 Z4.0000 F1500.00
G1 X1.0000 Y1.0000 Z4.0000 F1500.00
G1 X31.0000 Y1.0000 Z4.0000 F1500.00
G1 X31.0000 Y1.0000 Z4.0000 F1500.00
G1 X31.2929 Y0.7071 Z4.0000 F1500.00
G1 X31.0000 Y1.0000 Z4.0000 F1500.00
G1 X31.0000 Y19.0000 Z4.0000 F1500.00
G1 X31.0000 Y19.0000 Z4.0000 F1500.00
G1 X31.2929 Y19.2929 Z4.0000 F1500.00
G1 X31.0000 Y19.0000 Z4.0000 F1500.00
G1 X17.6000 Y19.0000 Z4.0000 F1500.00
G2 X16.6000 Y20.0000 Z4.0000 I0.0000 J1.0000 F1500.00
G1 X16.6000 Y20.5000 Z4.0000 F1500.00
G1 X11.3893 Y20.5000 Z4.0000 F1500.00
G1 X11.3893 Y20.5000 Z4.0000 F1500.00
G1 X11.3893 Y20.5000 Z3.0000 F300.00
G1 X1.0000 Y20.5000 Z3.0000 F1500.00
G1 X0.7071 Y20.7929 Z3.0000 F1500.00
G1 X1.0000 Y20.5000 Z3.0000 F1500.00
G1 X1.0000 Y1.0000 Z3.0000 F1500.00
G1 X1.0000 Y1.0000 Z3.0000 F1500.00
G1 X0.7071 Y0.7071 Z3.0000 F1500.00
G1 X1.0000 Y1.0000 Z3.0000 F1500.00
G1 X31.0000 Y1.0000 Z3.0000 F1500.00
G1 X31.0000 Y1.0000 Z3.0000 F1500.00
G1 X31.2929 Y0.7071 Z3.0000 F1500.00
G1 X31.0000 Y1.0000 Z3.0000 F1500.00
G1 X31.0000 Y19.0000 Z3.0000 F1500.00
G1 X31.0000 Y19.0000 Z3.0000 F1500.00
G1 X31.2929 Y19.2929 Z3.0000 F1500.00
G1 X31.0000 Y19.0000 Z3.0000 F1500.00
G1 X17.6000 Y19.0000 Z3.0000 F1500.00
G2 X16.6000 Y20.0000 Z3.0000 I0.0000 J1.0000 F1500.00
G1 X16.6000 Y20.5000 Z3.0000 F1500.00
G1 X11.3893 Y20.5000 Z3.0000 F1500.00
G1 X11.3893 Y20.5000 Z3.0000 F1500.00
G0 X11.3893 Y20.5000 Z15.0000
G0 X11.3893 Y19.3000 Z15.0000
G1 X11.3893 Y19.3000 Z3.0000 F300.00
G1 X2.2000 Y19.3000 Z3.0000 F1500.00
G1 X2.2000 Y2.2000 Z3.0000 F1500.00
G1 X2.2000 Y2.2000 Z3.0000 F1500.00
G1 X29.8000 Y2.2000 Z3.0000 F1500.00
G1 X29.8000 Y2.2000 Z3.0000 F1500.00
G1 X29.8000 Y17.8000 Z3.0000 F1500.00
G1 X29.8000 Y17.8000 Z3.0000 F1500.00
G1 X17.6000 Y17.8000 Z3.0000 F1500.00
G2 X15.5248 Y19.3000 Z3.0000 I-0.0130 J2.1675 F1500.00
G1 X11.3893 Y19.3000 Z3.0000 F1500.00
G0 X11.3893 Y19.3000 Z15.0000
G0 X11.3893 Y18.1000 Z15.0000
G1 X11.3893 Y18.1000 Z3.0000 F300.00
G1 X3.4000 Y18.1000 Z3.0000 F1500.00
G1 X3.4000 Y3.4000 Z3.0000 F1500.00
G1 X3.4000 Y3.4000 Z3.0000 F1500.00
G1 X28.6000 Y3.4000 Z3.0000 F1500.00
G1 X28.6000 Y3.4000 Z3.0000 F1500.00
G1 X28.6000 Y5.6992 Z3.0000 F1500.00
G2 X20.1424 Y14.0433 Z3.0000 I-4.1018 J4.3008 F1500.00
G2 X28.6000 Y14.3008 Z3.0000 I4.3557 J-4.0387 F1500.00
G1 X28.6000 Y16.6000 Z3.0000 F1500.00
G1 X17.6000 Y16.6000 Z3.0000 F1500.00
G2 X14.7916 Y18.1000 Z3.0000 I-0.0163 J3.3484 F1500.00
G1 X11.3893 Y18.1000 Z3.0000 F1500.00
G0 X11.3893 Y18.1000 Z15.0000
G0 X11.3893 Y16.9000 Z15.0000
G1 X11.3893 Y16.9000 Z3.0000 F300.00
G1 X4.6000 Y16.9000 Z3.0000 F1500.00
G1 X4.6000 Y4.6000 Z3.0000 F1500.00
G1 X4.6000 Y4.6000 Z3.0000 F1500.00
G1 X19.8393 Y4.6000 Z3.0000 F1500.00
G2 X19.8393 Y15.4000 Z3.0000 I4.6302 J5.4000 F1500.00
G1 X17.6000 Y15.4000 Z3.0000 F1500.00
G2 X14.2134 Y16.9000 Z3.0000 I-0.0183 J4.5317 F1500.00
G1 X11.3893 Y16.9000 Z3.0000 F1500.00
G0 X11.3893 Y16.9000 Z15.0000
G0 X11.3893 Y15.7000 Z15.0000
G1 X11.3893 Y15.7000 Z3.0000 F300.00
G1 X5.8000 Y15.7000 Z3.0000 F1500.00
G1 X5.8000 Y5.8000 Z3.0000 F1500.00
G1 X5.8000 Y5.8000 Z3.0000 F1500.00
G1 X17.3086 Y5.8000 Z3.0000 F1500.00
G2 X16.2108 Y10.9483 Z3.0000 I6.9509 J4.1734 F1500.00
G2 X17.3181 Y14.2164 Z3.0000 I8.0035 J-0.8900 F1500.00
G2 X13.7202 Y15.7000 Z3.0000 I0.2211 J5.6406 F1500.00
G1 X11.3893 Y15.7000 Z3.0000 F1500.00
G0 X11.3893 Y15.7000 Z15.0000
G0 X11.3893 Y14.5000 Z15.0000
G1 X11.3893 Y14.5000 Z3.0000 F300.00
G1 X7.0000 Y14.5000 Z3.0000 F1500.00
G1 X7.0000 Y7.0000 Z3.0000 F1500.00
G1 X7.0000 Y7.0000 Z3.0000 F1500.00
G1 X15.4386 Y7.0000 Z3.0000 F1500.00
G2 X15.5478 Y13.3143 Z3.0000 I8.9891 J3.0028 F1500.00
G2 X13.2819 Y14.5000 Z3.0000 I1.8567 J6.3060 F1500.00
G1 X11.3893 Y14.5000 Z3.0000 F1500.00
G0 X11.3893 Y14.5000 Z15.0000
G0 X11.3893 Y13.3000 Z15.0000
G1 X11.3893 Y13.3000 Z3.0000 F300.00
G1 X8.2000 Y13.3000 Z3.0000 F1500.00
G1 X8.2000 Y8.2000 Z3.0000 F1500.00
G1 X8.2000 Y8.2000 Z3.0000 F1500.00
G1 X13.9029 Y8.2000 Z3.0000 F1500.00
G2 X14.0789 Y12.6054 Z3.0000 I10.7061 J1.7784 F1500.00
G2 X12.8852 Y13.3000 Z3.0000 I2.0658 J4.9233 F1500.00
G1 X11.3893 Y13.3000 Z3.0000 F1500.00
G0 X11.3893 Y13.3000 Z15.0000
G0 X11.3893 Y12.1000 Z15.0000
G1 X11.3893 Y12.1000 Z3.0000 F300.00
G1 X9.4000 Y12.1000 Z3.0000 F1500.00
G1 X9.4000 Y9.4000 Z3.0000 F1500.00
G1 X9.4000 Y9.4000 Z3.0000 F1500.00
G1 X12.5766 Y9.4000 Z3.0000 F1500.00
G2 X12.7159 Y11.9685 Z3.0000 I12.4986 J0.6102 F1500.00
G1 X12.5203 Y12.1000 Z3.0000 F1500.00
G1 X11.3893 Y12.1000 Z3.0000 F1500.00
G1 X11.3893 Y12.1000 Z3.0000 F1500.00
G0 X11.3893 Y12.1000 Z15.0000
G0 X11.3893 Y10.9000 Z15.0000
G1 X11.3893 Y10.9000 Z3.0000 F300.00
G1 X10.6000 Y10.9000 Z3.0000 F1500.00
G1 X10.6000 Y10.6000 Z3.0000 F1500.00
G1 X10.6000 Y10.6000 Z3.0000 F1500.00
G1 X11.3764 Y10.6000 Z3.0000 F1500.00
G1 X11.3764 Y10.6000 Z3.0000 F1500.00
G1 X11.3893 Y10.9000 Z3.0000 F1500.00
G1 X11.3893 Y10.9000 Z3.0000 F1500.00
G0 X11.3893 Y10.9000 Z15.0000
G0 X19.7656 Y10.3250 Z15.0000
G1 X19.7656 Y10.3250 Z3.0000 F300.00
G3 X23.8655 Y5.2971 Z3.0000 I4.7344 J-0.3250 F1500.00
G3 X29.2029 Y9.3655 Z3.0000 I0.6345 J4.7029 F1500.00
G3 X25.1345 Y14.7029 Z3.0000 I-4.7029 J0.6345 F1500.00
G3 X19.7656 Y10.3250 Z3.0000 I-0.6345 J-4.7029 F1500.00
G0 X19.7656 Y10.3250 Z15.0000
G0 X20.9611 Y10.2429 Z15.0000
G1 X20.9611 Y10.2429 Z3.0000 F300.00
G3 X23.9700 Y6.4925 Z3.0000 I3.5389 J-0.2429 F1500.00
G3 X28.0075 Y9.4700 Z3.0000 I0.5300 J3.5075 F1500.00
G3 X25.0300 Y13.5075 Z3.0000 I-3.5075 J0.5300 F1500.00
G3 X20.9611 Y10.2429 Z3.0000 I-0.5300 J-3.5075 F1500.00
G0 Z15.0000
(finish operation: DogboneDressup)
(begin operation: Profile_Faces)
(Path: Profile_Faces)
(Profile_Faces)
(Compensated Tool Path. Diameter: 2.0)
G0 Z15.0000
G0 X26.9730 Y12.4730
G0 Z13.0000
G1 X26.9730 Y12.4730 Z8.0000 F300.00
G3 X23.8113 Y13.4289 Z8.0000 I-2.4730 J-2.4730 F1500.00
G3 X25.1887 Y6.5711 Z8.0000 I0.6887 J-3.4289 F1500.00
G3 X26.9730 Y12.4730 Z8.0000 I-0.6887 J3.4289 F1500.00
G1 X26.9730 Y12.4730 Z6.0000 F300.00
G3 X23.8113 Y13.4289 Z6.0000 I-2.4730 J-2.4730 F1500.00
G3 X25.1887 Y6.5711 Z6.0000 I0.6887 J-3.4289 F1500.00
G3 X26.9730 Y12.4730 Z6.0000 I-0.6887 J3.4289 F1500.00
G1 X26.9730 Y12.4730 Z4.0000 F300.00
G3 X23.8113 Y13.4289 Z4.0000 I-2.4730 J-2.4730 F1500.00
G3 X25.1887 Y6.5711 Z4.0000 I0.6887 J-3.4289 F1500.00
G3 X26.9730 Y12.4730 Z4.0000 I-0.6887 J3.4289 F1500.00
G1 X26.9730 Y12.4730 Z3.0000 F300.00
G3 X23.8113 Y13.4289 Z3.0000 I-2.4730 J-2.4730 F1500.00
G3 X25.1887 Y6.5711 Z3.0000 I0.6887 J-3.4289 F1500.00
G3 X26.9730 Y12.4730 Z3.0000 I-0.6887 J3.4289 F1500.00
G0 Z15.0000
G0 X31.0500 Y19.0500
G0 Z13.0000
G1 X31.0500 Y19.0500 Z8.0000 F300.00
G1 X31.0500 Y0.9500 Z8.0000 F1500.00
G1 X0.9500 Y0.9500 Z8.0000 F1500.00
G1 X0.9500 Y20.5500 Z8.0000 F1500.00
G1 X16.6500 Y20.5500 Z8.0000 F1500.00
G1 X16.6500 Y20.0000 Z8.0000 F1500.00
G3 X17.6000 Y19.0500 Z8.0000 I0.9500 J-0.0000 F1500.00
G1 X31.0500 Y19.0500 Z8.0000 F1500.00
G1 X31.0500 Y19.0500 Z6.0000 F300.00
G1 X31.0500 Y0.9500 Z6.0000 F1500.00
G1 X0.9500 Y0.9500 Z6.0000 F1500.00
G1 X0.9500 Y20.5500 Z6.0000 F1500.00
G1 X16.6500 Y20.5500 Z6.0000 F1500.00
G1 X16.6500 Y20.0000 Z6.0000 F1500.00
G3 X17.6000 Y19.0500 Z6.0000 I0.9500 J-0.0000 F1500.00
G1 X31.0500 Y19.0500 Z6.0000 F1500.00
G1 X31.0500 Y19.0500 Z4.0000 F300.00
G1 X31.0500 Y0.9500 Z4.0000 F1500.00
G1 X0.9500 Y0.9500 Z4.0000 F1500.00
G1 X0.9500 Y20.5500 Z4.0000 F1500.00
G1 X16.6500 Y20.5500 Z4.0000 F1500.00
G1 X16.6500 Y20.0000 Z4.0000 F1500.00
G3 X17.6000 Y19.0500 Z4.0000 I0.9500 J-0.0000 F1500.00
G1 X31.0500 Y19.0500 Z4.0000 F1500.00
G1 X31.0500 Y19.0500 Z3.0000 F300.00
G1 X31.0500 Y0.9500 Z3.0000 F1500.00
G1 X0.9500 Y0.9500 Z3.0000 F1500.00
G1 X0.9500 Y20.5500 Z3.0000 F1500.00
G1 X16.6500 Y20.5500 Z3.0000 F1500.00
G1 X16.6500 Y20.0000 Z3.0000 F1500.00
G3 X17.6000 Y19.0500 Z3.0000 I0.9500 J-0.0000 F1500.00
G1 X31.0500 Y19.0500 Z3.0000 F1500.00
G0 Z15.0000
(finish operation: Profile_Faces)
(begin postamble)
M5
G17 G90
; M2
